; generated by PrusaSlicer 2.4.1+arm64 on 2022-04-06 at 20:06:50 UTC

; 

; external perimeters extrusion width = 0.50mm
; perimeters extrusion width = 0.50mm
; infill extrusion width = 0.50mm
; solid infill extrusion width = 0.50mm
; top infill extrusion width = 0.50mm
; first layer extrusion width = 0.50mm

M201 X400 Y400 Z90 E5000 ; sets maximum accelerations, mm/sec^2
M203 X400 Y400 Z5 E25 ; sets maximum feedrates, mm / sec
M204 P450 R450 T450 ; sets acceleration (P, T) and retract acceleration (R), mm/sec^2
M205 X8.00 Y8.00 Z0.40 E5.00 ; sets the jerk limits, mm/sec
M205 S0 T0 ; sets the minimum extruding and travel feed rate, mm/sec
M107
;TYPE:Custom
G90 ; use absolute coordinates
M83 ; extruder relative mode
M420 S1 ; Enable Bed Mesh
M140 S60 ; set final bed temp
M104 S150 ; set temporary nozzle temp to prevent oozing during homing
G4 S10 ; allow partial nozzle warmup
M569 S0 Y ; Disable stealthchop mode since bed appears to struggle to move at first
G28 ; home all axis
M569 S1 Y ; Re-enable stealthchop mode
G1 Z50 F240
G1 X2 Y10 F3000
M104 S210 ; set final nozzle temp
M190 S60 ; wait for bed temp to stabilize
M109 S210 ; wait for nozzle temp to stabilize
G1 Z0.65 F240 ; Zoffset applied manually here from prime movement
G92 E0
G1 Y140 E10 F1500 ; prime the nozzle
G1 X2.3 F5000
G92 E0
G1 Y10 E10 F1200 ; prime the nozzle
G92 E0
G21 ; set units to millimeters
G90 ; use absolute coordinates
M83 ; use relative distances for extrusion
; Filament gcode
M900 K0.2 ; Linear Advance
M107
;LAYER_CHANGE
;Z:0.28
;HEIGHT:0.28
;BEFORE_LAYER_CHANGE
G92 E0
;0.28


G1 E-2 F6000
G1 Z.565 F9000
G1 Z.645
;AFTER_LAYER_CHANGE
;0.28
G1 Z.845
G1 X140.587 Y140.229
G1 Z.645
G1 E2 F6000
M204 P450
;TYPE:Skirt/Brim
;WIDTH:0.5
G1 F1200
G1 X141.781 Y139.152 E.09062
G1 X142.838 Y138.327 E.07552
G1 X144.403 Y137.291 E.10571
G1 X145.858 Y136.499 E.09336
G1 X147.281 Y135.86 E.08787
G1 X148.54 Y135.399 E.07552
G1 X150.087 Y134.956 E.09062
G1 X151.927 Y134.592 E.10571
G1 X153.526 Y134.415 E.09061
G1 X154.866 Y134.363 E.07552
G1 X156.474 Y134.415 E.09062
G1 X158.073 Y134.592 E.09061
G1 X159.653 Y134.894 E.09062
G1 X161.205 Y135.317 E.09062
G1 X162.719 Y135.86 E.09062
G1 X164.186 Y136.519 E.09062
G1 X165.597 Y137.291 E.09062
G1 X166.945 Y138.17 E.09062
G1 X168.219 Y139.152 E.09062
G1 X169.54 Y140.351 E.10052
G1 X194.648 Y165.783 E2.01316
G1 X195.491 Y167.198 E.09277
G1 X195.64 Y168.2 E.05706
G1 X195.64 Y172.2 E.22533
G1 X195.246 Y173.799 E.09277
G1 X194.154 Y175.031 E.09277
G1 X192.2 Y175.64 E.11526
G1 X117.8 Y175.64 E4.19105
G1 X116.201 Y175.246 E.09277
G1 X114.969 Y174.154 E.09277
G1 X114.36 Y172.2 E.11526
G1 X114.36 Y168.2 E.22533
G1 X114.754 Y166.601 E.09277
G1 X115.352 Y165.783 E.05706
G1 X140.545 Y140.272 E2.01968
G1 E-2 F6000
G1 Z.845 F9000
G1 X147.305 Y147.96
G1 Z.645
G1 E2 F6000
;TYPE:Perimeter
G1 F1200
G1 X148.131 Y147.15 E.06518
G1 X149.004 Y146.464 E.06255
G1 X149.945 Y145.875 E.06255
G1 X150.944 Y145.389 E.06255
G1 X151.988 Y145.013 E.06255
G1 X153.067 Y144.749 E.06255
G1 X154.168 Y144.602 E.06255
G1 X155.2 Y144.574 E.05815
G1 X156.38 Y144.66 E.06669
G1 X157.476 Y144.866 E.06278
G1 X158.539 Y145.187 E.06255
G1 X159.562 Y145.619 E.06255
G1 X160.533 Y146.157 E.06255
G1 X161.442 Y146.795 E.06255
G1 X162.277 Y147.526 E.06255
G1 X163.031 Y148.342 E.06255
G1 X163.693 Y149.233 E.06255
G1 X164.256 Y150.19 E.06255
G1 X164.715 Y151.201 E.06255
G1 X165.064 Y152.255 E.06255
G1 X165.299 Y153.341 E.06255
G1 X165.417 Y154.445 E.06255
G1 X165.417 Y155.555 E.06255
G1 X165.299 Y156.659 E.06255
G1 X165.064 Y157.745 E.06255
G1 X164.715 Y158.799 E.06255
G1 X164.256 Y159.81 E.06255
G1 X163.693 Y160.767 E.06255
G1 X163.031 Y161.658 E.06255
G1 X162.33 Y162.416 E.05815
G1 X161.445 Y163.203 E.06669
G1 X160.533 Y163.843 E.06279
G1 X159.562 Y164.381 E.06255
G1 X158.539 Y164.813 E.06255
G1 X157.476 Y165.134 E.06255
G1 X156.385 Y165.339 E.06255
G1 X155.278 Y165.428 E.06255
G1 X154.168 Y165.398 E.06255
G1 X153.067 Y165.251 E.06255
G1 X151.988 Y164.987 E.06255
G1 X150.944 Y164.611 E.06255
G1 X149.945 Y164.125 E.06255
G1 X149.004 Y163.536 E.06255
G1 X148.131 Y162.85 E.06255
G1 X147.335 Y162.076 E.06255
G1 X146.626 Y161.221 E.06255
G1 X146.013 Y160.296 E.06255
G1 X145.501 Y159.31 E.06255
G1 X145.096 Y158.276 E.06255
G1 X144.804 Y157.205 E.06255
G1 X144.628 Y156.109 E.06255
G1 X144.568 Y155 E.06255
G1 X144.628 Y153.891 E.06255
G1 X144.804 Y152.795 E.06255
G1 X145.096 Y151.724 E.06255
G1 X145.501 Y150.69 E.06255
G1 X146.013 Y149.704 E.06255
G1 X146.626 Y148.779 E.06255
G1 X147.267 Y148.006 E.05653
G1 X147.676 Y148.207 F9000
G1 F1200
G1 X148.421 Y147.481 E.05859
G1 X149.257 Y146.824 E.05991
G1 X150.159 Y146.26 E.05991
G1 X151.115 Y145.795 E.05991
G1 X152.116 Y145.434 E.05991
G1 X153.149 Y145.182 E.05991
G1 X154.203 Y145.041 E.05991
G1 X155.19 Y145.015 E.0556
G1 X156.324 Y145.097 E.06405
G1 X157.371 Y145.294 E.06005
G1 X158.389 Y145.601 E.05991
G1 X159.369 Y146.015 E.05991
G1 X160.299 Y146.53 E.05991
G1 X161.17 Y147.142 E.05991
G1 X161.97 Y147.842 E.05991
G1 X162.691 Y148.623 E.05991
G1 X163.326 Y149.477 E.05991
G1 X163.866 Y150.393 E.05991
G1 X164.305 Y151.362 E.05991
G1 X164.639 Y152.371 E.05991
G1 X164.864 Y153.411 E.05991
G1 X164.977 Y154.468 E.05991
G1 X164.977 Y155.532 E.05991
G1 X164.864 Y156.589 E.05991
G1 X164.639 Y157.629 E.05991
G1 X164.305 Y158.638 E.05991
G1 X163.866 Y159.607 E.05991
G1 X163.326 Y160.523 E.05991
G1 X162.691 Y161.377 E.05991
G1 X162.022 Y162.102 E.0556
G1 X161.172 Y162.857 E.06405
G1 X160.299 Y163.47 E.06005
G1 X159.369 Y163.985 E.05991
G1 X158.389 Y164.399 E.05991
G1 X157.371 Y164.706 E.05991
G1 X156.326 Y164.903 E.05991
G1 X155.266 Y164.987 E.05991
G1 X154.203 Y164.959 E.05991
G1 X153.149 Y164.818 E.05991
G1 X152.116 Y164.566 E.05991
G1 X151.115 Y164.205 E.05991
G1 X150.159 Y163.74 E.05991
G1 X149.257 Y163.176 E.05991
G1 X148.421 Y162.519 E.05991
G1 X147.659 Y161.777 E.05991
G1 X146.98 Y160.958 E.05991
G1 X146.392 Y160.072 E.05991
G1 X145.902 Y159.128 E.05991
G1 X145.515 Y158.138 E.05991
G1 X145.235 Y157.112 E.05991
G1 X145.066 Y156.062 E.05991
G1 X145.009 Y155 E.05991
G1 X145.066 Y153.938 E.05991
G1 X145.235 Y152.888 E.05991
G1 X145.515 Y151.862 E.05991
G1 X145.902 Y150.872 E.05991
G1 X146.392 Y149.928 E.05991
G1 X146.98 Y149.042 E.05991
G1 X147.636 Y148.251 E.05785
G1 X147.983 Y148.522 F9000
;TYPE:External perimeter
G1 F1200
G1 X148.711 Y147.813 E.05727
G1 X149.51 Y147.185 E.05727
G1 X150.372 Y146.646 E.05727
G1 X151.287 Y146.201 E.05727
G1 X152.243 Y145.856 E.05727
G1 X153.23 Y145.615 E.05727
G1 X154.238 Y145.48 E.05727
G1 X155.179 Y145.455 E.05305
G1 X156.267 Y145.534 E.06141
G1 X157.267 Y145.722 E.05732
G1 X158.24 Y146.016 E.05727
G1 X159.177 Y146.411 E.05727
G1 X160.066 Y146.904 E.05727
G1 X160.898 Y147.488 E.05727
G1 X161.663 Y148.157 E.05727
G1 X162.352 Y148.904 E.05727
G1 X162.959 Y149.72 E.05727
G1 X163.475 Y150.596 E.05727
G1 X163.895 Y151.522 E.05727
G1 X164.214 Y152.487 E.05727
G1 X164.429 Y153.481 E.05727
G1 X164.537 Y154.492 E.05727
G1 X164.537 Y155.508 E.05727
G1 X164.429 Y156.519 E.05727
G1 X164.214 Y157.513 E.05727
G1 X163.895 Y158.478 E.05727
G1 X163.475 Y159.404 E.05727
G1 X162.959 Y160.28 E.05727
G1 X162.352 Y161.096 E.05727
G1 X161.713 Y161.788 E.05305
G1 X160.898 Y162.511 E.06141
G1 X160.066 Y163.096 E.05732
G1 X159.177 Y163.589 E.05727
G1 X158.24 Y163.984 E.05727
G1 X157.267 Y164.278 E.05727
G1 X156.268 Y164.466 E.05727
G1 X155.254 Y164.547 E.05727
G1 X154.238 Y164.52 E.05727
G1 X153.23 Y164.385 E.05727
G1 X152.243 Y164.144 E.05727
G1 X151.287 Y163.799 E.05727
G1 X150.372 Y163.354 E.05727
G1 X149.51 Y162.815 E.05727
G1 X148.711 Y162.187 E.05727
G1 X147.983 Y161.478 E.05727
G1 X147.334 Y160.696 E.05727
G1 X146.772 Y159.848 E.05727
G1 X146.303 Y158.946 E.05727
G1 X145.933 Y158 E.05727
G1 X145.665 Y157.019 E.05727
G1 X145.504 Y156.015 E.05727
G1 X145.45 Y155 E.05727
G1 X145.504 Y153.985 E.05727
G1 X145.665 Y152.981 E.05727
G1 X145.933 Y152 E.05727
G1 X146.303 Y151.054 E.05727
G1 X146.772 Y150.152 E.05727
G1 X147.334 Y149.304 E.05727
G1 X147.944 Y148.568 E.05389
G1 X147.864 Y148.14 F9000
G1 E-2 F6000
G1 Z.845 F9000
G1 X190.97 Y169.43
G1 Z.645
G1 E2 F6000
;TYPE:Perimeter
G1 F1200
G1 X190.97 Y170.97 E.08677
G1 X119.03 Y170.97 E4.0525
G1 X119.03 Y169.43 E.08677
G1 X134.413 Y169.43 E.86654
G1 X135.235 Y169.373 E.04642
G1 X136.083 Y169.193 E.04884
G1 X136.898 Y168.897 E.04884
G1 X137.664 Y168.491 E.04884
G1 X138.367 Y167.983 E.04884
G1 X138.992 Y167.382 E.04884
G1 X139.527 Y166.7 E.04884
G1 X139.963 Y165.95 E.04884
G1 X140.291 Y165.148 E.04884
G1 X140.504 Y164.307 E.04884
G1 X140.598 Y163.445 E.04884
G1 X140.572 Y162.578 E.04884
G1 X140.425 Y161.724 E.04884
G1 X140.182 Y160.962 E.04507
G1 X139.746 Y159.725 E.07388
G1 X139.424 Y158.522 E.07012
G1 X139.197 Y157.299 E.07012
G1 X139.066 Y156.061 E.07012
G1 X139.032 Y154.816 E.07012
G1 X139.095 Y153.573 E.07012
G1 X139.254 Y152.339 E.07012
G1 X139.509 Y151.121 E.07009
G1 X139.863 Y149.914 E.07085
G1 X140.3 Y148.762 E.0694
G1 X140.83 Y147.636 E.07012
G1 X141.447 Y146.555 E.07012
G1 X142.146 Y145.525 E.07012
G1 X142.923 Y144.552 E.07012
G1 X143.773 Y143.643 E.07011
G1 X144.692 Y142.803 E.07012
G1 X145.673 Y142.038 E.07012
G1 X146.711 Y141.351 E.07012
G1 X147.799 Y140.746 E.07012
G1 X148.931 Y140.229 E.07012
G1 X150.1 Y139.801 E.07012
G1 X151.299 Y139.466 E.07012
G1 X152.52 Y139.225 E.07012
G1 X153.756 Y139.079 E.07009
G1 X155.013 Y139.031 E.07086
G1 X156.244 Y139.079 E.0694
G1 X157.48 Y139.225 E.07012
G1 X158.701 Y139.466 E.07012
G1 X159.9 Y139.801 E.07012
G1 X161.069 Y140.229 E.07012
G1 X162.201 Y140.746 E.07012
G1 X163.289 Y141.351 E.07012
G1 X164.327 Y142.038 E.07012
G1 X165.308 Y142.803 E.07012
G1 X166.227 Y143.643 E.07012
G1 X167.077 Y144.552 E.07012
G1 X167.854 Y145.525 E.07012
G1 X168.553 Y146.555 E.07012
G1 X169.17 Y147.635 E.07009
G1 X169.705 Y148.774 E.07086
G1 X170.142 Y149.926 E.0694
G1 X170.491 Y151.121 E.07012
G1 X170.746 Y152.339 E.07012
G1 X170.905 Y153.573 E.07012
G1 X170.968 Y154.816 E.07012
G1 X170.934 Y156.061 E.07012
G1 X170.803 Y157.298 E.07012
G1 X170.576 Y158.522 E.07012
G1 X170.254 Y159.725 E.07012
G1 X169.818 Y160.962 E.07388
G1 X169.575 Y161.724 E.04507
G1 X169.428 Y162.578 E.04884
G1 X169.402 Y163.445 E.04884
G1 X169.496 Y164.307 E.04884
G1 X169.709 Y165.148 E.04884
G1 X170.037 Y165.95 E.04884
G1 X170.473 Y166.7 E.04884
G1 X170.74 Y167.041 E.02442
G1 X171.008 Y167.382 E.02442
G1 X171.633 Y167.983 E.04884
G1 X172.336 Y168.491 E.04884
G1 X173.102 Y168.897 E.04884
G1 X173.917 Y169.193 E.04884
G1 X174.765 Y169.373 E.04884
G1 X175.587 Y169.43 E.04642
G1 X190.91 Y169.43 E.86316
G1 X191.41 Y168.99 F9000
G1 F1200
G1 X191.41 Y171.41 E.13633
G1 X118.59 Y171.41 E4.10206
G1 X118.59 Y168.99 E.13633
G1 X134.397 Y168.99 E.89046
G1 X135.174 Y168.936 E.04383
G1 X135.962 Y168.769 E.04539
G1 X136.719 Y168.494 E.04539
G1 X137.431 Y168.117 E.04539
G1 X138.084 Y167.644 E.04539
G1 X138.665 Y167.086 E.04539
G1 X139.162 Y166.452 E.04539
G1 X139.567 Y165.756 E.04539
G1 X139.872 Y165.01 E.04539
G1 X140.07 Y164.229 E.04539
G1 X140.157 Y163.428 E.04539
G1 X140.133 Y162.622 E.04539
G1 X139.997 Y161.828 E.04539
G1 X139.765 Y161.102 E.04297
G1 X139.325 Y159.855 E.07447
G1 X138.995 Y158.619 E.07205
G1 X138.761 Y157.362 E.07205
G1 X138.627 Y156.09 E.07205
G1 X138.592 Y154.811 E.07205
G1 X138.656 Y153.534 E.07205
G1 X138.82 Y152.265 E.07205
G1 X139.082 Y151.014 E.07204
G1 X139.446 Y149.774 E.07279
G1 X139.894 Y148.59 E.07132
G1 X140.439 Y147.433 E.07205
G1 X141.073 Y146.322 E.07205
G1 X141.791 Y145.263 E.07205
G1 X142.59 Y144.264 E.07205
G1 X143.464 Y143.33 E.07205
G1 X144.408 Y142.467 E.07205
G1 X145.416 Y141.68 E.07205
G1 X146.482 Y140.974 E.07205
G1 X147.601 Y140.353 E.07205
G1 X148.764 Y139.822 E.07205
G1 X149.965 Y139.382 E.07205
G1 X151.197 Y139.037 E.07205
G1 X152.452 Y138.79 E.07205
G1 X153.722 Y138.64 E.07203
G1 X155.013 Y138.591 E.07279
G1 X156.278 Y138.64 E.07132
G1 X157.548 Y138.79 E.07205
G1 X158.803 Y139.037 E.07205
G1 X160.035 Y139.382 E.07205
G1 X161.236 Y139.822 E.07205
G1 X162.399 Y140.353 E.07205
G1 X163.518 Y140.974 E.07205
G1 X164.584 Y141.68 E.07205
G1 X165.592 Y142.467 E.07205
G1 X166.536 Y143.33 E.07205
G1 X167.41 Y144.264 E.07205
G1 X168.209 Y145.263 E.07205
G1 X168.927 Y146.322 E.07205
G1 X169.56 Y147.433 E.07204
G1 X170.11 Y148.602 E.07279
G1 X170.559 Y149.786 E.07132
G1 X170.918 Y151.014 E.07205
G1 X171.18 Y152.265 E.07205
G1 X171.344 Y153.534 E.07205
G1 X171.408 Y154.811 E.07205
G1 X171.373 Y156.09 E.07205
G1 X171.239 Y157.362 E.07205
G1 X171.005 Y158.619 E.07205
G1 X170.675 Y159.855 E.07205
G1 X170.235 Y161.102 E.07447
G1 X170.003 Y161.828 E.04297
G1 X169.867 Y162.622 E.04539
G1 X169.843 Y163.428 E.04539
G1 X169.93 Y164.229 E.04539
G1 X170.128 Y165.01 E.04539
G1 X170.433 Y165.756 E.04539
G1 X170.838 Y166.452 E.04539
G1 X171.086 Y166.769 E.02269
G1 X171.335 Y167.086 E.02269
G1 X171.916 Y167.644 E.04539
G1 X172.569 Y168.117 E.04539
G1 X173.281 Y168.494 E.04539
G1 X174.038 Y168.769 E.04539
G1 X174.826 Y168.936 E.04539
G1 X175.603 Y168.99 E.04383
G1 X191.35 Y168.99 E.88708
G1 X191.85 Y168.55 F9000
;TYPE:External perimeter
G1 F1200
G1 X191.85 Y171.85 E.18589
G1 X118.15 Y171.85 E4.15162
G1 X118.15 Y168.55 E.18589
G1 X134.382 Y168.55 E.91438
G1 X135.112 Y168.499 E.04124
G1 X135.841 Y168.345 E.04193
G1 X136.54 Y168.091 E.04193
G1 X137.198 Y167.742 E.04193
G1 X137.801 Y167.306 E.04193
G1 X138.338 Y166.79 E.04193
G1 X138.798 Y166.205 E.04193
G1 X139.172 Y165.561 E.04193
G1 X139.453 Y164.872 E.04193
G1 X139.636 Y164.15 E.04193
G1 X139.717 Y163.41 E.04193
G1 X139.694 Y162.666 E.04193
G1 X139.569 Y161.933 E.04193
G1 X139.348 Y161.242 E.04086
G1 X138.905 Y159.985 E.07505
G1 X138.565 Y158.717 E.07398
G1 X138.326 Y157.425 E.07398
G1 X138.187 Y156.119 E.07398
G1 X138.151 Y154.806 E.07398
G1 X138.218 Y153.495 E.07399
G1 X138.386 Y152.192 E.07398
G1 X138.655 Y150.907 E.07398
G1 X139.028 Y149.634 E.07472
G1 X139.489 Y148.418 E.07325
G1 X140.049 Y147.23 E.07398
G1 X140.699 Y146.089 E.07398
G1 X141.437 Y145.002 E.07398
G1 X142.257 Y143.976 E.07398
G1 X143.154 Y143.017 E.07398
G1 X144.123 Y142.131 E.07398
G1 X145.159 Y141.323 E.07398
G1 X146.254 Y140.598 E.07398
G1 X147.402 Y139.96 E.07398
G1 X148.597 Y139.414 E.07398
G1 X149.83 Y138.963 E.07398
G1 X151.095 Y138.609 E.07398
G1 X152.383 Y138.355 E.07398
G1 X153.688 Y138.201 E.07398
G1 X155.013 Y138.151 E.07472
G1 X156.312 Y138.201 E.07325
G1 X157.617 Y138.355 E.07398
G1 X158.905 Y138.609 E.07398
G1 X160.17 Y138.963 E.07398
G1 X161.403 Y139.414 E.07398
G1 X162.598 Y139.96 E.07398
G1 X163.746 Y140.598 E.07398
G1 X164.841 Y141.323 E.07398
G1 X165.877 Y142.131 E.07398
G1 X166.846 Y143.017 E.07398
G1 X167.743 Y143.976 E.07398
G1 X168.563 Y145.002 E.07398
G1 X169.301 Y146.089 E.07398
G1 X169.951 Y147.23 E.07398
G1 X170.516 Y148.43 E.07472
G1 X170.976 Y149.646 E.07325
G1 X171.345 Y150.907 E.07398
G1 X171.614 Y152.192 E.07398
G1 X171.782 Y153.495 E.07398
G1 X171.849 Y154.806 E.07398
G1 X171.813 Y156.119 E.07398
G1 X171.674 Y157.425 E.07398
G1 X171.435 Y158.717 E.07399
G1 X171.095 Y159.985 E.07398
G1 X170.652 Y161.242 E.07505
G1 X170.431 Y161.933 E.04086
G1 X170.306 Y162.666 E.04193
G1 X170.283 Y163.41 E.04193
G1 X170.364 Y164.15 E.04193
G1 X170.547 Y164.872 E.04193
G1 X170.828 Y165.561 E.04193
G1 X171.202 Y166.205 E.04193
G1 X171.432 Y166.497 E.02097
G1 X171.662 Y166.79 E.02097
G1 X172.199 Y167.306 E.04193
G1 X172.802 Y167.742 E.04193
G1 X173.46 Y168.091 E.04193
G1 X174.159 Y168.345 E.04193
G1 X174.888 Y168.499 E.04193
G1 X175.618 Y168.55 E.04124
G1 X191.79 Y168.55 E.911
G1 X191.65 Y168.896 F9000
G1 E-2 F6000
G1 Z.845 F9000
G1 X167.809 Y145.692
G1 Z.645
G1 E2 F6000
;TYPE:Solid infill
;WIDTH:0.500682
G1 F1200
G1 X165.991 Y143.875 E.14504
G1 X165.095 Y143.056 E.06849
G1 X164.134 Y142.306 E.06877
G1 X163.142 Y141.649 E.06712
G1 X168.34 Y146.847 E.41475
G1 X168.877 Y147.788 E.06109
G1 X169.071 Y148.201 E.02576
G1 X161.793 Y140.923 E.58072
G1 X160.943 Y140.534 E.05269
G1 X160.688 Y140.441 E.01535
G1 X169.554 Y149.307 E.70745
G1 X169.829 Y150.031 E.04364
G1 X169.9 Y150.276 E.01445
G1 X159.716 Y140.092 E.81258
