; generated by PrusaSlicer 2.4.1+arm64 on 2022-03-17 at 01:22:26 UTC

; 

; external perimeters extrusion width = 0.50mm
; perimeters extrusion width = 0.50mm
; infill extrusion width = 0.50mm
; solid infill extrusion width = 0.50mm
; top infill extrusion width = 0.50mm
; first layer extrusion width = 0.50mm

M201 X400 Y400 Z90 E5000 ; sets maximum accelerations, mm/sec^2
M203 X400 Y400 Z5 E25 ; sets maximum feedrates, mm / sec
M204 P450 R450 T450 ; sets acceleration (P, T) and retract acceleration (R), mm/sec^2
M205 X8.00 Y8.00 Z0.40 E5.00 ; sets the jerk limits, mm/sec
M205 S0 T0 ; sets the minimum extruding and travel feed rate, mm/sec
M107
;TYPE:Custom
G90 ; use absolute coordinates
M83 ; extruder relative mode
M420 S1 ; Enable Bed Mesh
M140 S60 ; set final bed temp
M104 S150 ; set temporary nozzle temp to prevent oozing during homing
G4 S10 ; allow partial nozzle warmup
M569 S0 Y ; Disable stealthchop mode since bed appears to struggle to move at first
G28 ; home all axis
M569 S1 Y ; Re-enable stealthchop mode
G1 Z50 F240
G1 X2 Y10 F3000
M104 S210 ; set final nozzle temp
M190 S60 ; wait for bed temp to stabilize
M109 S210 ; wait for nozzle temp to stabilize
G1 Z0.65 F240 ; Zoffset applied manually here from prime movement
G92 E0
G1 Y140 E10 F1500 ; prime the nozzle
G1 X2.3 F5000
G92 E0
G1 Y10 E10 F1200 ; prime the nozzle
G92 E0
G21 ; set units to millimeters
G90 ; use absolute coordinates
M83 ; use relative distances for extrusion
; Filament gcode
M900 K0.2 ; Linear Advance
M107
;LAYER_CHANGE
;Z:0.28
;HEIGHT:0.28
;BEFORE_LAYER_CHANGE
G92 E0
;0.28


G1 E-2 F6000
G1 Z.565 F9000
G1 Z.645
;AFTER_LAYER_CHANGE
;0.28
G1 Z.845
G1 X146.013 Y145.01
G1 Z.645
G1 E2 F6000
M204 P450
;TYPE:Skirt/Brim
;WIDTH:0.5
G1 F1200
G1 X147.127 Y144.11 E.08068
G1 X148.079 Y143.482 E.06425
G1 X150.142 Y142.472 E.12938
G1 X152.026 Y141.896 E.11099
G1 X153.148 Y141.691 E.06425
G1 X154.284 Y141.581 E.06425
G1 X155.716 Y141.581 E.08067
G1 X157.991 Y141.9 E.1294
G1 X159.875 Y142.478 E.11099
G1 X160.919 Y142.936 E.06425
G1 X161.921 Y143.482 E.06425
G1 X163.107 Y144.284 E.08068
G1 X164.802 Y145.808 E.1284
G1 X165.557 Y146.687 E.06525
G1 X166.659 Y148.319 E.111
G1 X167.621 Y150.386 E.12839
G1 X167.966 Y151.473 E.06425
G1 X168.268 Y152.873 E.08068
G1 X168.401 Y154.006 E.06425
G1 X168.401 Y155.994 E.11199
G1 X168.268 Y157.127 E.06425
G1 X167.966 Y158.527 E.08068
G1 X167.184 Y160.668 E.12839
G1 X166.659 Y161.681 E.06425
G1 X165.546 Y163.328 E.11199
G1 X163.987 Y164.99 E.12839
G1 X162.873 Y165.89 E.08068
G1 X161.921 Y166.518 E.06425
G1 X159.858 Y167.528 E.12938
G1 X157.974 Y168.104 E.11099
G1 X156.852 Y168.309 E.06425
G1 X155.716 Y168.419 E.06425
G1 X154.284 Y168.419 E.08067
G1 X152.009 Y168.1 E.1294
G1 X150.125 Y167.522 E.11099
G1 X149.081 Y167.064 E.06425
G1 X148.079 Y166.518 E.06425
G1 X146.893 Y165.716 E.08068
G1 X145.198 Y164.192 E.12839
G1 X144.443 Y163.313 E.06525
G1 X143.341 Y161.681 E.111
G1 X142.379 Y159.614 E.12839
G1 X142.034 Y158.527 E.06425
G1 X141.732 Y157.127 E.08068
G1 X141.599 Y155.994 E.06425
G1 X141.599 Y154.006 E.11199
G1 X141.732 Y152.873 E.06425
G1 X142.034 Y151.473 E.08068
G1 X142.816 Y149.332 E.12839
G1 X143.341 Y148.319 E.06425
G1 X144.454 Y146.672 E.11199
G1 X145.972 Y145.054 E.12501
G1 E-2 F6000
G1 Z.845 F9000
G1 X158.41 Y154.694
G1 Z.645
G1 E2 F6000
;TYPE:Perimeter
G1 F1200
G1 X159.316 Y154.468 E.05257
G1 X159.643 Y156.212 E.09996
G1 X160.135 Y159.342 E.17849
G1 X151.426 Y160.697 E.49652
G1 X150.944 Y157.565 E.17849
G1 X150.727 Y155.804 E.09996
G1 X151.707 Y155.741 E.05536
G1 X151.677 Y155.637 E.0061
G1 X151.615 Y155.014 E.03525
G1 X151.667 Y154.412 E.03408
G1 X151.824 Y153.831 E.03388
G1 X152.08 Y153.289 E.03378
G1 X152.417 Y152.813 E.03286
G1 X152.858 Y152.379 E.03484
G1 X153.356 Y152.042 E.03389
G1 X153.889 Y151.803 E.03287
G1 X154.488 Y151.655 E.03474
G1 X155.07 Y151.617 E.03288
G1 X155.666 Y151.682 E.03376
G1 X156.245 Y151.853 E.034
G1 X156.796 Y152.132 E.03484
G1 X157.262 Y152.483 E.03286
G1 X157.671 Y152.922 E.03378
G1 X157.997 Y153.427 E.03387
G1 X158.229 Y153.986 E.03407
G1 X158.36 Y154.598 E.03525
G1 X158.362 Y154.696 E.00551
G1 X158.969 Y155.008 F9000
G1 F1200
G1 X159.21 Y156.287 E.07331
G1 X159.632 Y158.975 E.1533
G1 X151.794 Y160.194 E.44688
G1 X151.38 Y157.505 E.1533
G1 X151.22 Y156.213 E.07331
G1 X152.307 Y156.143 E.06134
G1 X152.26 Y156.06 E.00543
G1 X152.111 Y155.553 E.02975
G1 X152.057 Y155.012 E.03063
G1 X152.102 Y154.489 E.02958
G1 X152.238 Y153.984 E.02945
G1 X152.461 Y153.512 E.02939
G1 X152.754 Y153.099 E.02849
G1 X153.138 Y152.721 E.03039
G1 X153.571 Y152.428 E.02946
G1 X154.033 Y152.221 E.0285
G1 X154.556 Y152.091 E.03032
G1 X155.06 Y152.058 E.0285
G1 X155.579 Y152.115 E.02938
G1 X156.082 Y152.263 E.02953
G1 X156.563 Y152.507 E.03038
G1 X156.967 Y152.811 E.02849
G1 X157.323 Y153.193 E.02939
G1 X157.606 Y153.633 E.02945
G1 X157.807 Y154.117 E.02957
G1 X157.921 Y154.649 E.03063
G1 X157.933 Y155.177 E.02976
G1 X157.913 Y155.272 E.00543
G1 X158.911 Y155.022 E.05796
G1 X158.623 Y155.548 F9000
;TYPE:External perimeter
G1 F1200
G1 X158.776 Y156.362 E.04665
G1 X159.129 Y158.608 E.12811
G1 X152.161 Y159.692 E.39723
G1 X151.816 Y157.444 E.12811
G1 X151.714 Y156.622 E.04665
G1 X152.842 Y156.55 E.06368
G1 X153.117 Y156.507 E.01566
G1 X152.902 Y156.301 E.01679
G1 X152.667 Y155.887 E.02681
G1 X152.544 Y155.468 E.02456
G1 X152.499 Y155.009 E.02602
G1 X152.537 Y154.565 E.02507
G1 X152.653 Y154.136 E.02503
G1 X152.843 Y153.735 E.02501
G1 X153.09 Y153.386 E.02412
G1 X153.418 Y153.063 E.02593
G1 X153.786 Y152.813 E.02503
G1 X154.177 Y152.638 E.02412
G1 X154.623 Y152.528 E.02591
G1 X155.051 Y152.5 E.02412
G1 X155.492 Y152.548 E.02501
G1 X155.919 Y152.674 E.02506
G1 X156.329 Y152.882 E.02593
G1 X156.671 Y153.139 E.02412
G1 X156.974 Y153.464 E.02501
G1 X157.215 Y153.838 E.02503
G1 X157.386 Y154.249 E.02507
G1 X157.482 Y154.7 E.02602
G1 X157.492 Y155.136 E.02457
G1 X157.394 Y155.602 E.02681
G1 X157.252 Y155.864 E.01679
G1 X157.526 Y155.822 E.01566
G1 X158.565 Y155.562 E.0603
G1 X159.015 Y155.469 F9000
G1 E-2 F6000
G1 Z.845 F9000
G1 X163.68 Y156.195
G1 Z.645
G1 E2 F6000
;TYPE:Perimeter
G1 F1200
G1 X163.643 Y156.482 E.01628
G1 X163.486 Y157.21 E.04193
G1 X163.268 Y157.921 E.04193
G1 X162.991 Y158.612 E.04193
G1 X162.656 Y159.277 E.04193
G1 X162.265 Y159.91 E.04193
G1 X161.823 Y160.509 E.04193
G1 X161.331 Y161.068 E.04193
G1 X160.794 Y161.583 E.04193
G1 X160.214 Y162.05 E.04193
G1 X159.598 Y162.467 E.04193
G1 X158.949 Y162.83 E.04189
G1 X158.258 Y163.141 E.04269
G1 X157.568 Y163.385 E.04121
G1 X156.847 Y163.572 E.04193
G1 X156.114 Y163.698 E.04193
G1 X155.372 Y163.761 E.04193
G1 X154.628 Y163.761 E.04193
G1 X153.886 Y163.698 E.04193
G1 X153.153 Y163.572 E.04193
G1 X152.432 Y163.385 E.04193
G1 X151.73 Y163.137 E.04193
G1 X151.052 Y162.83 E.04193
G1 X150.402 Y162.467 E.04193
G1 X149.786 Y162.05 E.04193
G1 X149.206 Y161.583 E.04193
G1 X148.669 Y161.068 E.04193
G1 X148.177 Y160.509 E.04193
G1 X147.735 Y159.91 E.04193
G1 X147.344 Y159.277 E.04193
G1 X147.009 Y158.612 E.04193
G1 X146.732 Y157.921 E.04193
G1 X146.514 Y157.21 E.04193
G1 X146.357 Y156.482 E.04193
G1 X146.263 Y155.744 E.04193
G1 X146.231 Y155 E.04193
G1 X146.263 Y154.256 E.04193
G1 X146.357 Y153.518 E.04193
G1 X146.514 Y152.79 E.04193
G1 X146.732 Y152.079 E.04193
G1 X147.009 Y151.388 E.04193
G1 X147.344 Y150.723 E.04193
G1 X147.735 Y150.09 E.04193
G1 X148.177 Y149.491 E.04193
G1 X148.669 Y148.932 E.04193
G1 X149.206 Y148.417 E.04193
G1 X149.786 Y147.95 E.04193
G1 X150.402 Y147.533 E.04193
G1 X151.052 Y147.17 E.04193
G1 X151.73 Y146.863 E.04193
G1 X152.432 Y146.615 E.04193
G1 X153.153 Y146.428 E.04193
G1 X153.886 Y146.302 E.04193
G1 X154.627 Y146.239 E.04189
G1 X155.385 Y146.24 E.04269
G1 X156.114 Y146.302 E.04121
G1 X156.847 Y146.428 E.04193
G1 X157.568 Y146.615 E.04193
G1 X158.27 Y146.863 E.04193
G1 X158.948 Y147.17 E.04193
G1 X159.597 Y147.533 E.04189
G1 X160.224 Y147.958 E.04269
G1 X160.794 Y148.417 E.04121
G1 X161.331 Y148.932 E.04193
G1 X161.823 Y149.491 E.04193
G1 X162.265 Y150.09 E.04193
G1 X162.656 Y150.723 E.04193
G1 X162.991 Y151.388 E.04193
G1 X163.268 Y152.079 E.04193
G1 X163.486 Y152.79 E.04193
G1 X163.643 Y153.518 E.04193
G1 X163.737 Y154.256 E.04193
G1 X163.769 Y155 E.04193
G1 X163.737 Y155.744 E.04193
G1 X163.687 Y156.136 E.02227
G1 X164.116 Y156.251 F9000
G1 F1200
G1 X164.077 Y156.556 E.01734
G1 X163.912 Y157.321 E.04403
G1 X163.683 Y158.068 E.04404
G1 X163.392 Y158.793 E.04404
G1 X163.04 Y159.491 E.04403
G1 X162.63 Y160.157 E.04404
G1 X162.165 Y160.786 E.04404
G1 X161.649 Y161.372 E.04403
G1 X161.084 Y161.913 E.04403
G1 X160.476 Y162.404 E.04404
G1 X159.829 Y162.842 E.04403
G1 X159.146 Y163.223 E.04401
G1 X158.421 Y163.55 E.04479
G1 X157.697 Y163.806 E.0433
G1 X156.94 Y164.003 E.04404
G1 X156.17 Y164.135 E.04404
G1 X155.391 Y164.201 E.04403
G1 X154.609 Y164.201 E.04404
G1 X153.83 Y164.135 E.04403
G1 X153.06 Y164.003 E.04404
G1 X152.303 Y163.806 E.04403
G1 X151.566 Y163.545 E.04403
G1 X150.854 Y163.223 E.04404
G1 X150.171 Y162.842 E.04404
G1 X149.524 Y162.404 E.04403
G1 X148.916 Y161.913 E.04404
G1 X148.351 Y161.372 E.04403
G1 X147.835 Y160.786 E.04403
G1 X147.37 Y160.157 E.04403
G1 X146.96 Y159.491 E.04404
G1 X146.608 Y158.793 E.04403
G1 X146.317 Y158.068 E.04404
G1 X146.088 Y157.321 E.04403
G1 X145.923 Y156.556 E.04404
G1 X145.824 Y155.781 E.04403
G1 X145.791 Y155 E.04404
G1 X145.824 Y154.219 E.04404
G1 X145.923 Y153.444 E.04403
G1 X146.088 Y152.679 E.04403
G1 X146.317 Y151.932 E.04404
G1 X146.608 Y151.207 E.04404
G1 X146.96 Y150.509 E.04403
G1 X147.37 Y149.843 E.04404
G1 X147.835 Y149.214 E.04404
G1 X148.351 Y148.628 E.04403
G1 X148.916 Y148.087 E.04403
G1 X149.524 Y147.596 E.04404
G1 X150.171 Y147.158 E.04404
G1 X150.854 Y146.777 E.04403
G1 X151.566 Y146.455 E.04404
G1 X152.303 Y146.194 E.04403
G1 X153.06 Y145.997 E.04404
G1 X153.83 Y145.865 E.04404
G1 X154.609 Y145.799 E.04401
G1 X155.404 Y145.8 E.0448
G1 X156.17 Y145.865 E.0433
G1 X156.94 Y145.997 E.04404
G1 X157.697 Y146.194 E.04403
G1 X158.434 Y146.455 E.04403
G1 X159.146 Y146.777 E.04404
G1 X159.828 Y147.158 E.04401
G1 X160.486 Y147.604 E.04479
G1 X161.084 Y148.087 E.0433
G1 X161.649 Y148.628 E.04403
G1 X162.165 Y149.214 E.04403
G1 X162.63 Y149.843 E.04403
G1 X163.04 Y150.509 E.04404
G1 X163.392 Y151.207 E.04403
G1 X163.683 Y151.932 E.04403
G1 X163.912 Y152.679 E.04403
G1 X164.077 Y153.444 E.04404
G1 X164.176 Y154.219 E.04403
G1 X164.209 Y155 E.04404
G1 X164.176 Y155.781 E.04404
G1 X164.124 Y156.192 E.02332
G1 X164.552 Y156.307 F9000
;TYPE:External perimeter
G1 F1200
G1 X164.511 Y156.631 E.01839
G1 X164.338 Y157.432 E.04614
G1 X164.098 Y158.215 E.04614
G1 X163.793 Y158.975 E.04614
G1 X163.424 Y159.706 E.04614
G1 X162.995 Y160.404 E.04614
G1 X162.508 Y161.062 E.04614
G1 X161.967 Y161.677 E.04614
G1 X161.375 Y162.244 E.04614
G1 X160.738 Y162.758 E.04614
G1 X160.059 Y163.217 E.04614
G1 X159.344 Y163.616 E.04613
G1 X158.585 Y163.958 E.0469
G1 X157.826 Y164.227 E.04539
G1 X157.033 Y164.433 E.04614
G1 X156.226 Y164.572 E.04614
G1 X155.41 Y164.641 E.04614
G1 X154.59 Y164.641 E.04614
G1 X153.774 Y164.572 E.04614
G1 X152.967 Y164.433 E.04614
G1 X152.174 Y164.227 E.04614
G1 X151.402 Y163.954 E.04614
G1 X150.656 Y163.616 E.04614
G1 X149.941 Y163.217 E.04614
G1 X149.262 Y162.758 E.04614
G1 X148.625 Y162.244 E.04614
G1 X148.033 Y161.677 E.04614
G1 X147.492 Y161.062 E.04614
G1 X147.005 Y160.404 E.04614
G1 X146.576 Y159.706 E.04614
G1 X146.207 Y158.975 E.04614
G1 X145.902 Y158.215 E.04614
G1 X145.662 Y157.432 E.04614
G1 X145.489 Y156.631 E.04614
G1 X145.385 Y155.818 E.04614
G1 X145.35 Y155 E.04614
G1 X145.385 Y154.182 E.04614
G1 X145.489 Y153.369 E.04614
G1 X145.662 Y152.568 E.04614
G1 X145.902 Y151.785 E.04614
G1 X146.207 Y151.025 E.04614
G1 X146.576 Y150.294 E.04614
G1 X147.005 Y149.596 E.04614
G1 X147.492 Y148.938 E.04614
G1 X148.033 Y148.323 E.04614
G1 X148.625 Y147.756 E.04614
G1 X149.262 Y147.242 E.04614
G1 X149.941 Y146.783 E.04614
G1 X150.656 Y146.384 E.04614
G1 X151.402 Y146.046 E.04614
G1 X152.174 Y145.773 E.04614
G1 X152.967 Y145.567 E.04614
G1 X153.774 Y145.428 E.04614
G1 X154.59 Y145.359 E.04613
G1 X155.423 Y145.36 E.0469
G1 X156.226 Y145.428 E.04539
G1 X157.033 Y145.567 E.04614
G1 X157.826 Y145.773 E.04614
G1 X158.598 Y146.046 E.04614
G1 X159.344 Y146.384 E.04614
G1 X160.059 Y146.783 E.04613
G1 X160.748 Y147.25 E.0469
G1 X161.375 Y147.756 E.04539
G1 X161.967 Y148.323 E.04614
G1 X162.508 Y148.938 E.04614
G1 X162.995 Y149.596 E.04614
G1 X163.424 Y150.294 E.04614
G1 X163.793 Y151.025 E.04614
G1 X164.098 Y151.785 E.04614
G1 X164.338 Y152.568 E.04614
G1 X164.511 Y153.369 E.04614
G1 X164.615 Y154.182 E.04614
G1 X164.65 Y155 E.04614
G1 X164.615 Y155.818 E.04614
G1 X164.56 Y156.247 E.02437
G1 X164.253 Y156.438 F9000
G1 E-2 F6000
G1 Z.845 F9000
G1 X159.671 Y147.742
G1 Z.645
G1 E2 F6000
;TYPE:Solid infill
;WIDTH:0.50404
G1 F1200
G1 X161.112 Y149.183 E.11588
G1 X161.566 Y149.699 E.039
G1 X161.992 Y150.274 E.04072
G1 X162.367 Y150.884 E.04072
G1 X162.552 Y151.251 E.02333
G1 X158.738 Y147.437 E.30661
G1 X158.146 Y147.17 E.03692
G1 X157.677 Y147.004 E.0283
G1 X162.999 Y152.325 E.42783
G1 X163.167 Y152.874 E.03259
G1 X163.235 Y153.189 E.01835
G1 X156.802 Y146.757 E.51713
G1 X156.045 Y146.627 E.04369
G1 X163.365 Y153.948 E.58855
G1 X163.408 Y154.284 E.01929
G1 X163.423 Y154.634 E.01987
G1 X155.36 Y146.57 E.64829
G1 X154.731 Y146.569 E.03574
G1 X163.428 Y155.266 E.69918
G1 X163.39 Y155.856 E.03365
G1 X154.145 Y146.611 E.74329
G1 X153.593 Y146.687 E.03167
G1 X163.319 Y156.413 E.78193
G1 X163.209 Y156.93 E.03008
G1 X153.069 Y146.79 E.81521
G1 X152.571 Y146.92 E.02926
G1 X163.075 Y157.425 E.84452
G1 X162.922 Y157.899 E.02834
G1 X159.688 Y154.666 E.25993
G1 X159.575 Y154.063 E.03485
G1 X159.184 Y154.161 E.02295
G1 X152.104 Y147.081 E.56919
G1 X151.654 Y147.26 E.02749
G1 X155.761 Y151.366 E.33013
G1 X155.054 Y151.287 E.04042
G1 X151.222 Y147.455 E.30808
G1 X150.818 Y147.679 E.02626
G1 X154.465 Y151.326 E.29321
G1 X153.958 Y151.446 E.02963
G1 X150.426 Y147.915 E.28392
G1 X150.052 Y148.168 E.02571
G1 X153.5 Y151.616 E.27722
G1 X153.195 Y151.753 E.01896
G1 X153.084 Y151.828 E.00766
G1 X149.699 Y148.444 E.27211
G1 X149.357 Y148.73 E.02534
G1 X152.709 Y152.082 E.26949
G1 X152.384 Y152.384 E.02526
G1 X149.037 Y149.037 E.26907
G1 X148.732 Y149.36 E.02525
G1 X152.085 Y152.712 E.26952
G1 X151.824 Y153.08 E.0256
G1 X148.438 Y149.694 E.27221
G1 X148.171 Y150.055 E.02551
G1 X151.616 Y153.499 E.27695
G1 X151.513 Y153.717 E.01367
G1 X151.448 Y153.959 E.01427
G1 X147.915 Y150.426 E.28402
G1 X147.676 Y150.815 E.02594
G1 X151.331 Y154.47 E.29388
G1 X151.288 Y155.055 E.03333
G1 X147.46 Y151.227 E.30775
G1 X147.258 Y151.653 E.0268
G1 X151.057 Y155.452 E.30541
G1 X150.467 Y155.49 E.03361
G1 X147.078 Y152.101 E.27245
G1 X146.925 Y152.575 E.02834
G1 X150.428 Y156.079 E.28166
G1 X150.517 Y156.795 E.04103
G1 X146.791 Y153.07 E.29951
G1 X146.681 Y153.587 E.03008
G1 X150.605 Y157.511 E.3155
G1 X150.716 Y158.25 E.04245
G1 X146.61 Y154.144 E.33012
G1 X146.592 Y154.284 E.00806
G1 X146.572 Y154.734 E.02561
G1 X150.83 Y158.992 E.34228
G1 X150.944 Y159.734 E.04267
G1 X146.37 Y155.16 E.36774
G1 E-2 F6000
G1 Z.845 F9000
G1 X158.36 Y153.965
G1 Z.645
G1 E2 F6000
G1 F1200
G1 X158.845 Y154.45 E.03899
G1 X159.586 Y155.191 F9000
G1 F1200
G1 X162.742 Y158.347 E.25373
G1 X162.54 Y158.773 E.0268
G1 X159.977 Y156.21 E.20606
G1 X160.094 Y156.955 E.04287
G1 X162.324 Y159.185 E.17931
G1 X162.085 Y159.574 E.02594
G1 X160.211 Y157.7 E.15066
G1 X160.328 Y158.445 E.04287
G1 X161.829 Y159.946 E.12065
G1 X161.562 Y160.306 E.02551
G1 X160.445 Y159.19 E.08974
G1 X160.513 Y159.617 E.02461
G1 X160.281 Y159.653 E.01332
G1 X161.268 Y160.64 E.07932
G1 X160.963 Y160.963 E.02525
G1 X159.738 Y159.738 E.0985
G1 X159.195 Y159.822 E.03126
G1 X160.643 Y161.27 E.11641
G1 X160.301 Y161.557 E.02534
G1 X158.651 Y159.907 E.13262
G1 X158.108 Y159.991 E.03126
G1 X159.948 Y161.832 E.14797
G1 X159.574 Y162.085 E.02571
G1 X157.565 Y160.076 E.16153
G1 X157.021 Y160.16 E.03126
G1 X159.182 Y162.321 E.17373
G1 X158.778 Y162.545 E.02626
G1 X156.478 Y160.245 E.1849
