; generated by PrusaSlicer 2.4.1+arm64 on 2022-04-07 at 01:59:02 UTC

; 

; external perimeters extrusion width = 0.50mm
; perimeters extrusion width = 0.50mm
; infill extrusion width = 0.50mm
; solid infill extrusion width = 0.50mm
; top infill extrusion width = 0.50mm
; first layer extrusion width = 0.50mm

M201 X400 Y400 Z90 E5000 ; sets maximum accelerations, mm/sec^2
M203 X400 Y400 Z5 E25 ; sets maximum feedrates, mm / sec
M204 P450 R450 T450 ; sets acceleration (P, T) and retract acceleration (R), mm/sec^2
M205 X8.00 Y8.00 Z0.40 E5.00 ; sets the jerk limits, mm/sec
M205 S0 T0 ; sets the minimum extruding and travel feed rate, mm/sec
M107
;TYPE:Custom
G90 ; use absolute coordinates
M83 ; extruder relative mode
M420 S1 ; Enable Bed Mesh
M140 S60 ; set final bed temp
M104 S150 ; set temporary nozzle temp to prevent oozing during homing
G4 S10 ; allow partial nozzle warmup
M569 S0 Y ; Disable stealthchop mode since bed appears to struggle to move at first
G28 ; home all axis
M569 S1 Y ; Re-enable stealthchop mode
G1 Z50 F240
G1 X2 Y10 F3000
M104 S210 ; set final nozzle temp
M190 S60 ; wait for bed temp to stabilize
M109 S210 ; wait for nozzle temp to stabilize
G1 Z0.65 F240 ; Zoffset applied manually here from prime movement
G92 E0
G1 Y140 E10 F1500 ; prime the nozzle
G1 X2.3 F5000
G92 E0
G1 Y10 E10 F1200 ; prime the nozzle
G92 E0
G21 ; set units to millimeters
G90 ; use absolute coordinates
M83 ; use relative distances for extrusion
; Filament gcode
M900 K0.2 ; Linear Advance
M107
;LAYER_CHANGE
;Z:0.28
;HEIGHT:0.28
;BEFORE_LAYER_CHANGE
G92 E0
;0.28


G1 E-2 F6000
G1 Z.565 F9000
G1 Z.645
;AFTER_LAYER_CHANGE
;0.28
G1 Z.845
G1 X142.613 Y147.428
G1 Z.645
G1 E2 F6000
M204 P450
;TYPE:Skirt/Brim
;WIDTH:0.5
G1 F1200
G1 X146.889 Y144.286 E.2989
G1 X148.505 Y143.236 E.10858
G1 X150.517 Y142.332 E.12427
G1 X151.853 Y141.936 E.07844
G1 X153.743 Y141.622 E.10794
G1 X155.928 Y141.595 E.12309
G1 X157.051 Y141.72 E.06368
G1 X158.422 Y142.005 E.07887
G1 X160.242 Y142.627 E.10836
G1 X161.495 Y143.236 E.07844
G1 X163.098 Y144.277 E.10771
G1 X167.387 Y147.428 E.29976
G1 X168.442 Y148.692 E.09277
G1 X168.79 Y150.2 E.08715
G1 X168.79 Y159.8 E.54078
G1 X168.396 Y161.399 E.09277
G1 X167.387 Y162.572 E.08715
G1 X163.111 Y165.714 E.2989
G1 X161.495 Y166.764 E.10858
G1 X159.483 Y167.668 E.12427
G1 X158.147 Y168.064 E.07844
G1 X155.979 Y168.402 E.12362
G1 X154.048 Y168.404 E.1088
G1 X152.949 Y168.28 E.0623
G1 X151.578 Y167.995 E.07887
G1 X149.758 Y167.373 E.10836
G1 X148.505 Y166.764 E.07844
G1 X146.902 Y165.723 E.10771
G1 X142.613 Y162.572 E.29976
G1 X141.558 Y161.308 E.09277
G1 X141.21 Y159.8 E.08715
G1 X141.21 Y150.2 E.54078
G1 X141.604 Y148.601 E.09277
G1 X142.574 Y147.474 E.08377
G1 E-2 F6000
G1 Z.845 F9000
G1 X150.693 Y152.48
G1 Z.645
G1 E2 F6000
;TYPE:Perimeter
G1 F1200
G1 X151.04 Y151.961 E.03516
G1 X151.47 Y151.47 E.03678
G1 X151.961 Y151.04 E.03678
G1 X152.504 Y150.677 E.03678
G1 X153.09 Y150.388 E.03678
G1 X153.708 Y150.178 E.03678
G1 X154.348 Y150.051 E.03678
G1 X154.985 Y150.009 E.03593
G1 X155.65 Y150.051 E.03756
G1 X156.292 Y150.178 E.03684
G1 X156.91 Y150.388 E.03678
G1 X157.496 Y150.677 E.03678
G1 X158.039 Y151.04 E.03678
G1 X158.53 Y151.47 E.03678
G1 X158.96 Y151.961 E.03678
G1 X159.323 Y152.504 E.03678
G1 X159.611 Y153.089 E.03672
G1 X159.825 Y153.723 E.03771
G1 X159.949 Y154.347 E.03582
G1 X159.991 Y155 E.03686
G1 X159.949 Y155.653 E.03686
G1 X159.825 Y156.277 E.03582
G1 X159.611 Y156.911 E.03771
G1 X159.323 Y157.496 E.03672
G1 X158.96 Y158.039 E.03678
G1 X158.53 Y158.53 E.03678
G1 X158.039 Y158.96 E.03678
G1 X157.496 Y159.323 E.03678
G1 X156.91 Y159.612 E.03678
G1 X156.292 Y159.822 E.03678
G1 X155.652 Y159.949 E.03678
G1 X155 Y159.992 E.03678
G1 X154.348 Y159.949 E.03678
G1 X153.708 Y159.822 E.03678
G1 X153.09 Y159.612 E.03678
G1 X152.504 Y159.323 E.03678
G1 X151.961 Y158.96 E.03678
G1 X151.47 Y158.53 E.03678
G1 X151.04 Y158.039 E.03678
G1 X150.677 Y157.496 E.03678
G1 X150.389 Y156.911 E.03672
G1 X150.175 Y156.277 E.03771
G1 X150.051 Y155.653 E.03582
G1 X150.009 Y155 E.03686
G1 X150.051 Y154.347 E.03686
G1 X150.175 Y153.723 E.03582
G1 X150.389 Y153.089 E.03771
G1 X150.663 Y152.532 E.03496
G1 X151.059 Y152.725 F9000
;TYPE:External perimeter
G1 F1200
G1 X151.39 Y152.23 E.03353
G1 X151.782 Y151.782 E.03353
G1 X152.23 Y151.39 E.03353
G1 X152.725 Y151.059 E.03353
G1 X153.259 Y150.796 E.03353
G1 X153.822 Y150.604 E.03353
G1 X154.406 Y150.488 E.03353
G1 X154.986 Y150.45 E.03272
G1 X155.594 Y150.488 E.03432
G1 X156.178 Y150.604 E.03355
G1 X156.741 Y150.796 E.03353
G1 X157.275 Y151.059 E.03353
G1 X157.77 Y151.39 E.03353
G1 X158.218 Y151.782 E.03353
G1 X158.61 Y152.23 E.03353
G1 X158.941 Y152.725 E.03353
G1 X159.204 Y153.257 E.03344
G1 X159.399 Y153.837 E.03446
G1 X159.511 Y154.404 E.0326
G1 X159.551 Y155 E.03362
G1 X159.511 Y155.596 E.03362
G1 X159.399 Y156.163 E.0326
G1 X159.204 Y156.743 E.03446
G1 X158.941 Y157.275 E.03344
G1 X158.61 Y157.77 E.03353
G1 X158.218 Y158.218 E.03353
G1 X157.77 Y158.61 E.03353
G1 X157.275 Y158.941 E.03353
G1 X156.741 Y159.204 E.03353
G1 X156.178 Y159.396 E.03353
G1 X155.594 Y159.512 E.03353
G1 X155 Y159.551 E.03353
G1 X154.406 Y159.512 E.03353
G1 X153.822 Y159.396 E.03353
G1 X153.259 Y159.204 E.03353
G1 X152.725 Y158.941 E.03353
G1 X152.23 Y158.61 E.03353
G1 X151.782 Y158.218 E.03353
G1 X151.39 Y157.77 E.03353
G1 X151.059 Y157.275 E.03353
G1 X150.796 Y156.743 E.03344
G1 X150.601 Y156.163 E.03446
G1 X150.489 Y155.596 E.0326
G1 X150.449 Y155 E.03362
G1 X150.489 Y154.404 E.03362
G1 X150.601 Y153.837 E.0326
G1 X150.796 Y153.257 E.03446
G1 X151.032 Y152.778 E.03006
G1 X150.859 Y152.378 F9000
G1 X150.43 Y150.97
;TYPE:Perimeter
G1 F1200
G1 X147.199 Y150.97 E.18199
G1 X147.679 Y150.173 E.05245
G1 X148.101 Y149.587 E.04065
G1 X148.569 Y149.038 E.04065
G1 X149.081 Y148.529 E.04065
G1 X149.634 Y148.065 E.04065
G1 X150.222 Y147.647 E.04065
G1 X150.843 Y147.279 E.04065
G1 X151.492 Y146.963 E.04065
G1 X152.164 Y146.702 E.04065
G1 X152.856 Y146.497 E.04065
G1 X153.563 Y146.349 E.04065
G1 X154.279 Y146.261 E.04065
G1 X155 Y146.231 E.04065
G1 X155.721 Y146.261 E.04065
G1 X156.437 Y146.349 E.04066
G1 X157.144 Y146.497 E.04065
G1 X157.836 Y146.702 E.04065
G1 X158.508 Y146.963 E.04065
G1 X159.157 Y147.279 E.04065
G1 X159.778 Y147.647 E.04065
G1 X160.366 Y148.065 E.04065
G1 X160.919 Y148.529 E.04065
G1 X161.431 Y149.038 E.04065
G1 X161.899 Y149.587 E.04065
G1 X162.321 Y150.173 E.04065
G1 X162.801 Y150.97 E.05244
G1 X159.57 Y150.97 E.18199
G1 X159.57 Y152.083 E.06266
G1 X159.31 Y151.693 E.02639
G1 X158.841 Y151.159 E.04003
G1 X158.307 Y150.69 E.04003
G1 X157.716 Y150.295 E.04003
G1 X157.079 Y149.981 E.04003
G1 X156.406 Y149.753 E.04003
G1 X155.707 Y149.614 E.04013
G1 X154.984 Y149.569 E.04081
G1 X154.291 Y149.614 E.03914
G1 X153.594 Y149.753 E.04003
G1 X152.921 Y149.981 E.04003
G1 X152.284 Y150.295 E.04003
G1 X151.693 Y150.69 E.04003
G1 X151.159 Y151.159 E.04003
G1 X150.69 Y151.693 E.04003
G1 X150.43 Y152.083 E.02639
G1 X150.43 Y151.03 E.05928
G1 E-2 F6000
G1 Z.845 F9000
G1 X164.14 Y151.41
G1 Z.645
G1 E2 F6000
G1 F1200
G1 X164.14 Y158.59 E.40445
G1 X160.01 Y158.59 E.23264
G1 X160.01 Y151.41 E.40445
G1 X164.08 Y151.41 E.22926
G1 X163.7 Y151.85 F9000
;TYPE:External perimeter
G1 F1200
G1 X163.7 Y158.15 E.35489
G1 X160.45 Y158.15 E.18308
G1 X160.45 Y151.85 E.35489
G1 X163.64 Y151.85 E.1797
G1 X164.074 Y151.707 F9000
G1 E-2 F6000
G1 Z.845 F9000
G1 X150.43 Y157.917
G1 Z.645
G1 E2 F6000
;TYPE:Perimeter
G1 F1200
G1 X150.69 Y158.307 E.02639
G1 X151.159 Y158.841 E.04003
G1 X151.693 Y159.31 E.04003
G1 X152.284 Y159.705 E.04003
G1 X152.921 Y160.019 E.04003
G1 X153.594 Y160.247 E.04003
G1 X154.291 Y160.386 E.04003
G1 X155 Y160.432 E.04003
G1 X155.709 Y160.386 E.04003
G1 X156.406 Y160.247 E.04003
G1 X157.079 Y160.019 E.04003
G1 X157.716 Y159.705 E.04003
G1 X158.307 Y159.31 E.04003
G1 X158.841 Y158.841 E.04003
G1 X159.31 Y158.307 E.04003
G1 X159.57 Y157.917 E.02639
G1 X159.57 Y159.03 E.06266
G1 X162.801 Y159.03 E.18199
G1 X162.321 Y159.827 E.05245
G1 X161.899 Y160.413 E.04065
G1 X161.431 Y160.962 E.04065
G1 X160.919 Y161.471 E.04065
G1 X160.366 Y161.935 E.04065
G1 X159.778 Y162.353 E.04065
G1 X159.157 Y162.721 E.04065
G1 X158.508 Y163.037 E.04065
G1 X157.836 Y163.298 E.04065
G1 X157.144 Y163.503 E.04065
G1 X156.437 Y163.651 E.04065
G1 X155.721 Y163.739 E.04065
G1 X155 Y163.769 E.04065
G1 X154.279 Y163.739 E.04065
G1 X153.563 Y163.651 E.04066
G1 X152.856 Y163.503 E.04065
G1 X152.164 Y163.298 E.04065
G1 X151.492 Y163.037 E.04065
G1 X150.843 Y162.721 E.04065
G1 X150.222 Y162.353 E.04065
G1 X149.634 Y161.935 E.04065
G1 X149.081 Y161.471 E.04065
G1 X148.569 Y160.962 E.04065
G1 X148.101 Y160.413 E.04065
G1 X147.679 Y159.827 E.04065
G1 X147.199 Y159.03 E.05245
G1 X150.43 Y159.03 E.18199
G1 X150.43 Y157.977 E.05928
G1 E-2 F6000
G1 Z.845 F9000
G1 X149.99 Y151.41
G1 Z.645
G1 E2 F6000
G1 F1200
G1 X149.99 Y158.59 E.40445
G1 X145.86 Y158.59 E.23264
G1 X145.86 Y151.41 E.40445
G1 X149.93 Y151.41 E.22926
G1 X149.55 Y151.85 F9000
;TYPE:External perimeter
G1 F1200
G1 X149.55 Y158.15 E.35489
G1 X146.3 Y158.15 E.18308
G1 X146.3 Y151.85 E.35489
G1 X149.49 Y151.85 E.1797
G1 X149.924 Y151.707 F9000
G1 E-2 F6000
G1 Z.845 F9000
G1 X163.326 Y150.99
G1 Z.645
G1 E2 F6000
;TYPE:Perimeter
G1 F1200
G1 X164.56 Y150.99 E.06951
G1 X164.56 Y159.01 E.45179
G1 X163.326 Y159.01 E.06951
G1 X162.688 Y160.07 E.06968
G1 X162.245 Y160.685 E.04269
G1 X161.753 Y161.261 E.04269
G1 X161.216 Y161.795 E.04269
G1 X160.636 Y162.284 E.04269
G1 X160.018 Y162.722 E.04269
G1 X159.366 Y163.109 E.04269
G1 X158.684 Y163.44 E.04269
G1 X157.978 Y163.715 E.04269
G1 X157.251 Y163.93 E.04269
G1 X156.509 Y164.085 E.04269
G1 X155.757 Y164.178 E.0427
G1 X155 Y164.209 E.04269
G1 X154.243 Y164.178 E.04269
G1 X153.491 Y164.085 E.0427
G1 X152.749 Y163.93 E.04269
G1 X152.022 Y163.715 E.04269
G1 X151.316 Y163.44 E.04269
G1 X150.634 Y163.109 E.04269
G1 X149.982 Y162.722 E.04269
G1 X149.364 Y162.284 E.04269
G1 X148.784 Y161.795 E.04269
G1 X148.247 Y161.261 E.04269
G1 X147.755 Y160.685 E.04269
G1 X147.312 Y160.07 E.04269
G1 X146.674 Y159.01 E.06968
G1 X145.44 Y159.01 E.06951
G1 X145.44 Y150.99 E.45179
G1 X146.674 Y150.99 E.06951
G1 X147.312 Y149.93 E.06968
G1 X147.755 Y149.315 E.04269
G1 X148.247 Y148.739 E.04269
G1 X148.784 Y148.205 E.04269
G1 X149.364 Y147.716 E.04269
G1 X149.982 Y147.278 E.04269
G1 X150.634 Y146.891 E.04269
G1 X151.316 Y146.56 E.04269
G1 X152.022 Y146.285 E.04269
G1 X152.749 Y146.07 E.04269
G1 X153.491 Y145.915 E.04269
G1 X154.243 Y145.822 E.0427
G1 X155 Y145.791 E.04269
G1 X155.757 Y145.822 E.04269
G1 X156.509 Y145.915 E.0427
G1 X157.251 Y146.07 E.04269
G1 X157.978 Y146.285 E.04269
G1 X158.684 Y146.56 E.04269
G1 X159.366 Y146.891 E.04269
G1 X160.018 Y147.278 E.04269
G1 X160.636 Y147.716 E.04269
G1 X161.216 Y148.205 E.04269
G1 X161.753 Y148.739 E.04269
G1 X162.245 Y149.315 E.04269
G1 X162.688 Y149.93 E.04269
G1 X163.295 Y150.939 E.0663
G1 X163.575 Y150.55 F9000
;TYPE:External perimeter
G1 F1200
G1 X165 Y150.55 E.08028
G1 X165 Y159.45 E.50135
G1 X163.575 Y159.45 E.08028
G1 X163.056 Y160.312 E.05669
G1 X162.592 Y160.957 E.04473
G1 X162.076 Y161.561 E.04473
G1 X161.513 Y162.12 E.04473
G1 X160.905 Y162.632 E.04473
G1 X160.258 Y163.091 E.04473
G1 X159.575 Y163.496 E.04473
G1 X158.861 Y163.844 E.04474
G1 X158.12 Y164.131 E.04473
G1 X157.359 Y164.357 E.04473
G1 X156.582 Y164.519 E.04473
G1 X155.793 Y164.617 E.04474
G1 X155 Y164.65 E.04473
G1 X154.207 Y164.617 E.04473
G1 X153.418 Y164.519 E.04474
G1 X152.641 Y164.357 E.04473
G1 X151.88 Y164.131 E.04473
G1 X151.139 Y163.844 E.04473
G1 X150.425 Y163.496 E.04473
G1 X149.742 Y163.091 E.04473
G1 X149.095 Y162.632 E.04473
G1 X148.487 Y162.12 E.04473
G1 X147.924 Y161.561 E.04474
G1 X147.408 Y160.957 E.04473
G1 X146.944 Y160.312 E.04473
G1 X146.425 Y159.45 E.05669
G1 X145 Y159.45 E.08028
G1 X145 Y150.55 E.50135
G1 X146.425 Y150.55 E.08028
G1 X146.944 Y149.688 E.05669
G1 X147.408 Y149.043 E.04473
G1 X147.924 Y148.439 E.04473
G1 X148.487 Y147.88 E.04473
G1 X149.095 Y147.368 E.04473
G1 X149.742 Y146.909 E.04473
G1 X150.425 Y146.504 E.04473
G1 X151.139 Y146.156 E.04474
G1 X151.88 Y145.869 E.04473
G1 X152.641 Y145.643 E.04473
G1 X153.418 Y145.481 E.04473
G1 X154.207 Y145.383 E.04474
G1 X155 Y145.35 E.04473
G1 X155.793 Y145.383 E.04473
G1 X156.582 Y145.481 E.04474
G1 X157.359 Y145.643 E.04473
G1 X158.12 Y145.869 E.04473
G1 X158.861 Y146.156 E.04473
G1 X159.575 Y146.504 E.04473
G1 X160.258 Y146.909 E.04473
G1 X160.905 Y147.368 E.04473
G1 X161.513 Y147.88 E.04473
G1 X162.076 Y148.439 E.04474
G1 X162.592 Y149.043 E.04473
G1 X163.056 Y149.688 E.04473
G1 X163.544 Y150.499 E.05331
G1 X163.651 Y150.943 F9000
G1 X162.275 Y150.352
;TYPE:Solid infill
;WIDTH:0.504253
G1 F1200
G1 X160.696 Y148.773 E.12698
G1 X160.164 Y148.326 E.0395
G1 X159.598 Y147.924 E.0395
G1 X159.001 Y147.57 E.0395
G1 X158.735 Y147.441 E.01678
G1 X161.935 Y150.64 E.25737
G1 X161.307 Y150.64 E.03573
G1 X157.661 Y146.994 E.29326
G1 X157.063 Y146.817 E.03547
G1 X156.801 Y146.762 E.01523
G1 X160.679 Y150.64 E.31192
G1 X160.051 Y150.64 E.03573
G1 X156.043 Y146.633 E.32232
G1 X155.694 Y146.59 E.02003
G1 X155.358 Y146.576 E.01912
G1 X159.422 Y150.64 E.32692
G1 X159.24 Y150.64 E.01036
G1 X159.24 Y151.086 E.02536
G1 X154.726 Y146.572 E.36307
G1 X154.306 Y146.59 E.02392
G1 X154.137 Y146.611 E.00972
G1 X157.199 Y149.674 E.24636
G1 X156.492 Y149.433 E.04252
G1 X156.291 Y149.393 E.01162
G1 X153.581 Y146.683 E.21803
G1 X153.061 Y146.791 E.03019
G1 X155.542 Y149.273 E.19961
G1 X154.886 Y149.244 E.03738
G1 X152.568 Y146.926 E.18644
G1 X152.096 Y147.083 E.02828
G1 X154.296 Y149.283 E.177
G1 X153.767 Y149.382 E.03063
G1 X151.643 Y147.258 E.17081
G1 X151.624 Y147.266 E.00119
G1 X151.22 Y147.463 E.02557
G1 X153.271 Y149.514 E.165
G1 X152.802 Y149.673 E.02817
G1 X150.81 Y147.682 E.16019
G1 X150.416 Y147.915 E.02607
G1 X152.381 Y149.88 E.15801
G1 X152.118 Y150.009 E.01662
G1 X151.977 Y150.104 E.00971
G1 X150.048 Y148.175 E.15514
G1 X149.692 Y148.447 E.02549
G1 X151.6 Y150.355 E.1535
G1 X151.253 Y150.637 E.0254
G1 X149.351 Y148.734 E.15305
G1 X149.032 Y149.044 E.02526
G1 X151.06 Y151.071 E.1631
G1 X150.198 Y150.838 F9000
G1 F1200
G1 X148.725 Y149.364 E.11854
G1 X148.435 Y149.703 E.02534
G1 X149.372 Y150.64 E.07536
G1 X148.744 Y150.64 E.03573
G1 X148.166 Y150.062 E.04653
G1 X147.908 Y150.432 E.02567
G1 X148.314 Y150.838 E.03265
G1 E-2 F6000
G1 Z.845 F9000
G1 X150.21 Y152.461
G1 Z.645
G1 E2 F6000
;TYPE:Gap fill
;WIDTH:0.166215
G1 F1200
G1 X150.518 Y152.339 E.0045
G1 E-2 F6000
G1 Z.845 F9000
G1 X150.21 Y157.539
G1 Z.645
G1 E2 F6000
;WIDTH:0.16621
G1 F1200
G1 X150.518 Y157.661 E.0045
G1 E-2 F6000
G1 Z.845 F9000
G1 X159.482 Y157.661
G1 Z.645
G1 E2 F6000
;WIDTH:0.166215
G1 F1200
G1 X159.79 Y157.539 E.0045
G1 E-2 F6000
G1 Z.845 F9000
G1 X161.686 Y159.162
G1 Z.645
G1 E2 F6000
;TYPE:Solid infill
;WIDTH:0.504253
G1 F1200
G1 X162.092 Y159.568 E.03265
G1 X161.834 Y159.938 E.02567
G1 X161.256 Y159.36 E.04653
G1 X160.628 Y159.36 E.03573
G1 X161.565 Y160.297 E.07536
G1 X161.275 Y160.636 E.02534
G1 X159.802 Y159.162 E.11855
G1 X158.94 Y158.929 F9000
G1 F1200
G1 X160.968 Y160.956 E.1631
G1 X160.649 Y161.266 E.02526
G1 X158.747 Y159.363 E.15305
G1 X158.4 Y159.645 E.0254
G1 X160.308 Y161.553 E.1535
G1 X159.952 Y161.825 E.02549
G1 X158.023 Y159.896 E.15514
G1 X157.882 Y159.991 E.00971
G1 X157.619 Y160.12 E.01663
G1 X159.584 Y162.085 E.15801
G1 X159.189 Y162.318 E.02607
G1 X157.198 Y160.327 E.16019
G1 X156.729 Y160.486 E.02817
G1 X158.78 Y162.538 E.165
G1 X158.376 Y162.734 E.02557
G1 X158.356 Y162.742 E.0012
G1 X156.233 Y160.618 E.17081
G1 X155.704 Y160.717 E.03063
G1 X157.904 Y162.918 E.177
G1 X157.432 Y163.074 E.02828
G1 X155.114 Y160.756 E.18644
G1 X154.458 Y160.728 E.03736
G1 X156.939 Y163.209 E.19958
G1 X156.419 Y163.317 E.03019
G1 X153.709 Y160.607 E.21804
G1 X153.508 Y160.567 E.01161
G1 X152.8 Y160.326 E.04253
G1 X155.863 Y163.389 E.24637
G1 X155.694 Y163.41 E.00971
G1 X155.274 Y163.428 E.02393
G1 X150.76 Y158.914 E.36306
G1 X150.76 Y159.36 E.02536
G1 X150.577 Y159.36 E.01037
G1 X154.642 Y163.424 E.32692
