; generated by PrusaSlicer 2.4.1+arm64 on 2022-03-30 at 09:22:31 UTC

; 

; external perimeters extrusion width = 0.50mm
; perimeters extrusion width = 0.50mm
; infill extrusion width = 0.50mm
; solid infill extrusion width = 0.50mm
; top infill extrusion width = 0.50mm
; first layer extrusion width = 0.50mm

M201 X400 Y400 Z90 E5000 ; sets maximum accelerations, mm/sec^2
M203 X400 Y400 Z5 E25 ; sets maximum feedrates, mm / sec
M204 P450 R450 T450 ; sets acceleration (P, T) and retract acceleration (R), mm/sec^2
M205 X8.00 Y8.00 Z0.40 E5.00 ; sets the jerk limits, mm/sec
M205 S0 T0 ; sets the minimum extruding and travel feed rate, mm/sec
M107
;TYPE:Custom
G90 ; use absolute coordinates
M83 ; extruder relative mode
M420 S1 ; Enable Bed Mesh
M140 S60 ; set final bed temp
M104 S150 ; set temporary nozzle temp to prevent oozing during homing
G4 S10 ; allow partial nozzle warmup
M569 S0 Y ; Disable stealthchop mode since bed appears to struggle to move at first
G28 ; home all axis
M569 S1 Y ; Re-enable stealthchop mode
G1 Z50 F240
G1 X2 Y10 F3000
M104 S210 ; set final nozzle temp
M190 S60 ; wait for bed temp to stabilize
M109 S210 ; wait for nozzle temp to stabilize
G1 Z0.65 F240 ; Zoffset applied manually here from prime movement
G92 E0
G1 Y140 E10 F1500 ; prime the nozzle
G1 X2.3 F5000
G92 E0
G1 Y10 E10 F1200 ; prime the nozzle
G92 E0
G21 ; set units to millimeters
G90 ; use absolute coordinates
M83 ; use relative distances for extrusion
; Filament gcode
M900 K0.2 ; Linear Advance
M107
;LAYER_CHANGE
;Z:0.28
;HEIGHT:0.28
;BEFORE_LAYER_CHANGE
G92 E0
;0.28


G1 E-2 F6000
G1 Z.565 F9000
G1 Z.645
;AFTER_LAYER_CHANGE
;0.28
G1 Z.845
G1 X127.046 Y124.684
G1 Z.645
G1 E2 F6000
M204 P450
;TYPE:Skirt/Brim
;WIDTH:0.5
G1 F1200
G1 X129 Y124.076 E.11526
G1 X181 Y124.076 E2.92923
G1 X182.599 Y124.47 E.09277
G1 X183.831 Y125.562 E.09277
G1 X184.44 Y127.516 E.11526
G1 X184.44 Y182.484 E3.09645
G1 X184.046 Y184.083 E.09277
G1 X182.954 Y185.316 E.09277
G1 X181 Y185.924 E.11526
G1 X129 Y185.924 E2.92923
G1 X127.401 Y185.53 E.09277
G1 X126.169 Y184.438 E.09277
G1 X125.56 Y182.484 E.11526
G1 X125.56 Y127.516 E3.09645
G1 X125.954 Y125.917 E.09277
G1 X127.007 Y124.729 E.08939
G1 E-2 F6000
G1 Z.845 F9000
G1 X170.134 Y175.073
G1 Z.645
G1 E2 F6000
;TYPE:Perimeter
G1 F1200
G1 X170.615 Y174.678 E.03504
G1 X171.201 Y174.365 E.03748
G1 X171.838 Y174.171 E.03748
G1 X172.449 Y174.111 E.03461
G1 X173.157 Y174.17 E.04
G1 X173.799 Y174.365 E.03778
G1 X174.385 Y174.678 E.03748
G1 X174.9 Y175.1 E.03748
G1 X175.322 Y175.615 E.03748
G1 X175.635 Y176.201 E.03748
G1 X175.829 Y176.838 E.03748
G1 X175.894 Y177.5 E.03748
G1 X175.829 Y178.162 E.03748
G1 X175.635 Y178.799 E.03748
G1 X175.322 Y179.385 E.03748
G1 X174.9 Y179.9 E.03748
G1 X174.385 Y180.322 E.03748
G1 X173.799 Y180.635 E.03748
G1 X173.162 Y180.829 E.03748
G1 X172.5 Y180.894 E.03748
G1 X171.838 Y180.829 E.03748
G1 X171.201 Y180.635 E.03748
G1 X170.615 Y180.322 E.03748
G1 X170.1 Y179.9 E.03748
G1 X169.678 Y179.385 E.03748
G1 X169.365 Y178.799 E.03748
G1 X169.171 Y178.162 E.03748
G1 X169.106 Y177.5 E.03748
G1 X169.171 Y176.838 E.03748
G1 X169.365 Y176.201 E.03748
G1 X169.678 Y175.615 E.03748
G1 X170.09 Y175.113 E.03654
G1 X170.413 Y175.413 F9000
;TYPE:External perimeter
G1 F1200
G1 X170.86 Y175.046 E.03259
G1 X171.37 Y174.773 E.0326
G1 X171.924 Y174.605 E.0326
G1 X172.453 Y174.553 E.02992
G1 X173.074 Y174.604 E.03511
G1 X173.63 Y174.773 E.03271
G1 X174.14 Y175.046 E.0326
G1 X174.587 Y175.413 E.0326
G1 X174.954 Y175.86 E.0326
G1 X175.227 Y176.37 E.0326
G1 X175.395 Y176.924 E.0326
G1 X175.452 Y177.5 E.0326
G1 X175.395 Y178.076 E.0326
G1 X175.227 Y178.63 E.0326
G1 X174.954 Y179.14 E.0326
G1 X174.587 Y179.587 E.03259
G1 X174.14 Y179.954 E.0326
G1 X173.63 Y180.227 E.03259
G1 X173.076 Y180.395 E.0326
G1 X172.5 Y180.452 E.0326
G1 X171.924 Y180.395 E.0326
G1 X171.37 Y180.227 E.0326
G1 X170.86 Y179.954 E.0326
G1 X170.413 Y179.587 E.03259
G1 X170.046 Y179.14 E.0326
G1 X169.773 Y178.63 E.0326
G1 X169.605 Y178.076 E.0326
G1 X169.548 Y177.5 E.0326
G1 X169.605 Y176.924 E.0326
G1 X169.773 Y176.37 E.0326
G1 X170.046 Y175.86 E.0326
G1 X170.375 Y175.459 E.02922
G1 X170.309 Y175.026 F9000
G1 E-2 F6000
G1 Z.845 F9000
G1 X140.889 Y177.457
G1 Z.645
G1 E2 F6000
;TYPE:Perimeter
G1 F1200
G1 X140.829 Y178.162 E.03987
G1 X140.635 Y178.799 E.03748
G1 X140.322 Y179.385 E.03748
G1 X139.9 Y179.9 E.03748
G1 X139.385 Y180.322 E.03748
G1 X138.799 Y180.635 E.03748
G1 X138.162 Y180.829 E.03748
G1 X137.5 Y180.894 E.03748
G1 X136.838 Y180.829 E.03748
G1 X136.201 Y180.635 E.03748
G1 X135.615 Y180.322 E.03748
G1 X135.1 Y179.9 E.03748
G1 X134.678 Y179.385 E.03748
G1 X134.365 Y178.799 E.03748
G1 X134.171 Y178.162 E.03748
G1 X134.106 Y177.5 E.03748
G1 X134.171 Y176.838 E.03748
G1 X134.365 Y176.201 E.03748
G1 X134.678 Y175.615 E.03748
G1 X135.1 Y175.1 E.03748
G1 X135.615 Y174.678 E.03748
G1 X136.201 Y174.365 E.03748
G1 X136.838 Y174.171 E.03748
G1 X137.449 Y174.111 E.03461
G1 X138.157 Y174.17 E.04
G1 X138.799 Y174.365 E.03778
G1 X139.385 Y174.678 E.03748
G1 X139.9 Y175.1 E.03748
G1 X140.322 Y175.615 E.03748
G1 X140.635 Y176.201 E.03748
G1 X140.829 Y176.838 E.03748
G1 X140.884 Y177.397 E.03166
G1 X140.452 Y177.5 F9000
;TYPE:External perimeter
G1 F1200
G1 X140.395 Y178.076 E.0326
G1 X140.227 Y178.63 E.0326
G1 X139.954 Y179.14 E.0326
G1 X139.587 Y179.587 E.0326
G1 X139.14 Y179.954 E.03259
G1 X138.63 Y180.227 E.0326
G1 X138.076 Y180.395 E.0326
G1 X137.5 Y180.452 E.0326
G1 X136.924 Y180.395 E.0326
G1 X136.37 Y180.227 E.0326
G1 X135.86 Y179.954 E.03259
G1 X135.413 Y179.587 E.0326
G1 X135.046 Y179.14 E.0326
G1 X134.773 Y178.63 E.03259
G1 X134.605 Y178.076 E.0326
G1 X134.548 Y177.5 E.0326
G1 X134.605 Y176.924 E.0326
G1 X134.773 Y176.37 E.0326
G1 X135.046 Y175.86 E.0326
G1 X135.413 Y175.413 E.0326
G1 X135.86 Y175.046 E.0326
G1 X136.37 Y174.773 E.03259
G1 X136.924 Y174.605 E.0326
G1 X137.453 Y174.553 E.02992
G1 X138.074 Y174.604 E.03511
G1 X138.63 Y174.773 E.03271
G1 X139.14 Y175.046 E.0326
G1 X139.587 Y175.413 E.03259
G1 X139.954 Y175.86 E.0326
G1 X140.227 Y176.37 E.03259
G1 X140.395 Y176.924 E.0326
G1 X140.446 Y177.44 E.02922
G1 X140.798 Y177.7 F9000
G1 E-2 F6000
G1 Z.845 F9000
G1 X137.543 Y135.889
G1 Z.645
G1 E2 F6000
;TYPE:Perimeter
G1 F1200
G1 X136.838 Y135.829 E.03987
G1 X136.201 Y135.635 E.03748
G1 X135.615 Y135.322 E.03748
G1 X135.1 Y134.9 E.03748
G1 X134.678 Y134.385 E.03748
G1 X134.365 Y133.799 E.03748
G1 X134.171 Y133.162 E.03748
G1 X134.106 Y132.5 E.03748
G1 X134.171 Y131.838 E.03748
G1 X134.365 Y131.201 E.03748
G1 X134.678 Y130.615 E.03748
G1 X135.1 Y130.1 E.03748
G1 X135.615 Y129.678 E.03748
G1 X136.201 Y129.365 E.03748
G1 X136.838 Y129.171 E.03748
G1 X137.449 Y129.111 E.03461
G1 X138.157 Y129.17 E.04
G1 X138.799 Y129.365 E.03778
G1 X139.385 Y129.678 E.03748
G1 X139.9 Y130.1 E.03748
G1 X140.322 Y130.615 E.03748
G1 X140.635 Y131.201 E.03748
G1 X140.829 Y131.838 E.03748
G1 X140.894 Y132.5 E.03748
G1 X140.829 Y133.162 E.03748
G1 X140.635 Y133.799 E.03748
G1 X140.322 Y134.385 E.03748
G1 X139.9 Y134.9 E.03748
G1 X139.385 Y135.322 E.03748
G1 X138.799 Y135.635 E.03748
G1 X138.162 Y135.829 E.03748
G1 X137.603 Y135.884 E.03166
G1 X137.5 Y135.452 F9000
;TYPE:External perimeter
G1 F1200
G1 X136.924 Y135.395 E.0326
G1 X136.37 Y135.227 E.0326
G1 X135.86 Y134.954 E.03259
G1 X135.413 Y134.587 E.0326
G1 X135.046 Y134.14 E.0326
G1 X134.773 Y133.63 E.03259
G1 X134.605 Y133.076 E.0326
G1 X134.548 Y132.5 E.0326
G1 X134.605 Y131.924 E.0326
G1 X134.773 Y131.37 E.0326
G1 X135.046 Y130.86 E.0326
G1 X135.413 Y130.413 E.0326
G1 X135.86 Y130.046 E.0326
G1 X136.37 Y129.773 E.03259
G1 X136.924 Y129.605 E.0326
G1 X137.453 Y129.553 E.02992
G1 X138.074 Y129.604 E.03511
G1 X138.63 Y129.773 E.03271
G1 X139.14 Y130.046 E.0326
G1 X139.587 Y130.413 E.03259
G1 X139.954 Y130.86 E.0326
G1 X140.227 Y131.37 E.03259
G1 X140.395 Y131.924 E.0326
G1 X140.452 Y132.5 E.03259
G1 X140.395 Y133.076 E.0326
G1 X140.227 Y133.63 E.0326
G1 X139.954 Y134.14 E.0326
G1 X139.587 Y134.587 E.0326
G1 X139.14 Y134.954 E.03259
G1 X138.63 Y135.227 E.0326
G1 X138.076 Y135.395 E.0326
G1 X137.56 Y135.446 E.02922
G1 X137.3 Y135.798 F9000
G1 E-2 F6000
G1 Z.845 F9000
G1 X169.111 Y132.457
G1 Z.645
G1 E2 F6000
;TYPE:Perimeter
G1 F1200
G1 X169.171 Y131.838 E.03504
G1 X169.365 Y131.201 E.03748
G1 X169.678 Y130.615 E.03748
G1 X170.1 Y130.1 E.03748
G1 X170.615 Y129.678 E.03748
G1 X171.201 Y129.365 E.03748
G1 X171.838 Y129.171 E.03748
G1 X172.449 Y129.111 E.03461
G1 X173.157 Y129.17 E.04
G1 X173.799 Y129.365 E.03778
G1 X174.385 Y129.678 E.03748
G1 X174.9 Y130.1 E.03748
G1 X175.322 Y130.615 E.03748
G1 X175.635 Y131.201 E.03748
G1 X175.829 Y131.838 E.03748
G1 X175.894 Y132.5 E.03748
G1 X175.829 Y133.162 E.03748
G1 X175.635 Y133.799 E.03748
G1 X175.322 Y134.385 E.03748
G1 X174.9 Y134.9 E.03748
G1 X174.385 Y135.322 E.03748
G1 X173.799 Y135.635 E.03748
G1 X173.162 Y135.829 E.03748
G1 X172.5 Y135.894 E.03748
G1 X171.838 Y135.829 E.03748
G1 X171.201 Y135.635 E.03748
G1 X170.615 Y135.322 E.03748
G1 X170.1 Y134.9 E.03748
G1 X169.678 Y134.385 E.03748
G1 X169.365 Y133.799 E.03748
G1 X169.171 Y133.162 E.03748
G1 X169.108 Y132.517 E.03654
G1 X169.548 Y132.5 F9000
;TYPE:External perimeter
G1 F1200
G1 X169.605 Y131.924 E.0326
G1 X169.773 Y131.37 E.0326
G1 X170.046 Y130.86 E.0326
G1 X170.413 Y130.413 E.0326
G1 X170.86 Y130.046 E.03259
G1 X171.37 Y129.773 E.0326
G1 X171.924 Y129.605 E.0326
G1 X172.453 Y129.553 E.02992
G1 X173.074 Y129.604 E.03511
G1 X173.63 Y129.773 E.03271
G1 X174.14 Y130.046 E.0326
G1 X174.587 Y130.413 E.0326
G1 X174.954 Y130.86 E.0326
G1 X175.227 Y131.37 E.0326
G1 X175.395 Y131.924 E.0326
G1 X175.452 Y132.5 E.0326
G1 X175.395 Y133.076 E.0326
G1 X175.227 Y133.63 E.0326
G1 X174.954 Y134.14 E.0326
G1 X174.587 Y134.587 E.0326
G1 X174.14 Y134.954 E.03259
G1 X173.63 Y135.227 E.0326
G1 X173.076 Y135.395 E.0326
G1 X172.5 Y135.452 E.03259
G1 X171.924 Y135.395 E.0326
G1 X171.37 Y135.227 E.0326
G1 X170.86 Y134.954 E.0326
G1 X170.413 Y134.587 E.0326
G1 X170.046 Y134.14 E.0326
G1 X169.773 Y133.63 E.0326
G1 X169.605 Y133.076 E.0326
G1 X169.554 Y132.56 E.02922
G1 X169.202 Y132.3 F9000
G1 E-2 F6000
G1 Z.845 F9000
G1 X180.21 Y128.306
G1 Z.645
G1 E2 F6000
;TYPE:Perimeter
G1 F1200
G1 X180.21 Y181.694 E3.00745
G1 X129.79 Y181.694 E2.84024
G1 X129.79 Y128.306 E3.00745
G1 X180.15 Y128.306 E2.83686
G1 X180.65 Y127.866 F9000
;TYPE:External perimeter
G1 F1200
G1 X180.65 Y182.134 E3.05701
G1 X129.35 Y182.134 E2.8898
G1 X129.35 Y127.866 E3.05701
G1 X180.59 Y127.866 E2.88642
G1 X180.55 Y128.253 F9000
G1 E-2 F6000
G1 Z.845 F9000
G1 X173.053 Y128.733
G1 Z.645
G1 E2 F6000
;TYPE:Gap fill
;WIDTH:0.457802
G1 F1200
G1 X172.463 Y128.708 E.03009
;WIDTH:0.425735
G1 X172.43 Y128.708 E.00155
;WIDTH:0.453773
G1 X171.947 Y128.732 E.02437
G1 E-2 F6000
G1 Z.845 F9000
G1 X138.053 Y128.733
G1 Z.645
G1 E2 F6000
;WIDTH:0.457802
G1 F1200
G1 X137.463 Y128.708 E.03009
;WIDTH:0.425735
G1 X137.43 Y128.708 E.00155
;WIDTH:0.453773
G1 X136.947 Y128.732 E.02437
G1 X136.822 Y129.038 F9000
;TYPE:Solid infill
;WIDTH:0.500407
G1 F1200
G1 X136.419 Y128.636 E.03211
G1 X135.797 Y128.636 E.03511
G1 X136.186 Y129.025 E.03102
G1 X136.074 Y129.058 E.00655
G1 X135.763 Y129.225 E.0199
G1 X135.174 Y128.636 E.04697
G1 X134.551 Y128.636 E.03511
G1 X135.369 Y129.453 E.06519
G1 X135.027 Y129.734 E.02495
G1 X133.929 Y128.636 E.08757
G1 X133.306 Y128.636 E.03511
G1 X134.717 Y130.047 E.11254
G1 X134.437 Y130.389 E.02495
G1 X132.683 Y128.636 E.13981
G1 X132.06 Y128.636 E.03511
G1 X134.212 Y130.787 E.17155
G1 X134.058 Y131.074 E.01837
G1 X134.016 Y131.214 E.00822
G1 X131.438 Y128.636 E.20558
G1 X130.815 Y128.636 E.03511
G1 X133.871 Y131.692 E.24368
G1 X133.846 Y131.773 E.00481
G1 X133.8 Y132.243 E.02663
G1 X130.192 Y128.636 E.28767
G1 X130.12 Y128.636 E.00409
G1 X130.12 Y129.186 E.03102
G1 X134.033 Y133.099 E.312
G1 E-2 F6000
G1 Z.845 F9000
G1 X171.723 Y129.068
G1 Z.645
G1 E2 F6000
G1 F1200
G1 X171.291 Y128.636 E.0345
G1 X170.668 Y128.636 E.03511
G1 X171.087 Y129.055 E.0334
G1 X170.679 Y129.27 E.02599
G1 X170.045 Y128.636 E.05055
G1 X169.423 Y128.636 E.03511
G1 X170.298 Y129.511 E.06981
G1 X169.956 Y129.792 E.02495
G1 X168.8 Y128.636 E.09219
G1 X168.177 Y128.636 E.03511
G1 X169.659 Y130.118 E.11817
G1 X169.384 Y130.465 E.02499
G1 X167.555 Y128.636 E.14588
G1 X166.932 Y128.636 E.03511
G1 X169.167 Y130.871 E.17823
G1 X169.058 Y131.074 E.01301
G1 X168.986 Y131.313 E.01403
G1 X166.309 Y128.636 E.21345
G1 X165.686 Y128.636 E.03511
G1 X168.844 Y131.793 E.2518
G1 X168.788 Y132.36 E.03212
G1 X165.064 Y128.636 E.297
G1 X164.441 Y128.636 E.03511
G1 X169.062 Y133.257 E.36849
G1 E-2 F6000
G1 Z.845 F9000
G1 X179.188 Y128.438
G1 Z.645
G1 E2 F6000
G1 F1200
G1 X179.88 Y129.13 E.05519
G1 X179.88 Y129.753 E.03511
G1 X178.763 Y128.636 E.08906
G1 X178.141 Y128.636 E.03511
G1 X179.88 Y130.375 E.13871
G1 X179.88 Y130.998 E.03511
G1 X177.518 Y128.636 E.18837
G1 X176.895 Y128.636 E.03511
G1 X179.88 Y131.621 E.23802
G1 X179.88 Y132.243 E.03511
G1 X176.272 Y128.636 E.28767
G1 X175.65 Y128.636 E.03511
G1 X179.88 Y132.866 E.33733
G1 X179.88 Y133.489 E.03511
G1 X175.027 Y128.636 E.38698
G1 X174.404 Y128.636 E.03511
G1 X179.88 Y134.111 E.43663
G1 X179.88 Y134.734 E.03511
G1 X173.584 Y128.438 E.50207
G1 X173.729 Y129.205 F9000
G1 F1200
G1 X173.188 Y128.665 E.04312
G1 E-2 F6000
G1 Z.845 F9000
G1 X175.795 Y131.271
G1 Z.645
G1 E2 F6000
G1 F1200
G1 X179.88 Y135.357 E.32578
G1 X179.88 Y135.98 E.03511
G1 X176.206 Y132.305 E.29296
G1 X176.225 Y132.5 E.01102
G1 X176.185 Y132.907 E.02307
G1 X179.88 Y136.602 E.29463
G1 X179.88 Y137.225 E.03511
G1 X176.09 Y133.435 E.30219
G1 X175.945 Y133.913 E.02815
G1 X179.88 Y137.848 E.31374
G1 X179.88 Y138.47 E.03511
G1 X175.73 Y134.321 E.33089
G1 X175.597 Y134.57 E.01592
G1 X175.489 Y134.702 E.00964
G1 X179.88 Y139.093 E.35015
G1 X179.88 Y139.716 E.03511
G1 X175.208 Y135.044 E.37253
G1 X175.134 Y135.134 E.00659
G1 X174.882 Y135.341 E.01836
G1 X179.88 Y140.338 E.39851
G1 X179.88 Y140.961 E.03511
G1 X174.535 Y135.616 E.42622
G1 X174.129 Y135.833 E.02594
G1 X179.88 Y141.584 E.45858
G1 X179.88 Y142.207 E.03511
G1 X173.687 Y136.014 E.49379
G1 X173.207 Y136.156 E.02827
G1 X179.88 Y142.829 E.53214
G1 X179.88 Y143.452 E.03511
G1 X172.64 Y136.211 E.57734
G1 X172.5 Y136.225 E.00791
G1 X171.979 Y136.174 E.02949
G1 X179.88 Y144.075 E.62999
G1 X179.88 Y144.697 E.03511
G1 X171.146 Y135.963 E.69643
G1 X171.074 Y135.942 E.00423
G1 X170.43 Y135.597 E.04118
G1 X169.866 Y135.134 E.04118
G1 X169.403 Y134.57 E.04118
G1 X169.058 Y133.926 E.04118
G1 X169.037 Y133.854 E.00423
G1 X163.818 Y128.636 E.41609
G1 X163.196 Y128.636 E.03511
G1 X179.88 Y145.32 E1.33039
G1 X179.88 Y145.943 E.03511
G1 X162.573 Y128.636 E1.38005
G1 X161.95 Y128.636 E.03511
G1 X179.88 Y146.566 E1.4297
G1 X179.88 Y147.188 E.03511
G1 X161.328 Y128.636 E1.47935
G1 X160.705 Y128.636 E.03511
G1 X179.88 Y147.811 E1.52901
G1 X179.88 Y148.434 E.03511
G1 X160.082 Y128.636 E1.57866
G1 X159.459 Y128.636 E.03511
G1 X179.88 Y149.056 E1.62831
G1 X179.88 Y149.679 E.03511
G1 X158.837 Y128.636 E1.67796
G1 X158.214 Y128.636 E.03511
G1 X179.88 Y150.302 E1.72762
G1 X179.88 Y150.924 E.03511
G1 X157.591 Y128.636 E1.77727
G1 X156.969 Y128.636 E.03511
G1 X179.88 Y151.547 E1.82692
G1 X179.88 Y152.17 E.03511
G1 X156.346 Y128.636 E1.87658
G1 X155.723 Y128.636 E.03511
G1 X179.88 Y152.793 E1.92623
G1 X179.88 Y153.415 E.03511
G1 X155.101 Y128.636 E1.97588
G1 X154.478 Y128.636 E.03511
G1 X179.88 Y154.038 E2.02554
G1 X179.88 Y154.661 E.03511
G1 X153.855 Y128.636 E2.07519
G1 X153.232 Y128.636 E.03511
G1 X179.88 Y155.283 E2.12484
G1 X179.88 Y155.906 E.03511
G1 X152.61 Y128.636 E2.1745
G1 X151.987 Y128.636 E.03511
G1 X179.88 Y156.529 E2.22415
G1 X179.88 Y157.151 E.03511
G1 X151.364 Y128.636 E2.2738
G1 X150.742 Y128.636 E.03511
G1 X179.88 Y157.774 E2.32346
G1 X179.88 Y158.397 E.03511
G1 X150.119 Y128.636 E2.37311
G1 X149.496 Y128.636 E.03511
G1 X179.88 Y159.02 E2.42276
G1 X179.88 Y159.642 E.03511
G1 X148.873 Y128.636 E2.47242
G1 X148.251 Y128.636 E.03511
G1 X179.88 Y160.265 E2.52207
G1 X179.88 Y160.888 E.03511
G1 X147.628 Y128.636 E2.57172
