; generated by PrusaSlicer 2.4.1+arm64 on 2022-03-29 at 06:40:53 UTC

; 

; external perimeters extrusion width = 0.50mm
; perimeters extrusion width = 0.50mm
; infill extrusion width = 0.50mm
; solid infill extrusion width = 0.50mm
; top infill extrusion width = 0.50mm
; first layer extrusion width = 0.50mm

M201 X400 Y400 Z90 E5000 ; sets maximum accelerations, mm/sec^2
M203 X400 Y400 Z5 E25 ; sets maximum feedrates, mm / sec
M204 P450 R450 T450 ; sets acceleration (P, T) and retract acceleration (R), mm/sec^2
M205 X8.00 Y8.00 Z0.40 E5.00 ; sets the jerk limits, mm/sec
M205 S0 T0 ; sets the minimum extruding and travel feed rate, mm/sec
M107
;TYPE:Custom
G90 ; use absolute coordinates
M83 ; extruder relative mode
M420 S1 ; Enable Bed Mesh
M140 S60 ; set final bed temp
M104 S150 ; set temporary nozzle temp to prevent oozing during homing
G4 S10 ; allow partial nozzle warmup
M569 S0 Y ; Disable stealthchop mode since bed appears to struggle to move at first
G28 ; home all axis
M569 S1 Y ; Re-enable stealthchop mode
G1 Z50 F240
G1 X2 Y10 F3000
M104 S210 ; set final nozzle temp
M190 S60 ; wait for bed temp to stabilize
M109 S210 ; wait for nozzle temp to stabilize
G1 Z0.65 F240 ; Zoffset applied manually here from prime movement
G92 E0
G1 Y140 E10 F1500 ; prime the nozzle
G1 X2.3 F5000
G92 E0
G1 Y10 E10 F1200 ; prime the nozzle
G92 E0
G21 ; set units to millimeters
G90 ; use absolute coordinates
M83 ; use relative distances for extrusion
; Filament gcode
M900 K0.2 ; Linear Advance
M107
;LAYER_CHANGE
;Z:0.28
;HEIGHT:0.28
;BEFORE_LAYER_CHANGE
G92 E0
;0.28


G1 E-2 F6000
G1 Z.565 F9000
G1 Z.645
;AFTER_LAYER_CHANGE
;0.28
G1 Z.845
G1 X149.43 Y149.438
G1 Z.645
G1 E2 F6000
M204 P450
;TYPE:Skirt/Brim
;WIDTH:0.5
G1 F900
G1 X150.547 Y148.509 E.08183
G1 X151.815 Y147.802 E.08183
G1 X153.192 Y147.339 E.08183
G1 X154.631 Y147.137 E.08182
G1 X156.082 Y147.203 E.08182
G1 X157.496 Y147.535 E.08182
G1 X158.825 Y148.121 E.08182
G1 X160.024 Y148.941 E.08182
G1 X161.052 Y149.967 E.08183
G1 X161.874 Y151.165 E.08182
G1 X162.462 Y152.493 E.08182
G1 X162.664 Y153.203 E.04158
G1 X162.863 Y154.642 E.08183
G1 X162.795 Y156.093 E.08182
G1 X162.664 Y156.797 E.04033
G1 X162.203 Y158.174 E.08182
G1 X161.497 Y159.444 E.08183
G1 X160.57 Y160.562 E.08182
G1 X159.453 Y161.491 E.08183
G1 X158.184 Y162.198 E.08183
G1 X156.808 Y162.661 E.08182
G1 X155.369 Y162.863 E.08183
G1 X153.918 Y162.797 E.08183
G1 X153.192 Y162.661 E.04158
G1 X151.816 Y162.198 E.08182
G1 X150.547 Y161.491 E.08183
G1 X149.43 Y160.562 E.08183
G1 X148.503 Y159.444 E.08182
G1 X147.797 Y158.174 E.08182
G1 X147.336 Y156.797 E.08182
G1 X147.137 Y155.358 E.08183
G1 X147.205 Y153.907 E.08183
G1 X147.538 Y152.493 E.08182
G1 X147.797 Y151.826 E.04033
G1 X148.503 Y150.556 E.08182
G1 X149.392 Y149.484 E.07844
G1 X149.727 Y149.763 F9000
G1 F900
G1 X150.779 Y148.883 E.07726
G1 X151.974 Y148.212 E.07726
G1 X153.273 Y147.771 E.07726
G1 X154.631 Y147.577 E.07726
G1 X156.001 Y147.636 E.07726
G1 X157.337 Y147.945 E.07725
G1 X158.594 Y148.495 E.07726
G1 X159.221 Y148.883 E.04158
G1 X160.273 Y149.763 E.07726
G1 X161.146 Y150.821 E.07726
G1 X161.809 Y152.022 E.07726
G1 X162.24 Y153.324 E.07726
G1 X162.425 Y154.683 E.07726
G1 X162.357 Y156.052 E.07726
G1 X162.24 Y156.676 E.03576
G1 X161.809 Y157.978 E.07726
G1 X161.146 Y159.179 E.07726
G1 X160.273 Y160.237 E.07726
G1 X159.221 Y161.117 E.07726
G1 X158.026 Y161.788 E.07726
G1 X156.727 Y162.229 E.07723
G1 X155.369 Y162.423 E.07728
G1 X153.999 Y162.364 E.07726
G1 X153.273 Y162.229 E.04158
G1 X151.974 Y161.788 E.07726
G1 X150.779 Y161.117 E.07726
G1 X149.727 Y160.237 E.07726
G1 X148.854 Y159.179 E.07726
G1 X148.191 Y157.978 E.07726
G1 X147.76 Y156.676 E.07726
G1 X147.575 Y155.317 E.07726
G1 X147.643 Y153.948 E.07726
G1 X147.962 Y152.614 E.07726
G1 X148.191 Y152.022 E.03576
G1 X148.854 Y150.822 E.07724
G1 X149.688 Y149.809 E.0739
G1 E-2 F6000
G1 Z.845 F9000
G1 X153.022 Y153.022
G1 Z.645
G1 E2 F6000
;TYPE:Perimeter
G1 F900
G1 X153.602 Y152.578 E.04113
G1 X154.276 Y152.299 E.04113
G1 X155 Y152.203 E.04113
G1 X155.724 Y152.299 E.04113
G1 X156.398 Y152.578 E.04113
G1 X156.978 Y153.022 E.04113
G1 X157.422 Y153.602 E.04113
G1 X157.701 Y154.276 E.04113
G1 X157.797 Y155 E.04113
G1 X157.701 Y155.724 E.04113
G1 X157.422 Y156.398 E.04113
G1 X156.978 Y156.978 E.04113
G1 X156.398 Y157.422 E.04113
G1 X155.724 Y157.701 E.04113
G1 X155 Y157.797 E.04113
G1 X154.276 Y157.701 E.04113
G1 X153.602 Y157.422 E.04113
G1 X153.022 Y156.978 E.04113
G1 X152.578 Y156.398 E.04113
G1 X152.299 Y155.724 E.04113
G1 X152.203 Y155 E.04113
G1 X152.299 Y154.276 E.04113
G1 X152.578 Y153.602 E.04113
G1 X152.986 Y153.07 E.03775
G1 X153.336 Y153.336 F9000
;TYPE:External perimeter
G1 F900
G1 X153.823 Y152.962 E.0346
G1 X154.391 Y152.727 E.0346
G1 X155 Y152.647 E.0346
G1 X155.609 Y152.727 E.0346
G1 X156.177 Y152.962 E.0346
G1 X156.664 Y153.336 E.0346
G1 X157.038 Y153.823 E.0346
G1 X157.273 Y154.391 E.0346
G1 X157.353 Y155 E.0346
G1 X157.273 Y155.609 E.0346
G1 X157.038 Y156.177 E.0346
G1 X156.664 Y156.664 E.0346
G1 X156.177 Y157.038 E.0346
G1 X155.609 Y157.273 E.0346
G1 X155 Y157.353 E.0346
G1 X154.391 Y157.273 E.0346
G1 X153.823 Y157.038 E.0346
G1 X153.336 Y156.664 E.0346
G1 X152.962 Y156.177 E.0346
G1 X152.727 Y155.609 E.0346
G1 X152.647 Y155 E.0346
G1 X152.727 Y154.391 E.0346
G1 X152.962 Y153.823 E.0346
G1 X153.3 Y153.384 E.03122
G1 X153.233 Y152.95 F9000
G1 X152.63 Y152.84
;TYPE:Perimeter
G1 F900
G1 X153.068 Y152.441 E.03333
G1 X153.571 Y152.129 E.03333
G1 X154.122 Y151.916 E.03333
G1 X154.704 Y151.807 E.03333
G1 X155.296 Y151.807 E.03333
G1 X155.878 Y151.916 E.03333
G1 X156.429 Y152.129 E.03333
G1 X156.932 Y152.441 E.03333
G1 X157.37 Y152.84 E.03333
G1 X157.726 Y153.312 E.03333
G1 X157.99 Y153.842 E.03333
G1 X158.152 Y154.411 E.03333
G1 X158.207 Y155 E.03333
G1 X158.152 Y155.589 E.03333
G1 X157.99 Y156.158 E.03333
G1 X157.726 Y156.688 E.03333
G1 X157.37 Y157.16 E.03333
G1 X156.932 Y157.559 E.03333
G1 X156.429 Y157.871 E.03333
G1 X155.878 Y158.084 E.03333
G1 X155.296 Y158.193 E.03333
G1 X154.704 Y158.193 E.03333
G1 X154.122 Y158.084 E.03333
G1 X153.571 Y157.871 E.03333
G1 X153.068 Y157.559 E.03333
G1 X152.63 Y157.16 E.03334
G1 X152.274 Y156.688 E.03333
G1 X152.01 Y156.158 E.03333
G1 X151.848 Y155.589 E.03333
G1 X151.793 Y155 E.03333
G1 X151.848 Y154.411 E.03333
G1 X152.01 Y153.842 E.03333
G1 X152.274 Y153.312 E.03333
G1 X152.594 Y152.888 E.02995
G1 X152.304 Y152.542 F9000
;TYPE:External perimeter
G1 F900
G1 X152.801 Y152.088 E.03793
G1 X153.374 Y151.734 E.03793
G1 X154.002 Y151.491 E.03793
G1 X154.663 Y151.367 E.03793
G1 X155.337 Y151.367 E.03793
G1 X155.998 Y151.491 E.03793
G1 X156.626 Y151.734 E.03793
G1 X157.199 Y152.088 E.03793
G1 X157.696 Y152.542 E.03793
G1 X158.102 Y153.079 E.03793
G1 X158.402 Y153.682 E.03793
G1 X158.586 Y154.33 E.03793
G1 X158.649 Y155 E.03793
G1 X158.586 Y155.67 E.03793
G1 X158.402 Y156.318 E.03793
G1 X158.102 Y156.921 E.03793
G1 X157.696 Y157.458 E.03793
G1 X157.199 Y157.912 E.03793
G1 X156.626 Y158.266 E.03793
G1 X155.998 Y158.509 E.03793
G1 X155.337 Y158.633 E.03793
G1 X154.663 Y158.633 E.03793
G1 X154.002 Y158.509 E.03793
G1 X153.374 Y158.266 E.03793
G1 X152.801 Y157.912 E.03793
G1 X152.304 Y157.458 E.03793
G1 X151.898 Y156.921 E.03793
G1 X151.598 Y156.318 E.03793
G1 X151.414 Y155.67 E.03793
G1 X151.351 Y155 E.03793
G1 X151.414 Y154.33 E.03793
G1 X151.598 Y153.682 E.03793
G1 X151.898 Y153.079 E.03793
G1 X152.268 Y152.59 E.03455
G1 X152.694 Y152.628 F9000
M106 S127.5
;LAYER_CHANGE
;Z:0.52
;HEIGHT:0.24
;BEFORE_LAYER_CHANGE
G92 E0
;0.52


G1 E-2 F6000
G1 Z.845 F9000
G1 Z.885
;AFTER_LAYER_CHANGE
;0.52
M140 S55 ; set bed temperature
G1 Z1.085
G1 X149.037 Y149.912
G1 Z.885
G1 E2 F6000
;TYPE:Skirt/Brim
G1 F900
G1 X149.43 Y149.438 E.03028
G1 X150.547 Y148.509 E.0715
G1 X151.815 Y147.802 E.0715
G1 X153.192 Y147.339 E.0715
G1 X154.631 Y147.137 E.0715
G1 X156.082 Y147.203 E.0715
G1 X157.496 Y147.535 E.0715
G1 X158.825 Y148.121 E.0715
G1 X160.024 Y148.941 E.0715
G1 X161.052 Y149.967 E.0715
G1 X161.874 Y151.165 E.0715
G1 X162.462 Y152.493 E.0715
G1 X162.664 Y153.203 E.03634
G1 X162.863 Y154.642 E.07151
G1 X162.795 Y156.093 E.0715
G1 X162.664 Y156.797 E.03524
G1 X162.203 Y158.174 E.0715
G1 X161.497 Y159.444 E.0715
G1 X160.57 Y160.562 E.0715
G1 X159.453 Y161.491 E.0715
G1 X158.184 Y162.198 E.07151
G1 X156.808 Y162.661 E.0715
G1 X155.369 Y162.863 E.07151
G1 X153.918 Y162.797 E.0715
G1 X153.192 Y162.661 E.03634
G1 X151.816 Y162.198 E.0715
G1 X150.547 Y161.491 E.0715
G1 X149.43 Y160.562 E.0715
G1 X148.503 Y159.444 E.0715
G1 X147.797 Y158.174 E.0715
G1 X147.336 Y156.797 E.0715
G1 X147.137 Y155.358 E.0715
G1 X147.205 Y153.907 E.0715
G1 X147.538 Y152.493 E.0715
G1 X147.797 Y151.826 E.03525
G1 X148.503 Y150.556 E.0715
G1 X148.999 Y149.958 E.03827
G1 X149.337 Y150.236 F9000
G1 F900
G1 X149.727 Y149.763 E.03017
G1 X150.779 Y148.883 E.06751
G1 X151.974 Y148.212 E.06751
G1 X153.273 Y147.771 E.06751
G1 X154.631 Y147.577 E.06751
G1 X156.001 Y147.636 E.06751
G1 X157.337 Y147.945 E.06751
G1 X158.594 Y148.495 E.06752
G1 X159.221 Y148.883 E.03634
G1 X160.273 Y149.763 E.06751
G1 X161.146 Y150.821 E.06751
G1 X161.809 Y152.022 E.06751
G1 X162.24 Y153.324 E.06751
G1 X162.425 Y154.683 E.06751
G1 X162.357 Y156.052 E.06751
G1 X162.24 Y156.676 E.03125
G1 X161.809 Y157.978 E.06751
G1 X161.146 Y159.179 E.06751
G1 X160.273 Y160.237 E.06751
G1 X159.221 Y161.117 E.06751
G1 X158.026 Y161.788 E.06751
G1 X156.727 Y162.229 E.06749
G1 X155.369 Y162.423 E.06753
G1 X153.999 Y162.364 E.06751
G1 X153.273 Y162.229 E.03634
G1 X151.974 Y161.788 E.06751
G1 X150.779 Y161.117 E.06751
G1 X149.727 Y160.237 E.06751
G1 X148.854 Y159.179 E.06751
G1 X148.191 Y157.978 E.06751
G1 X147.76 Y156.676 E.06751
G1 X147.575 Y155.317 E.06751
G1 X147.643 Y153.948 E.06751
G1 X147.962 Y152.614 E.06751
G1 X148.191 Y152.022 E.03125
G1 X148.854 Y150.822 E.06749
G1 X149.298 Y150.282 E.03441
G1 E-2 F6000
G1 Z1.085 F9000
G1 X153.088 Y153.088
G1 Z.885
G1 E2 F6000
;TYPE:Perimeter
G1 F900
G1 X153.648 Y152.658 E.03476
G1 X154.3 Y152.388 E.03475
G1 X154.978 Y152.298 E.03366
G1 X155.697 Y152.386 E.03566
G1 X156.352 Y152.658 E.03491
G1 X156.912 Y153.088 E.03476
G1 X157.342 Y153.648 E.03475
G1 X157.604 Y154.279 E.03366
G1 X157.705 Y154.997 E.03566
G1 X157.612 Y155.7 E.03491
G1 X157.342 Y156.352 E.03475
G1 X156.912 Y156.912 E.03475
G1 X156.352 Y157.342 E.03475
G1 X155.7 Y157.612 E.03475
G1 X155 Y157.705 E.03475
G1 X154.3 Y157.612 E.03475
G1 X153.668 Y157.351 E.03366
G1 X153.09 Y156.915 E.03566
G1 X152.658 Y156.352 E.03491
G1 X152.396 Y155.721 E.03366
G1 X152.295 Y155.003 E.03566
G1 X152.388 Y154.3 E.03491
G1 X152.658 Y153.648 E.03475
G1 X153.051 Y153.135 E.0318
G1 X153.407 Y153.407 F9000
;TYPE:External perimeter
G1 F900
G1 X153.874 Y153.05 E.02894
G1 X154.417 Y152.825 E.02894
G1 X154.98 Y152.75 E.02795
G1 X155.582 Y152.824 E.02985
G1 X156.126 Y153.05 E.029
G1 X156.593 Y153.407 E.02894
G1 X156.95 Y153.874 E.02894
G1 X157.168 Y154.398 E.02795
G1 X157.252 Y154.999 E.02985
G1 X157.175 Y155.583 E.029
G1 X156.95 Y156.126 E.02894
G1 X156.593 Y156.593 E.02894
G1 X156.126 Y156.95 E.02894
G1 X155.583 Y157.175 E.02894
G1 X155 Y157.252 E.02894
G1 X154.417 Y157.175 E.02894
G1 X153.893 Y156.958 E.02795
G1 X153.408 Y156.593 E.02985
G1 X153.05 Y156.126 E.029
G1 X152.832 Y155.602 E.02795
G1 X152.748 Y155.001 E.02985
G1 X152.825 Y154.417 E.029
G1 X153.05 Y153.874 E.02894
G1 X153.371 Y153.455 E.02599
G1 X153.304 Y153.021 F9000
G1 X152.562 Y152.778
;TYPE:Perimeter
G1 F900
G1 X153.012 Y152.368 E.02996
G1 X153.53 Y152.047 E.02996
G1 X154.097 Y151.827 E.02996
G1 X154.694 Y151.716 E.02988
G1 X155.321 Y151.719 E.03087
G1 X155.903 Y151.827 E.02912
G1 X156.47 Y152.047 E.02996
G1 X156.988 Y152.368 E.02996
G1 X157.438 Y152.778 E.02996
G1 X157.804 Y153.264 E.02996
G1 X158.076 Y153.808 E.02996
G1 X158.242 Y154.394 E.02996
G1 X158.299 Y155 E.02996
G1 X158.242 Y155.606 E.02996
G1 X158.076 Y156.192 E.02996
G1 X157.804 Y156.736 E.02996
G1 X157.438 Y157.222 E.02996
G1 X156.988 Y157.632 E.02996
G1 X156.47 Y157.953 E.02996
G1 X155.903 Y158.173 E.02996
G1 X155.304 Y158.284 E.02996
G1 X154.696 Y158.284 E.02996
G1 X154.097 Y158.173 E.02996
G1 X153.53 Y157.953 E.02996
G1 X153.014 Y157.633 E.02988
G1 X152.552 Y157.208 E.03087
G1 X152.196 Y156.736 E.02912
G1 X151.924 Y156.192 E.02996
G1 X151.758 Y155.606 E.02996
G1 X151.701 Y155 E.02996
G1 X151.758 Y154.394 E.02996
G1 X151.924 Y153.808 E.02996
G1 X152.196 Y153.264 E.02996
G1 X152.526 Y152.826 E.02701
G1 X152.23 Y152.474 F9000
;TYPE:External perimeter
G1 F900
G1 X152.741 Y152.008 E.03406
G1 X153.329 Y151.644 E.03406
G1 X153.974 Y151.394 E.03406
G1 X154.654 Y151.267 E.03403
G1 X155.364 Y151.27 E.03496
G1 X156.026 Y151.394 E.03316
G1 X156.671 Y151.644 E.03406
G1 X157.259 Y152.008 E.03406
G1 X157.77 Y152.474 E.03406
G1 X158.187 Y153.026 E.03406
G1 X158.496 Y153.646 E.03406
G1 X158.685 Y154.311 E.03406
G1 X158.749 Y155 E.03406
G1 X158.685 Y155.689 E.03406
G1 X158.496 Y156.354 E.03405
G1 X158.187 Y156.974 E.03406
G1 X157.77 Y157.526 E.03405
G1 X157.259 Y157.992 E.03406
G1 X156.671 Y158.356 E.03406
G1 X156.026 Y158.606 E.03406
G1 X155.346 Y158.733 E.03406
G1 X154.654 Y158.733 E.03406
G1 X153.974 Y158.606 E.03406
G1 X153.329 Y158.356 E.03406
G1 X152.741 Y157.992 E.03403
G1 X152.219 Y157.511 E.03497
G1 X151.813 Y156.974 E.03316
G1 X151.504 Y156.354 E.03406
G1 X151.315 Y155.689 E.03406
G1 X151.251 Y155 E.03406
G1 X151.315 Y154.311 E.03406
G1 X151.504 Y153.646 E.03406
G1 X151.813 Y153.026 E.03406
G1 X152.193 Y152.522 E.0311
G1 X152.62 Y152.56 F9000
G1 X152.787 Y152.983
;TYPE:Gap fill
;WIDTH:0.208105
G1 F900
G1 X152.787 Y152.983 E0
;WIDTH:0.208106
G1 X152.875 Y152.887 E.00223
;WIDTH:0.185168
G1 X152.887 Y152.875 E.00026
;WIDTH:0.218729
G1 X153.199 Y152.614 E.00745
;WIDTH:0.21873
G1 X153.495 Y152.41 E.00661
;WIDTH:0.18324
G1 X153.509 Y152.401 E.00025
;WIDTH:0.211646
G1 X153.666 Y152.321 E.00309
;WIDTH:0.211647
G1 X154.179 Y152.115 E.00972
;WIDTH:0.198879
G1 X154.215 Y152.105 E.0006
;WIDTH:0.191183
G1 X154.232 Y152.101 E.00028
;WIDTH:0.216485
G1 X154.722 Y152.023 E.00897
;WIDTH:0.216485
G1 X154.968 Y152.007 E.00447
;WIDTH:0.183043
G1 X154.985 Y152.007 E.00024
;WIDTH:0.218944
G1 X155.292 Y152.027 E.00565
;WIDTH:0.218945
G1 X155.763 Y152.099 E.00876
;WIDTH:0.19029
G1 X155.781 Y152.103 E.00028
;WIDTH:0.198878
G1 X155.821 Y152.115 E.00067
;WIDTH:0.211649
G1 X156.334 Y152.321 E.00972
;WIDTH:0.211649
G1 X156.491 Y152.401 E.00309
;WIDTH:0.183241
G1 X156.505 Y152.41 E.00025
;WIDTH:0.218731
G1 X156.801 Y152.614 E.00661
;WIDTH:0.21873
G1 X157.113 Y152.875 E.00745
;WIDTH:0.185168
G1 X157.125 Y152.887 E.00026
;WIDTH:0.208105
G1 X157.213 Y152.983 E.00223
;WIDTH:0.208106
G1 X157.548 Y153.422 E.0095
;WIDTH:0.203851
G1 X157.592 Y153.493 E.0014
;WIDTH:0.187813
G1 X157.601 Y153.509 E.00027
;WIDTH:0.218023
G1 X157.788 Y153.92 E.00826
;WIDTH:0.218022
G1 X157.883 Y154.195 E.00531
;WIDTH:0.184647
G1 X157.888 Y154.211 E.00025
;WIDTH:0.218275
G1 X157.939 Y154.451 E.00449
;WIDTH:0.218274
G1 X158.001 Y154.986 E.00986
;WIDTH:0.193369
G1 X158.002 Y155 E.00022
;WIDTH:0.193384
G1 X158.002 Y155.005 E.00008
;WIDTH:0.214483
G1 X157.941 Y155.55 E.0098
;WIDTH:0.214483
G1 X157.896 Y155.767 E.00397
;WIDTH:0.182039
G1 X157.891 Y155.783 E.00024
;WIDTH:0.21802
G1 X157.788 Y156.08 E.00574
;WIDTH:0.218021
G1 X157.601 Y156.491 E.00826
;WIDTH:0.187811
G1 X157.592 Y156.507 E.00027
;WIDTH:0.203852
G1 X157.548 Y156.578 E.0014
;WIDTH:0.208107
G1 X157.213 Y157.017 E.0095
;WIDTH:0.208106
G1 X157.125 Y157.113 E.00223
;WIDTH:0.185167
G1 X157.113 Y157.125 E.00026
;WIDTH:0.218731
G1 X156.801 Y157.386 E.00745
;WIDTH:0.218731
G1 X156.505 Y157.59 E.00661
;WIDTH:0.183242
G1 X156.491 Y157.599 E.00025
;WIDTH:0.211647
G1 X156.334 Y157.679 E.00309
;WIDTH:0.211649
G1 X155.821 Y157.885 E.00972
;WIDTH:0.198877
G1 X155.785 Y157.895 E.0006
;WIDTH:0.191182
G1 X155.768 Y157.899 E.00028
;WIDTH:0.216608
G1 X155.276 Y157.978 E.00902
;WIDTH:0.216608
G1 X155.008 Y157.995 E.00486
;WIDTH:0.181551
G1 X154.992 Y157.995 E.00024
;WIDTH:0.216609
G1 X154.724 Y157.978 E.00486
;WIDTH:0.216609
G1 X154.232 Y157.899 E.00902
