; generated by PrusaSlicer 2.4.1+arm64 on 2022-03-30 at 22:13:52 UTC

; 

; external perimeters extrusion width = 0.50mm
; perimeters extrusion width = 0.50mm
; infill extrusion width = 0.50mm
; solid infill extrusion width = 0.50mm
; top infill extrusion width = 0.50mm
; first layer extrusion width = 0.50mm

M201 X400 Y400 Z90 E5000 ; sets maximum accelerations, mm/sec^2
M203 X400 Y400 Z5 E25 ; sets maximum feedrates, mm / sec
M204 P450 R450 T450 ; sets acceleration (P, T) and retract acceleration (R), mm/sec^2
M205 X8.00 Y8.00 Z0.40 E5.00 ; sets the jerk limits, mm/sec
M205 S0 T0 ; sets the minimum extruding and travel feed rate, mm/sec
M107
;TYPE:Custom
G90 ; use absolute coordinates
M83 ; extruder relative mode
M420 S1 ; Enable Bed Mesh
M140 S60 ; set final bed temp
M104 S150 ; set temporary nozzle temp to prevent oozing during homing
G4 S10 ; allow partial nozzle warmup
M569 S0 Y ; Disable stealthchop mode since bed appears to struggle to move at first
G28 ; home all axis
M569 S1 Y ; Re-enable stealthchop mode
G1 Z50 F240
G1 X2 Y10 F3000
M104 S210 ; set final nozzle temp
M190 S60 ; wait for bed temp to stabilize
M109 S210 ; wait for nozzle temp to stabilize
G1 Z0.65 F240 ; Zoffset applied manually here from prime movement
G92 E0
G1 Y140 E10 F1500 ; prime the nozzle
G1 X2.3 F5000
G92 E0
G1 Y10 E10 F1200 ; prime the nozzle
G92 E0
G21 ; set units to millimeters
G90 ; use absolute coordinates
M83 ; use relative distances for extrusion
; Filament gcode
M900 K0.2 ; Linear Advance
M107
;LAYER_CHANGE
;Z:0.28
;HEIGHT:0.28
;BEFORE_LAYER_CHANGE
G92 E0
;0.28


G1 E-2 F6000
G1 Z.565 F9000
G1 Z.645
;AFTER_LAYER_CHANGE
;0.28
G1 Z.845
G1 X148.037 Y147.715
G1 Z.645
G1 E2 F6000
M204 P450
;TYPE:Skirt/Brim
;WIDTH:0.5
G1 F900
G1 X148.95 Y146.94 E.06744
G1 X149.772 Y146.384 E.05591
G1 X151.427 Y145.576 E.10376
G1 X153.202 Y145.083 E.10376
G1 X154.045 Y144.967 E.04795
G1 X155.273 Y144.925 E.06922
G1 X157.133 Y145.15 E.10554
G1 X158.286 Y145.472 E.06744
G1 X159.208 Y145.841 E.05591
G1 X160.804 Y146.759 E.10376
G1 X161.479 Y147.278 E.04795
G1 X162.371 Y148.124 E.06922
G1 X163.499 Y149.58 E.10376
G1 X164.095 Y150.654 E.06922
G1 X164.479 Y151.57 E.05592
G1 X164.945 Y153.352 E.10376
G1 X165.078 Y155.189 E.10376
G1 X165.026 Y156.039 E.04795
G1 X164.826 Y157.251 E.06922
G1 X164.252 Y159.001 E.10376
G1 X163.696 Y160.097 E.06922
G1 X163.153 Y160.928 E.05592
G1 X161.938 Y162.312 E.10376
G1 X160.491 Y163.452 E.10375
G1 X159.422 Y164.058 E.06922
G1 X158.642 Y164.398 E.04795
G1 X156.87 Y164.904 E.10376
G1 X155.651 Y165.058 E.06922
G1 X154.659 Y165.073 E.05592
G1 X152.831 Y164.842 E.10376
G1 X151.978 Y164.614 E.04974
G1 X150.86 Y164.188 E.06743
G1 X149.257 Y163.281 E.10376
G1 X148.47 Y162.676 E.05591
G1 X147.584 Y161.824 E.06922
G1 X146.466 Y160.36 E.10376
G1 X146.03 Y159.592 E.04974
G1 X145.549 Y158.497 E.06743
G1 X145.07 Y156.718 E.10377
G1 X144.935 Y155.496 E.06923
G1 X144.935 Y154.504 E.05591
G1 X145.013 Y153.656 E.04795
G1 X145.251 Y152.451 E.06921
G1 X145.877 Y150.718 E.10376
G1 X146.809 Y149.13 E.10375
G1 X147.998 Y147.76 E.10215
G1 X148.328 Y148.047 F9000
G1 F900
G1 X149.207 Y147.297 E.0651
G1 X150.007 Y146.756 E.0544
G1 X151.591 Y145.985 E.09923
G1 X153.496 Y145.479 E.11099
G1 X155.253 Y145.364 E.09923
G1 X157.033 Y145.578 E.101
G1 X158.135 Y145.885 E.06443
G1 X159.032 Y146.244 E.0544
G1 X160.558 Y147.124 E.09923
G1 X162.043 Y148.418 E.11099
G1 X163.124 Y149.81 E.09923
G1 X163.695 Y150.837 E.0662
G1 X164.068 Y151.728 E.0544
G1 X164.512 Y153.432 E.09923
G1 X164.632 Y155.399 E.11099
G1 X164.391 Y157.175 E.101
G1 X164.068 Y158.272 E.06442
G1 X163.695 Y159.163 E.0544
G1 X162.667 Y160.844 E.11099
G1 X161.475 Y162.141 E.09923
G1 X160.067 Y163.2 E.09923
G1 X158.49 Y163.985 E.09923
G1 X156.797 Y164.47 E.09923
G1 X155.631 Y164.618 E.0662
G1 X154.665 Y164.633 E.05441
G1 X152.918 Y164.411 E.09923
G1 X151.048 Y163.791 E.11099
G1 X149.514 Y162.924 E.09923
G1 X148.59 Y162.198 E.0662
G1 X147.902 Y161.52 E.0544
G1 X146.834 Y160.119 E.09923
G1 X145.964 Y158.352 E.11098
G1 X145.505 Y156.651 E.09924
G1 X145.387 Y155.692 E.0544
G1 X145.375 Y154.517 E.0662
G1 X145.674 Y152.57 E.11098
G1 X146.272 Y150.913 E.09924
G1 X147.162 Y149.392 E.09923
G1 X148.289 Y148.092 E.09694
G1 E-2 F6000
G1 Z.845 F9000
G1 X151.292 Y151.663
G1 Z.645
G1 E2 F6000
;TYPE:Perimeter
G1 F900
G1 X151.848 Y151.13 E.04334
G1 X152.431 Y150.723 E.04006
G1 X152.776 Y150.533 E.02221
G1 X153.125 Y150.375 E.02155
G1 X153.802 Y150.155 E.04009
G1 X154.188 Y150.076 E.0222
G1 X154.896 Y150.01 E.04007
G1 X155.632 Y150.049 E.04152
G1 X156.022 Y150.114 E.02226
G1 X156.706 Y150.309 E.04009
G1 X157.071 Y150.458 E.02221
G1 X157.707 Y150.805 E.04081
G1 X158.295 Y151.249 E.04152
G1 X158.794 Y151.756 E.04006
G1 X159.038 Y152.066 E.0222
G1 X159.251 Y152.383 E.02154
G1 X159.581 Y153.014 E.04007
G1 X159.827 Y153.722 E.04223
G1 X159.958 Y154.422 E.0401
G1 X159.989 Y154.827 E.02293
G1 X159.963 Y155.552 E.04085
G1 X159.832 Y156.251 E.04006
G1 X159.715 Y156.641 E.02292
G1 X159.433 Y157.296 E.04015
G1 X159.244 Y157.627 E.02149
G1 X159.032 Y157.944 E.0215
G1 X158.572 Y158.487 E.04009
G1 X158.286 Y158.758 E.0222
G1 X157.718 Y159.187 E.04008
G1 X157.072 Y159.541 E.04152
G1 X156.706 Y159.691 E.02226
G1 X156.009 Y159.889 E.04081
G1 X155.278 Y159.984 E.04153
G1 X154.554 Y159.971 E.04081
G1 X154.163 Y159.92 E.02222
G1 X153.471 Y159.751 E.04009
G1 X153.101 Y159.615 E.02221
G1 X152.464 Y159.298 E.04009
G1 X152.133 Y159.084 E.0222
G1 X151.581 Y158.635 E.04008
G1 X151.083 Y158.091 E.04152
G1 X150.851 Y157.772 E.02226
G1 X150.493 Y157.142 E.04081
G1 X150.231 Y156.467 E.04081
G1 X150.13 Y156.085 E.02221
G1 X150.023 Y155.369 E.04081
G1 X150.023 Y154.644 E.04081
G1 X150.065 Y154.265 E.02149
G1 X150.136 Y153.89 E.0215
G1 X150.343 Y153.209 E.04009
G1 X150.499 Y152.847 E.02222
G1 X150.857 Y152.217 E.04081
G1 X151.255 Y151.71 E.03632
G1 X151.638 Y151.934 F9000
;TYPE:External perimeter
G1 F900
G1 X152.127 Y151.472 E.03786
G1 X152.663 Y151.097 E.03689
G1 X152.973 Y150.927 E.0199
G1 X153.284 Y150.786 E.01922
G1 X153.914 Y150.581 E.03734
G1 X154.253 Y150.512 E.01946
G1 X154.905 Y150.451 E.03689
G1 X155.584 Y150.487 E.0383
G1 X155.925 Y150.544 E.01948
G1 X156.562 Y150.726 E.03734
G1 X156.882 Y150.856 E.01946
G1 X157.468 Y151.176 E.0376
G1 X158.005 Y151.581 E.03786
G1 X158.464 Y152.048 E.03689
G1 X158.682 Y152.325 E.0199
G1 X158.873 Y152.608 E.01922
G1 X159.176 Y153.189 E.03689
G1 X159.401 Y153.835 E.03856
G1 X159.522 Y154.479 E.0369
G1 X159.549 Y154.836 E.02017
G1 X159.524 Y155.503 E.03762
G1 X159.404 Y156.147 E.03689
G1 X159.301 Y156.49 E.02016
G1 X159.039 Y157.099 E.03736
G1 X158.87 Y157.395 E.0192
G1 X158.68 Y157.678 E.0192
G1 X158.252 Y158.184 E.03734
G1 X158.001 Y158.422 E.01946
G1 X157.479 Y158.817 E.03689
G1 X156.882 Y159.144 E.0383
G1 X156.562 Y159.274 E.01948
G1 X155.92 Y159.457 E.0376
G1 X155.254 Y159.544 E.03786
G1 X154.586 Y159.531 E.0376
G1 X154.244 Y159.487 E.01946
G1 X153.6 Y159.329 E.03734
G1 X153.275 Y159.21 E.01946
G1 X152.682 Y158.915 E.03734
G1 X152.392 Y158.728 E.01946
G1 X151.884 Y158.314 E.03689
G1 X151.424 Y157.813 E.0383
G1 X151.221 Y157.533 E.01948
G1 X150.891 Y156.953 E.0376
G1 X150.65 Y156.33 E.0376
G1 X150.561 Y155.996 E.01946
G1 X150.463 Y155.336 E.0376
G1 X150.463 Y154.669 E.0376
G1 X150.501 Y154.33 E.0192
G1 X150.563 Y153.995 E.0192
G1 X150.757 Y153.361 E.03734
G1 X150.893 Y153.043 E.01946
G1 X151.223 Y152.463 E.0376
G1 X151.601 Y151.981 E.03448
G1 X151.517 Y151.553 F9000
G1 X151.039 Y151.325
;TYPE:Perimeter
G1 F900
G1 X151.456 Y150.915 E.03294
G1 X151.695 Y150.719 E.01741
G1 X152.25 Y150.344 E.03774
G1 X152.846 Y150.039 E.03774
G1 X153.446 Y149.819 E.03597
G1 X154.098 Y149.667 E.03774
G1 X154.764 Y149.596 E.03772
G1 X155.08 Y149.591 E.01782
G1 X155.741 Y149.642 E.03734
G1 X156.398 Y149.774 E.03773
G1 X156.701 Y149.865 E.01782
G1 X157.316 Y150.112 E.03734
G1 X157.903 Y150.435 E.03775
G1 X158.168 Y150.614 E.01797
G1 X158.426 Y150.813 E.01841
G1 X158.92 Y151.271 E.03794
G1 X159.127 Y151.501 E.01741
G1 X159.527 Y152.038 E.03775
G1 X159.854 Y152.611 E.03715
G1 X160.113 Y153.229 E.03772
G1 X160.207 Y153.53 E.01782
G1 X160.347 Y154.178 E.03734
G1 X160.409 Y154.846 E.03775
G1 X160.409 Y155.154 E.0174
G1 X160.347 Y155.822 E.03774
G1 X160.205 Y156.476 E.03774
G1 X160.113 Y156.771 E.0174
G1 X159.854 Y157.389 E.03774
G1 X159.522 Y157.971 E.03774
G1 X159.345 Y158.224 E.0174
G1 X158.906 Y158.744 E.03834
G1 X158.686 Y158.961 E.0174
G1 X158.159 Y159.392 E.03834
G1 X157.903 Y159.565 E.0174
G1 X157.307 Y159.893 E.03834
G1 X157.015 Y160.021 E.01797
G1 X156.708 Y160.133 E.01841
G1 X156.067 Y160.303 E.03734
G1 X155.413 Y160.393 E.03715
G1 X154.754 Y160.403 E.03715
G1 X154.088 Y160.332 E.03772
G1 X153.778 Y160.269 E.01782
G1 X153.143 Y160.079 E.03734
G1 X152.529 Y159.811 E.03775
G1 X152.258 Y159.662 E.0174
G1 X151.703 Y159.287 E.03774
G1 X151.198 Y158.847 E.03774
G1 X150.771 Y158.372 E.03597
G1 X150.388 Y157.823 E.03775
G1 X150.074 Y157.231 E.03772
G1 X149.952 Y156.939 E.01782
G1 X149.753 Y156.307 E.03734
G1 X149.631 Y155.648 E.03775
G1 X149.603 Y155.34 E.0174
G1 X149.603 Y154.66 E.03834
G1 X149.631 Y154.352 E.0174
G1 X149.755 Y153.683 E.03831
G1 X149.841 Y153.379 E.01782
G1 X150.078 Y152.76 E.03734
G1 X150.388 Y152.177 E.03715
G1 X150.771 Y151.629 E.03772
G1 X150.996 Y151.367 E.01943
G1 X150.73 Y151.011 F9000
;TYPE:External perimeter
G1 F900
G1 X151.161 Y150.587 E.03407
G1 X151.431 Y150.366 E.01967
G1 X152.025 Y149.964 E.04039
G1 X152.664 Y149.638 E.04039
G1 X153.326 Y149.395 E.03975
G1 X154.025 Y149.233 E.04039
G1 X154.738 Y149.156 E.04038
G1 X155.094 Y149.151 E.02009
G1 X155.802 Y149.206 E.03998
G1 X156.505 Y149.347 E.04038
G1 X156.846 Y149.449 E.02009
G1 X157.505 Y149.713 E.03998
G1 X158.133 Y150.059 E.04039
G1 X158.425 Y150.257 E.01988
G1 X158.711 Y150.477 E.02031
G1 X159.234 Y150.962 E.04019
G1 X159.467 Y151.222 E.01967
G1 X159.896 Y151.797 E.04039
G1 X160.249 Y152.416 E.04017
G1 X160.526 Y153.077 E.04038
G1 X160.633 Y153.418 E.02009
G1 X160.783 Y154.111 E.03998
G1 X160.849 Y154.825 E.04039
G1 X160.849 Y155.175 E.01967
G1 X160.783 Y155.889 E.04039
G1 X160.631 Y156.589 E.04039
G1 X160.526 Y156.922 E.01967
G1 X160.249 Y157.584 E.04039
G1 X159.894 Y158.207 E.04039
G1 X159.694 Y158.493 E.01967
G1 X159.229 Y159.043 E.04061
G1 X158.98 Y159.288 E.01967
G1 X158.422 Y159.745 E.04061
G1 X158.133 Y159.941 E.01967
G1 X157.502 Y160.289 E.04061
G1 X157.178 Y160.43 E.01987
G1 X156.84 Y160.553 E.02031
G1 X156.154 Y160.735 E.03998
G1 X155.447 Y160.832 E.04018
G1 X154.734 Y160.843 E.04018
G1 X154.021 Y160.767 E.04038
G1 X153.672 Y160.696 E.02009
G1 X152.992 Y160.493 E.03997
G1 X152.334 Y160.206 E.0404
G1 X152.029 Y160.038 E.01967
G1 X151.435 Y159.636 E.04039
G1 X150.894 Y159.165 E.04039
G1 X150.422 Y158.64 E.03975
G1 X150.012 Y158.053 E.04039
G1 X149.675 Y157.419 E.04038
G1 X149.538 Y157.09 E.02009
G1 X149.325 Y156.413 E.03998
G1 X149.195 Y155.708 E.04039
G1 X149.163 Y155.36 E.01967
G1 X149.163 Y154.64 E.0406
G1 X149.195 Y154.292 E.01967
G1 X149.326 Y153.583 E.0406
G1 X149.423 Y153.24 E.02009
G1 X149.677 Y152.577 E.03998
G1 X150.012 Y151.947 E.04018
G1 X150.422 Y151.36 E.04038
G1 X150.687 Y151.054 E.02282
G1 X151.12 Y151.1 F9000
M106 S127.5
;LAYER_CHANGE
;Z:0.56
;HEIGHT:0.28
;BEFORE_LAYER_CHANGE
G92 E0
;0.56


G1 E-2 F6000
G1 Z.845 F9000
G1 Z.925
;AFTER_LAYER_CHANGE
;0.56
M140 S55 ; set bed temperature
G1 Z1.125
G1 X147.524 Y148.306
G1 Z.925
G1 E2 F6000
;TYPE:Skirt/Brim
G1 F900
G1 X148.037 Y147.715 E.0441
G1 X148.95 Y146.94 E.06744
G1 X149.772 Y146.384 E.05591
G1 X151.427 Y145.576 E.10376
G1 X153.202 Y145.083 E.10376
G1 X154.045 Y144.967 E.04795
G1 X155.273 Y144.925 E.06922
G1 X157.133 Y145.15 E.10554
G1 X158.286 Y145.472 E.06744
G1 X159.208 Y145.841 E.05591
G1 X160.804 Y146.759 E.10376
G1 X161.479 Y147.278 E.04795
G1 X162.371 Y148.124 E.06922
G1 X163.499 Y149.58 E.10376
G1 X164.095 Y150.654 E.06922
G1 X164.479 Y151.57 E.05592
G1 X164.945 Y153.352 E.10376
G1 X165.078 Y155.189 E.10376
G1 X165.026 Y156.039 E.04795
G1 X164.826 Y157.251 E.06922
G1 X164.252 Y159.001 E.10376
G1 X163.696 Y160.097 E.06922
G1 X163.153 Y160.928 E.05592
G1 X161.938 Y162.312 E.10376
G1 X160.491 Y163.452 E.10375
G1 X159.422 Y164.058 E.06922
G1 X158.642 Y164.398 E.04795
G1 X156.87 Y164.904 E.10376
G1 X155.651 Y165.058 E.06922
G1 X154.659 Y165.073 E.05592
G1 X152.831 Y164.842 E.10376
G1 X151.978 Y164.614 E.04974
G1 X150.86 Y164.188 E.06743
G1 X149.257 Y163.281 E.10376
G1 X148.47 Y162.676 E.05591
G1 X147.584 Y161.824 E.06922
G1 X146.466 Y160.36 E.10376
G1 X146.03 Y159.592 E.04974
G1 X145.549 Y158.497 E.06743
G1 X145.07 Y156.718 E.10377
G1 X144.935 Y155.496 E.06923
G1 X144.935 Y154.504 E.05591
G1 X145.013 Y153.656 E.04795
G1 X145.251 Y152.451 E.06921
G1 X145.877 Y150.718 E.10376
G1 X146.809 Y149.13 E.10375
G1 X147.485 Y148.351 E.05805
G1 X147.815 Y148.638 F9000
G1 F900
G1 X148.336 Y148.038 E.04479
G1 X149.207 Y147.297 E.06442
G1 X150.007 Y146.756 E.0544
G1 X151.591 Y145.985 E.09923
G1 X153.496 Y145.479 E.11099
G1 X155.253 Y145.364 E.09923
G1 X157.033 Y145.578 E.101
G1 X158.135 Y145.885 E.06443
G1 X159.032 Y146.244 E.0544
G1 X160.558 Y147.124 E.09923
G1 X162.043 Y148.418 E.11099
G1 X163.124 Y149.81 E.09923
G1 X163.695 Y150.837 E.0662
G1 X164.068 Y151.728 E.0544
G1 X164.512 Y153.432 E.09923
G1 X164.632 Y155.399 E.11099
G1 X164.391 Y157.175 E.101
G1 X164.068 Y158.272 E.06442
G1 X163.695 Y159.163 E.0544
G1 X162.667 Y160.844 E.11099
G1 X161.475 Y162.141 E.09923
G1 X160.067 Y163.2 E.09923
G1 X158.49 Y163.985 E.09923
G1 X156.797 Y164.47 E.09923
G1 X155.631 Y164.618 E.0662
G1 X154.665 Y164.633 E.05441
G1 X152.918 Y164.411 E.09923
G1 X151.048 Y163.791 E.11099
G1 X149.514 Y162.924 E.09923
G1 X148.59 Y162.198 E.0662
G1 X147.902 Y161.52 E.0544
G1 X146.834 Y160.119 E.09923
G1 X145.964 Y158.352 E.11098
G1 X145.505 Y156.651 E.09924
G1 X145.387 Y155.692 E.0544
G1 X145.375 Y154.517 E.0662
G1 X145.674 Y152.57 E.11098
G1 X146.272 Y150.913 E.09924
G1 X147.162 Y149.392 E.09923
G1 X147.776 Y148.684 E.05284
G1 E-2 F6000
G1 Z1.125 F9000
G1 X151.396 Y151.697
G1 Z.925
G1 E2 F6000
;TYPE:Perimeter
G1 F900
G1 X151.649 Y151.439 E.02039
G1 X152.167 Y151.015 E.03768
G1 X152.503 Y150.796 E.02258
G1 X152.833 Y150.616 E.02119
G1 X153.478 Y150.352 E.03926
G1 X153.838 Y150.25 E.02108
G1 X154.204 Y150.175 E.02105
G1 X154.87 Y150.112 E.03768
G1 X155.27 Y150.117 E.02258
G1 X155.632 Y150.15 E.02047
G1 X156.001 Y150.212 E.02108
G1 X156.672 Y150.403 E.03926
G1 X157.03 Y150.55 E.0218
G1 X157.653 Y150.889 E.03998
G1 X158.219 Y151.317 E.03998
G1 X158.501 Y151.583 E.0218
G1 X158.959 Y152.125 E.03998
G1 X159.339 Y152.739 E.0407
G1 X159.62 Y153.391 E.03998
G1 X159.733 Y153.761 E.0218
G1 X159.861 Y154.446 E.03926
G1 X159.889 Y154.831 E.02177
G1 X159.866 Y155.5 E.03768
G1 X159.807 Y155.909 E.0233
G1 X159.628 Y156.585 E.03937
G1 X159.489 Y156.946 E.0218
G1 X159.161 Y157.575 E.03998
G1 X158.736 Y158.159 E.04067
G1 X158.259 Y158.647 E.0384
G1 X157.95 Y158.901 E.02258
G1 X157.642 Y159.117 E.02119
G1 X157.03 Y159.45 E.03926
G1 X156.672 Y159.597 E.02177
G1 X156.029 Y159.781 E.03768
G1 X155.634 Y159.849 E.02258
G1 X155.26 Y159.884 E.02116
G1 X154.591 Y159.873 E.03768
G1 X154.181 Y159.822 E.0233
G1 X153.502 Y159.655 E.03937
G1 X153.139 Y159.522 E.0218
G1 X152.515 Y159.212 E.03926
G1 X152.19 Y159.002 E.02177
G1 X151.671 Y158.581 E.03768
G1 X151.389 Y158.296 E.02258
G1 X151.154 Y158.019 E.02047
G1 X150.934 Y157.716 E.02108
G1 X150.583 Y157.099 E.03998
G1 X150.327 Y156.437 E.03998
G1 X150.228 Y156.063 E.0218
G1 X150.123 Y155.361 E.03998
G1 X150.123 Y154.652 E.03998
G1 X150.164 Y154.28 E.02108
G1 X150.233 Y153.912 E.02105
G1 X150.427 Y153.272 E.03768
G1 X150.583 Y152.903 E.02258
G1 X150.751 Y152.581 E.02047
G1 X150.948 Y152.263 E.02108
G1 X151.356 Y151.742 E.03725
G1 X151.709 Y152.005 F9000
;TYPE:External perimeter
G1 F900
G1 X151.946 Y151.764 E.01904
G1 X152.427 Y151.371 E.035
G1 X152.728 Y151.174 E.02026
G1 X153.022 Y151.014 E.01883
G1 X153.622 Y150.769 E.03651
G1 X153.943 Y150.678 E.01879
G1 X154.269 Y150.61 E.01878
G1 X154.888 Y150.552 E.035
G1 X155.247 Y150.557 E.02026
G1 X155.576 Y150.587 E.01857
