; generated by PrusaSlicer 2.4.1+arm64 on 2022-04-07 at 00:05:50 UTC

; 

; external perimeters extrusion width = 0.50mm
; perimeters extrusion width = 0.50mm
; infill extrusion width = 0.50mm
; solid infill extrusion width = 0.50mm
; top infill extrusion width = 0.50mm
; first layer extrusion width = 0.50mm

M201 X400 Y400 Z90 E5000 ; sets maximum accelerations, mm/sec^2
M203 X400 Y400 Z5 E25 ; sets maximum feedrates, mm / sec
M204 P450 R450 T450 ; sets acceleration (P, T) and retract acceleration (R), mm/sec^2
M205 X8.00 Y8.00 Z0.40 E5.00 ; sets the jerk limits, mm/sec
M205 S0 T0 ; sets the minimum extruding and travel feed rate, mm/sec
M107
;TYPE:Custom
G90 ; use absolute coordinates
M83 ; extruder relative mode
M420 S1 ; Enable Bed Mesh
M140 S60 ; set final bed temp
M104 S150 ; set temporary nozzle temp to prevent oozing during homing
G4 S10 ; allow partial nozzle warmup
M569 S0 Y ; Disable stealthchop mode since bed appears to struggle to move at first
G28 ; home all axis
M569 S1 Y ; Re-enable stealthchop mode
G1 Z50 F240
G1 X2 Y10 F3000
M104 S210 ; set final nozzle temp
M190 S60 ; wait for bed temp to stabilize
M109 S210 ; wait for nozzle temp to stabilize
G1 Z0.65 F240 ; Zoffset applied manually here from prime movement
G92 E0
G1 Y140 E10 F1500 ; prime the nozzle
G1 X2.3 F5000
G92 E0
G1 Y10 E10 F1200 ; prime the nozzle
G92 E0
G21 ; set units to millimeters
G90 ; use absolute coordinates
M83 ; use relative distances for extrusion
; Filament gcode
M900 K0.2 ; Linear Advance
M107
;LAYER_CHANGE
;Z:0.28
;HEIGHT:0.28
;BEFORE_LAYER_CHANGE
G92 E0
;0.28


G1 E-2 F6000
G1 Z.565 F9000
G1 Z.645
;AFTER_LAYER_CHANGE
;0.28
G1 Z.845
G1 X129.365 Y139.436
G1 Z.645
G1 E2 F6000
M204 P450
;TYPE:Skirt/Brim
;WIDTH:0.5
G1 F1200
G1 X130.81 Y138.097 E.11099
G1 X132.122 Y137.267 E.08745
G1 X133.391 Y136.713 E.078
G1 X134.892 Y136.315 E.08745
G1 X136.268 Y136.167 E.078
G1 X173.65 Y136.165 E2.10578
G1 X175.4 Y136.372 E.09923
G1 X177.082 Y136.893 E.09923
G1 X178.642 Y137.712 E.09923
G1 X179.872 Y138.659 E.08745
G1 X181.064 Y139.956 E.09923
G1 X181.999 Y141.449 E.09923
G1 X182.534 Y142.726 E.078
G1 X182.941 Y144.44 E.09923
G1 X183.036 Y145.611 E.0662
G1 X183.036 Y164.389 E1.05776
G1 X182.941 Y165.56 E.0662
G1 X182.534 Y167.274 E.09923
G1 X181.718 Y169.067 E.11099
G1 X180.693 Y170.5 E.09923
G1 X179.872 Y171.341 E.0662
G1 X179.125 Y171.953 E.05441
G1 X177.955 Y172.694 E.078
G1 X176.532 Y173.315 E.08745
G1 X175.194 Y173.67 E.078
G1 X173.65 Y173.835 E.08745
G1 X136.268 Y173.833 E2.10578
G1 X134.317 Y173.563 E.11099
G1 X133.194 Y173.215 E.0662
G1 X132.122 Y172.733 E.0662
G1 X131.117 Y172.124 E.0662
G1 X130.351 Y171.535 E.0544
G1 X128.99 Y170.11 E.11099
G1 X128.14 Y168.811 E.08745
G1 X127.567 Y167.551 E.07799
G1 X127.22 Y166.397 E.0679
G1 X126.99 Y164.892 E.08576
G1 X126.978 Y145.318 E1.10265
G1 X127.108 Y144.149 E.0662
G1 X127.285 Y143.341 E.04662
G1 X127.642 Y142.253 E.06451
G1 X128.14 Y141.189 E.0662
G1 X128.644 Y140.365 E.0544
G1 X129.328 Y139.484 E.06282
G1 E-2 F6000
G1 Z.845 F9000
G1 X132.895 Y142.463
G1 Z.645
G1 E2 F6000
;TYPE:Perimeter
G1 F1200
G1 X133.451 Y141.931 E.04334
G1 X134.033 Y141.523 E.04006
G1 X134.379 Y141.334 E.02221
G1 X134.728 Y141.176 E.02155
G1 X135.404 Y140.956 E.04009
G1 X135.79 Y140.876 E.0222
G1 X136.499 Y140.81 E.04007
G1 X137.235 Y140.849 E.04152
G1 X137.624 Y140.915 E.02226
G1 X138.309 Y141.11 E.04009
G1 X138.674 Y141.259 E.02221
G1 X139.31 Y141.605 E.04081
G1 X139.898 Y142.05 E.04152
G1 X140.397 Y142.557 E.04006
G1 X140.641 Y142.866 E.0222
G1 X140.854 Y143.184 E.02154
G1 X141.184 Y143.814 E.04007
G1 X141.43 Y144.522 E.04223
G1 X141.561 Y145.222 E.0401
G1 X141.592 Y145.628 E.02293
G1 X141.566 Y146.352 E.04085
G1 X141.435 Y147.052 E.04006
G1 X141.318 Y147.441 E.02292
G1 X141.036 Y148.096 E.04015
G1 X140.847 Y148.428 E.02149
G1 X140.635 Y148.744 E.0215
G1 X140.175 Y149.288 E.04009
G1 X139.889 Y149.558 E.0222
G1 X139.321 Y149.988 E.04008
G1 X138.675 Y150.342 E.04152
G1 X138.309 Y150.491 E.02226
G1 X137.612 Y150.689 E.04081
G1 X136.881 Y150.785 E.04153
G1 X136.157 Y150.771 E.04081
G1 X135.765 Y150.72 E.02222
G1 X135.074 Y150.551 E.04009
G1 X134.704 Y150.415 E.02221
G1 X134.067 Y150.098 E.04009
G1 X133.736 Y149.884 E.0222
G1 X133.184 Y149.435 E.04008
G1 X132.686 Y148.892 E.04152
G1 X132.454 Y148.572 E.02226
G1 X132.095 Y147.942 E.04081
G1 X131.834 Y147.267 E.04081
G1 X131.733 Y146.886 E.02221
G1 X131.626 Y146.169 E.04081
G1 X131.626 Y145.445 E.04081
G1 X131.668 Y145.065 E.02149
G1 X131.738 Y144.69 E.0215
G1 X131.946 Y144.009 E.04009
G1 X132.102 Y143.647 E.02222
G1 X132.46 Y143.017 E.04081
G1 X132.858 Y142.51 E.03632
G1 X133.241 Y142.735 F9000
;TYPE:External perimeter
G1 F1200
G1 X133.73 Y142.273 E.03786
G1 X134.266 Y141.897 E.03689
G1 X134.576 Y141.727 E.0199
G1 X134.887 Y141.587 E.01922
G1 X135.517 Y141.382 E.03734
G1 X135.855 Y141.312 E.01946
G1 X136.508 Y141.251 E.03689
G1 X137.186 Y141.287 E.0383
G1 X137.528 Y141.345 E.01948
G1 X138.165 Y141.526 E.03734
G1 X138.485 Y141.657 E.01946
G1 X139.071 Y141.976 E.0376
G1 X139.607 Y142.381 E.03786
G1 X140.066 Y142.848 E.03689
G1 X140.285 Y143.126 E.0199
G1 X140.476 Y143.409 E.01922
G1 X140.779 Y143.989 E.03689
G1 X141.004 Y144.636 E.03856
G1 X141.124 Y145.28 E.0369
G1 X141.152 Y145.637 E.02017
G1 X141.127 Y146.304 E.03762
G1 X141.007 Y146.948 E.03689
G1 X140.904 Y147.29 E.02016
G1 X140.642 Y147.899 E.03736
G1 X140.473 Y148.196 E.0192
G1 X140.283 Y148.479 E.0192
G1 X139.855 Y148.985 E.03734
G1 X139.604 Y149.222 E.01946
G1 X139.082 Y149.617 E.03689
G1 X138.485 Y149.944 E.0383
G1 X138.165 Y150.075 E.01948
G1 X137.523 Y150.257 E.0376
G1 X136.856 Y150.344 E.03786
G1 X136.189 Y150.332 E.0376
G1 X135.846 Y150.287 E.01946
G1 X135.203 Y150.129 E.03734
G1 X134.878 Y150.011 E.01946
G1 X134.285 Y149.715 E.03734
G1 X133.994 Y149.528 E.01946
G1 X133.486 Y149.115 E.03689
G1 X133.027 Y148.613 E.0383
G1 X132.824 Y148.333 E.01948
G1 X132.494 Y147.753 E.0376
G1 X132.253 Y147.131 E.0376
G1 X132.164 Y146.797 E.01946
G1 X132.066 Y146.136 E.0376
G1 X132.066 Y145.469 E.0376
G1 X132.104 Y145.13 E.0192
G1 X132.166 Y144.795 E.0192
G1 X132.36 Y144.161 E.03734
G1 X132.496 Y143.844 E.01946
G1 X132.826 Y143.263 E.0376
G1 X133.204 Y142.782 E.03448
G1 X133.12 Y142.353 F9000
G1 X132.642 Y142.125
;TYPE:Perimeter
G1 F1200
G1 X133.058 Y141.715 E.03294
G1 X133.297 Y141.519 E.01741
G1 X133.852 Y141.144 E.03774
G1 X134.449 Y140.839 E.03774
G1 X135.049 Y140.619 E.03597
G1 X135.701 Y140.468 E.03774
G1 X136.367 Y140.396 E.03772
G1 X136.683 Y140.392 E.01782
G1 X137.344 Y140.442 E.03734
G1 X138.001 Y140.574 E.03773
G1 X138.304 Y140.665 E.01782
G1 X138.919 Y140.912 E.03734
G1 X139.506 Y141.235 E.03775
G1 X139.77 Y141.414 E.01797
G1 X140.029 Y141.614 E.01841
G1 X140.523 Y142.071 E.03794
G1 X140.73 Y142.301 E.01741
G1 X141.13 Y142.838 E.03775
G1 X141.457 Y143.411 E.03715
G1 X141.715 Y144.029 E.03772
G1 X141.81 Y144.331 E.01782
G1 X141.95 Y144.979 E.03734
G1 X142.012 Y145.646 E.03775
G1 X142.012 Y145.955 E.0174
G1 X141.95 Y146.622 E.03774
G1 X141.808 Y147.277 E.03774
G1 X141.716 Y147.571 E.0174
G1 X141.457 Y148.19 E.03774
G1 X141.125 Y148.771 E.03774
G1 X140.948 Y149.025 E.0174
G1 X140.509 Y149.545 E.03834
G1 X140.288 Y149.761 E.0174
G1 X139.762 Y150.193 E.03834
G1 X139.506 Y150.366 E.0174
G1 X138.91 Y150.694 E.03834
G1 X138.618 Y150.821 E.01797
G1 X138.311 Y150.933 E.01841
G1 X137.67 Y151.103 E.03734
G1 X137.016 Y151.193 E.03715
G1 X136.357 Y151.203 E.03715
G1 X135.691 Y151.132 E.03772
G1 X135.381 Y151.069 E.01782
G1 X134.746 Y150.88 E.03734
G1 X134.132 Y150.612 E.03775
G1 X133.861 Y150.463 E.0174
G1 X133.306 Y150.087 E.03774
G1 X132.801 Y149.647 E.03774
G1 X132.374 Y149.172 E.03597
G1 X131.99 Y148.623 E.03775
G1 X131.676 Y148.031 E.03772
G1 X131.555 Y147.74 E.01782
G1 X131.356 Y147.107 E.03734
G1 X131.234 Y146.448 E.03775
G1 X131.206 Y146.141 E.0174
G1 X131.206 Y145.46 E.03834
G1 X131.234 Y145.152 E.0174
G1 X131.358 Y144.484 E.03831
G1 X131.444 Y144.179 E.01782
G1 X131.681 Y143.56 E.03734
G1 X131.99 Y142.978 E.03715
G1 X132.374 Y142.429 E.03772
G1 X132.599 Y142.167 E.01943
G1 X132.333 Y141.812 F9000
;TYPE:External perimeter
G1 F1200
G1 X132.764 Y141.388 E.03407
G1 X133.034 Y141.166 E.01967
G1 X133.628 Y140.765 E.04039
G1 X134.267 Y140.438 E.04039
G1 X134.929 Y140.196 E.03975
G1 X135.628 Y140.033 E.04039
G1 X136.34 Y139.957 E.04038
G1 X136.697 Y139.952 E.02009
G1 X137.405 Y140.006 E.03998
G1 X138.108 Y140.147 E.04038
G1 X138.449 Y140.249 E.02009
G1 X139.108 Y140.514 E.03998
G1 X139.736 Y140.86 E.04039
G1 X140.028 Y141.057 E.01988
G1 X140.314 Y141.277 E.02031
G1 X140.837 Y141.762 E.04019
G1 X141.07 Y142.022 E.01967
G1 X141.499 Y142.597 E.04039
G1 X141.852 Y143.217 E.04017
G1 X142.129 Y143.878 E.04038
G1 X142.236 Y144.218 E.02009
G1 X142.386 Y144.912 E.03998
G1 X142.451 Y145.626 E.04039
G1 X142.451 Y145.975 E.01967
G1 X142.386 Y146.689 E.04039
G1 X142.234 Y147.39 E.04039
G1 X142.129 Y147.723 E.01967
G1 X141.852 Y148.384 E.04039
G1 X141.497 Y149.007 E.04039
G1 X141.297 Y149.293 E.01967
G1 X140.832 Y149.844 E.04061
G1 X140.583 Y150.089 E.01967
G1 X140.025 Y150.546 E.04061
G1 X139.736 Y150.741 E.01967
G1 X139.104 Y151.089 E.04061
G1 X138.781 Y151.23 E.01987
G1 X138.442 Y151.354 E.02031
G1 X137.756 Y151.535 E.03998
G1 X137.05 Y151.633 E.04018
G1 X136.337 Y151.644 E.04018
G1 X135.624 Y151.567 E.04038
G1 X135.274 Y151.497 E.02009
G1 X134.594 Y151.294 E.03997
G1 X133.937 Y151.007 E.0404
G1 X133.631 Y150.838 E.01967
G1 X133.037 Y150.437 E.04039
G1 X132.497 Y149.965 E.04039
G1 X132.025 Y149.441 E.03975
G1 X131.614 Y148.853 E.04039
G1 X131.278 Y148.22 E.04038
G1 X131.141 Y147.891 E.02009
G1 X130.928 Y147.214 E.03998
G1 X130.798 Y146.509 E.04039
G1 X130.766 Y146.161 E.01967
G1 X130.766 Y145.44 E.0406
G1 X130.798 Y145.092 E.01967
G1 X130.929 Y144.384 E.0406
G1 X131.026 Y144.04 E.02009
G1 X131.28 Y143.378 E.03998
G1 X131.614 Y142.748 E.04018
G1 X132.025 Y142.16 E.04038
G1 X132.29 Y141.854 E.02282
G1 X132.723 Y141.901 F9000
G1 E-2 F6000
G1 Z.845 F9000
G1 X150.023 Y146.136
G1 Z.645
G1 E2 F6000
;TYPE:Perimeter
G1 F1200
G1 X150.023 Y145.445 E.03898
G1 X150.065 Y145.065 E.02149
G1 X150.136 Y144.69 E.0215
G1 X150.343 Y144.009 E.04009
G1 X150.499 Y143.647 E.02222
G1 X150.857 Y143.017 E.04081
G1 X151.312 Y142.437 E.04153
G1 X151.848 Y141.931 E.04152
G1 X152.431 Y141.523 E.04006
G1 X152.776 Y141.334 E.02221
G1 X153.125 Y141.176 E.02155
G1 X153.802 Y140.956 E.04009
G1 X154.188 Y140.876 E.0222
G1 X154.896 Y140.81 E.04007
G1 X155.632 Y140.849 E.04152
G1 X156.022 Y140.915 E.02226
G1 X156.706 Y141.11 E.04009
G1 X157.071 Y141.259 E.02221
G1 X157.707 Y141.605 E.04081
G1 X158.295 Y142.05 E.04152
G1 X158.794 Y142.557 E.04006
G1 X159.038 Y142.866 E.0222
G1 X159.251 Y143.184 E.02154
G1 X159.581 Y143.814 E.04007
G1 X159.827 Y144.522 E.04223
G1 X159.958 Y145.222 E.0401
G1 X159.989 Y145.628 E.02293
G1 X159.963 Y146.352 E.04085
G1 X159.832 Y147.052 E.04006
G1 X159.715 Y147.441 E.02292
G1 X159.433 Y148.096 E.04015
G1 X159.244 Y148.428 E.02149
G1 X159.032 Y148.744 E.0215
G1 X158.572 Y149.288 E.04009
G1 X158.286 Y149.558 E.0222
G1 X157.718 Y149.988 E.04008
G1 X157.072 Y150.342 E.04152
G1 X156.706 Y150.491 E.02226
G1 X156.009 Y150.689 E.04081
G1 X155.278 Y150.785 E.04153
G1 X154.554 Y150.771 E.04081
G1 X154.163 Y150.72 E.02222
G1 X153.471 Y150.551 E.04009
G1 X153.101 Y150.415 E.02221
G1 X152.464 Y150.098 E.04009
G1 X152.133 Y149.884 E.0222
G1 X151.581 Y149.435 E.04008
G1 X151.083 Y148.892 E.04152
G1 X150.851 Y148.572 E.02226
G1 X150.493 Y147.942 E.04081
G1 X150.231 Y147.267 E.04081
G1 X150.13 Y146.886 E.02221
G1 X150.027 Y146.196 E.03927
G1 X150.463 Y146.136 F9000
;TYPE:External perimeter
G1 F1200
G1 X150.463 Y145.469 E.0376
G1 X150.501 Y145.13 E.0192
G1 X150.563 Y144.795 E.0192
G1 X150.757 Y144.161 E.03734
G1 X150.893 Y143.844 E.01946
G1 X151.223 Y143.263 E.0376
G1 X151.638 Y142.735 E.03786
G1 X152.127 Y142.273 E.03786
G1 X152.663 Y141.897 E.03689
G1 X152.973 Y141.727 E.0199
G1 X153.284 Y141.587 E.01922
G1 X153.914 Y141.382 E.03734
G1 X154.253 Y141.312 E.01946
G1 X154.905 Y141.251 E.03689
G1 X155.584 Y141.287 E.0383
G1 X155.925 Y141.345 E.01948
G1 X156.562 Y141.526 E.03734
G1 X156.882 Y141.657 E.01946
G1 X157.468 Y141.976 E.0376
G1 X158.005 Y142.381 E.03786
G1 X158.464 Y142.848 E.03689
G1 X158.682 Y143.126 E.0199
G1 X158.873 Y143.409 E.01922
G1 X159.176 Y143.989 E.03689
G1 X159.401 Y144.636 E.03856
G1 X159.522 Y145.28 E.0369
G1 X159.549 Y145.637 E.02017
G1 X159.524 Y146.304 E.03762
G1 X159.404 Y146.948 E.03689
G1 X159.301 Y147.29 E.02016
G1 X159.039 Y147.899 E.03736
G1 X158.87 Y148.196 E.0192
G1 X158.68 Y148.479 E.0192
G1 X158.252 Y148.985 E.03734
G1 X158.001 Y149.222 E.01946
G1 X157.479 Y149.617 E.03689
G1 X156.882 Y149.944 E.0383
G1 X156.562 Y150.075 E.01948
G1 X155.92 Y150.257 E.0376
G1 X155.254 Y150.344 E.03786
G1 X154.586 Y150.332 E.0376
G1 X154.244 Y150.287 E.01946
G1 X153.6 Y150.129 E.03734
G1 X153.275 Y150.011 E.01946
G1 X152.682 Y149.715 E.03734
G1 X152.392 Y149.528 E.01946
G1 X151.884 Y149.115 E.03689
G1 X151.424 Y148.613 E.0383
G1 X151.221 Y148.333 E.01948
G1 X150.891 Y147.753 E.0376
G1 X150.65 Y147.131 E.0376
G1 X150.561 Y146.797 E.01946
G1 X150.472 Y146.196 E.03422
G1 X150.105 Y145.958 F9000
G1 X149.61 Y146.215
;TYPE:Perimeter
G1 F1200
G1 X149.603 Y145.46 E.04251
G1 X149.631 Y145.152 E.0174
G1 X149.755 Y144.484 E.03831
G1 X149.841 Y144.179 E.01782
G1 X150.078 Y143.56 E.03734
G1 X150.388 Y142.978 E.03715
G1 X150.771 Y142.429 E.03772
G1 X150.976 Y142.188 E.01782
G1 X151.456 Y141.715 E.03794
G1 X151.695 Y141.519 E.01741
G1 X152.25 Y141.144 E.03774
G1 X152.846 Y140.839 E.03774
G1 X153.446 Y140.619 E.03597
G1 X154.098 Y140.468 E.03774
G1 X154.764 Y140.396 E.03772
G1 X155.08 Y140.392 E.01782
G1 X155.741 Y140.442 E.03734
G1 X156.398 Y140.574 E.03773
G1 X156.701 Y140.665 E.01782
G1 X157.316 Y140.912 E.03734
G1 X157.903 Y141.235 E.03775
G1 X158.168 Y141.414 E.01797
G1 X158.426 Y141.614 E.01841
G1 X158.92 Y142.071 E.03794
G1 X159.127 Y142.301 E.01741
G1 X159.527 Y142.838 E.03775
G1 X159.854 Y143.411 E.03715
G1 X160.113 Y144.029 E.03772
G1 X160.207 Y144.331 E.01782
G1 X160.347 Y144.979 E.03734
G1 X160.409 Y145.646 E.03775
G1 X160.409 Y145.955 E.0174
G1 X160.347 Y146.622 E.03774
G1 X160.205 Y147.277 E.03774
G1 X160.113 Y147.571 E.0174
G1 X159.854 Y148.19 E.03774
G1 X159.522 Y148.771 E.03774
G1 X159.345 Y149.025 E.0174
G1 X158.906 Y149.545 E.03834
G1 X158.686 Y149.761 E.0174
G1 X158.159 Y150.193 E.03834
G1 X157.903 Y150.366 E.0174
G1 X157.307 Y150.694 E.03834
G1 X156.708 Y150.933 E.03636
G1 X156.067 Y151.103 E.03734
G1 X155.413 Y151.193 E.03715
G1 X154.754 Y151.203 E.03715
G1 X154.088 Y151.132 E.03772
G1 X153.778 Y151.069 E.01782
G1 X153.143 Y150.88 E.03734
G1 X152.529 Y150.612 E.03775
G1 X152.258 Y150.463 E.0174
G1 X151.703 Y150.087 E.03774
G1 X151.198 Y149.647 E.03774
G1 X150.978 Y149.416 E.01799
G1 X150.771 Y149.172 E.01799
G1 X150.388 Y148.623 E.03775
G1 X150.074 Y148.031 E.03772
G1 X149.952 Y147.74 E.01782
G1 X149.753 Y147.107 E.03734
G1 X149.631 Y146.448 E.03775
G1 X149.615 Y146.275 E.00983
G1 X149.171 Y146.255 F9000
;TYPE:External perimeter
G1 F1200
G1 X149.163 Y145.44 E.04591
G1 X149.195 Y145.092 E.01967
G1 X149.326 Y144.384 E.0406
G1 X149.423 Y144.04 E.02009
G1 X149.677 Y143.378 E.03998
G1 X150.012 Y142.748 E.04018
G1 X150.422 Y142.16 E.04038
G1 X150.653 Y141.888 E.02009
G1 X151.161 Y141.388 E.04019
G1 X151.431 Y141.166 E.01967
G1 X152.025 Y140.765 E.04039
G1 X152.664 Y140.438 E.04039
G1 X153.326 Y140.196 E.03975
G1 X154.025 Y140.033 E.04039
G1 X154.738 Y139.957 E.04038
G1 X155.094 Y139.952 E.02009
G1 X155.802 Y140.006 E.03998
G1 X156.505 Y140.147 E.04038
G1 X156.846 Y140.249 E.02009
G1 X157.505 Y140.514 E.03998
G1 X158.133 Y140.86 E.04039
G1 X158.425 Y141.057 E.01988
G1 X158.711 Y141.277 E.02031
G1 X159.234 Y141.762 E.04019
G1 X159.467 Y142.022 E.01967
G1 X159.896 Y142.597 E.04039
G1 X160.249 Y143.217 E.04017
G1 X160.526 Y143.878 E.04038
G1 X160.633 Y144.218 E.02009
G1 X160.783 Y144.912 E.03998
G1 X160.849 Y145.626 E.04039
G1 X160.849 Y145.975 E.01967
G1 X160.783 Y146.689 E.04039
G1 X160.631 Y147.39 E.04039
