; generated by PrusaSlicer 2.4.1+arm64 on 2022-03-30 at 07:31:11 UTC

; 

; external perimeters extrusion width = 0.50mm
; perimeters extrusion width = 0.50mm
; infill extrusion width = 0.50mm
; solid infill extrusion width = 0.50mm
; top infill extrusion width = 0.50mm
; first layer extrusion width = 0.50mm

M201 X400 Y400 Z90 E5000 ; sets maximum accelerations, mm/sec^2
M203 X400 Y400 Z5 E25 ; sets maximum feedrates, mm / sec
M204 P450 R450 T450 ; sets acceleration (P, T) and retract acceleration (R), mm/sec^2
M205 X8.00 Y8.00 Z0.40 E5.00 ; sets the jerk limits, mm/sec
M205 S0 T0 ; sets the minimum extruding and travel feed rate, mm/sec
M107
;TYPE:Custom
G90 ; use absolute coordinates
M83 ; extruder relative mode
M420 S1 ; Enable Bed Mesh
M140 S60 ; set final bed temp
M104 S150 ; set temporary nozzle temp to prevent oozing during homing
G4 S10 ; allow partial nozzle warmup
M569 S0 Y ; Disable stealthchop mode since bed appears to struggle to move at first
G28 ; home all axis
M569 S1 Y ; Re-enable stealthchop mode
G1 Z50 F240
G1 X2 Y10 F3000
M104 S210 ; set final nozzle temp
M190 S60 ; wait for bed temp to stabilize
M109 S210 ; wait for nozzle temp to stabilize
G1 Z0.65 F240 ; Zoffset applied manually here from prime movement
G92 E0
G1 Y140 E10 F1500 ; prime the nozzle
G1 X2.3 F5000
G92 E0
G1 Y10 E10 F1200 ; prime the nozzle
G92 E0
G21 ; set units to millimeters
G90 ; use absolute coordinates
M83 ; use relative distances for extrusion
; Filament gcode
M900 K0.2 ; Linear Advance
M107
;LAYER_CHANGE
;Z:0.28
;HEIGHT:0.28
;BEFORE_LAYER_CHANGE
G92 E0
;0.28


G1 E-2 F6000
G1 Z.565 F9000
G1 Z.645
;AFTER_LAYER_CHANGE
;0.28
G1 Z.845
G1 X144.957 Y144.627
G1 Z.645
G1 E2 F6000
M204 P450
;TYPE:Skirt/Brim
;WIDTH:0.5
G1 F1200
G1 X146.231 Y143.53 E.09472
G1 X147.198 Y142.851 E.06659
G1 X148.664 Y142.026 E.09472
G1 X149.746 Y141.551 E.06659
G1 X151.345 Y141.032 E.09472
G1 X152.5 Y140.78 E.06659
G1 X154.171 Y140.585 E.09472
G1 X155.352 Y140.566 E.06658
G1 X157.028 Y140.705 E.09472
G1 X158.191 Y140.918 E.06659
G1 X159.806 Y141.385 E.09472
G1 X160.904 Y141.824 E.06659
G1 X162.396 Y142.599 E.09472
G1 X163.385 Y143.246 E.06659
G1 X164.695 Y144.301 E.09472
G1 X165.538 Y145.129 E.06659
G1 X166.614 Y146.422 E.09472
G1 X167.277 Y147.4 E.06659
G1 X168.077 Y148.879 E.09472
G1 X168.534 Y149.969 E.06659
G1 X169.018 Y151.543 E.09278
G1 X169.247 Y152.649 E.06357
G1 X169.418 Y154.257 E.0911
G1 X169.432 Y155.483 E.06908
G1 X169.348 Y156.617 E.06403
G1 X169.062 Y158.283 E.09523
G1 X168.77 Y159.343 E.06194
G1 X168.172 Y160.914 E.09472
G1 X167.644 Y161.972 E.06659
G1 X166.747 Y163.394 E.09472
G1 X166.021 Y164.327 E.06659
G1 X164.862 Y165.545 E.09472
G1 X163.967 Y166.317 E.06659
G1 X162.59 Y167.283 E.09472
G1 X161.56 Y167.862 E.06659
G1 X160.02 Y168.538 E.09472
G1 X158.896 Y168.903 E.06659
G1 X157.253 Y169.262 E.09472
G1 X156.079 Y169.398 E.06659
G1 X154.398 Y169.426 E.09472
G1 X153.22 Y169.328 E.06659
G1 X151.566 Y169.024 E.09472
G1 X150.43 Y168.696 E.06659
G1 X148.869 Y168.072 E.09472
G1 X147.82 Y167.527 E.06659
G1 X146.412 Y166.607 E.09472
G1 X145.492 Y165.866 E.06659
G1 X144.293 Y164.687 E.09472
G1 X143.537 Y163.778 E.06659
G1 X142.594 Y162.386 E.09472
G1 X142.031 Y161.346 E.06659
G1 X141.381 Y159.796 E.09472
G1 X141.028 Y158.642 E.06799
G1 X140.695 Y156.966 E.09624
G1 X140.583 Y155.797 E.06614
G1 X140.579 Y154.323 E.08302
G1 X140.875 Y152.009 E.13145
G1 X141.307 Y150.421 E.09268
G1 X141.728 Y149.315 E.06668
G1 X142.479 Y147.81 E.09472
G1 X143.109 Y146.81 E.06658
G1 X144.142 Y145.483 E.09473
G1 X144.915 Y144.67 E.06321
G1 E-2 F6000
G1 Z.845 F9000
G1 X160.21 Y151.36
G1 Z.645
G1 E2 F6000
;TYPE:Perimeter
G1 F1200
G1 X164.19 Y151.36 E.22419
G1 X164.19 Y158.64 E.41008
G1 X160.21 Y158.64 E.22419
G1 X160.21 Y151.42 E.4067
G1 X160.65 Y151.8 F9000
;TYPE:External perimeter
G1 F1200
G1 X163.75 Y151.8 E.17463
G1 X163.75 Y158.2 E.36052
G1 X160.65 Y158.2 E.17463
G1 X160.65 Y151.86 E.35714
G1 X160.59 Y151.405 F9000
G1 E-2 F6000
G1 Z.845 F9000
G1 X156.726 Y145.185
G1 Z.645
G1 E2 F6000
;TYPE:Perimeter
G1 F1200
G1 X158.453 Y148.176 E.19457
G1 X157.575 Y149.686 E.09839
G1 X157.316 Y150.079 E.02652
G1 X157.018 Y150.475 E.02791
G1 X157.617 Y150.72 E.03646
G1 X158.097 Y151.027 E.03206
G1 X158.515 Y151.386 E.03105
G1 X158.881 Y151.782 E.03038
G1 X159.201 Y152.213 E.03024
G1 X159.473 Y152.676 E.03022
G1 X159.694 Y153.161 E.03005
G1 X159.863 Y153.673 E.03034
G1 X159.974 Y154.182 E.02937
G1 X160.034 Y154.75 E.03215
G1 X160.034 Y155.262 E.02888
G1 X159.978 Y155.796 E.03025
G1 X159.863 Y156.327 E.03058
G1 X159.694 Y156.839 E.03037
G1 X159.473 Y157.324 E.03005
G1 X159.201 Y157.787 E.03022
G1 X158.881 Y158.218 E.03024
G1 X158.515 Y158.614 E.03038
G1 X158.097 Y158.973 E.03105
G1 X157.617 Y159.28 E.03206
G1 X157.018 Y159.525 E.03646
G1 X157.316 Y159.921 E.02791
G1 X157.574 Y160.313 E.02648
G1 X158.452 Y161.825 E.09848
G1 X156.726 Y164.815 E.19448
G1 X153.274 Y164.815 E.19448
G1 X151.547 Y161.824 E.19458
G1 X152.426 Y160.314 E.09843
G1 X152.686 Y159.919 E.0266
G1 X152.981 Y159.529 E.02755
G1 X152.631 Y159.411 E.02086
G1 X152.125 Y159.135 E.03241
G1 X151.684 Y158.796 E.03137
G1 X151.296 Y158.42 E.03044
G1 X150.954 Y158.006 E.03024
G1 X150.657 Y157.559 E.03023
G1 X150.41 Y157.084 E.03016
G1 X150.214 Y156.583 E.03033
G1 X150.073 Y156.066 E.03017
G1 X149.988 Y155.537 E.03019
G1 X149.959 Y155 E.03028
G1 X149.988 Y154.463 E.03028
G1 X150.073 Y153.934 E.03019
G1 X150.214 Y153.417 E.03017
G1 X150.41 Y152.916 E.03033
G1 X150.657 Y152.441 E.03016
G1 X150.954 Y151.994 E.03023
G1 X151.296 Y151.58 E.03024
G1 X151.684 Y151.204 E.03044
G1 X152.125 Y150.865 E.03137
G1 X152.631 Y150.589 E.03241
G1 X152.981 Y150.471 E.02086
G1 X152.686 Y150.081 E.02755
G1 X152.426 Y149.687 E.02656
G1 X151.548 Y148.175 E.09852
G1 X153.274 Y145.185 E.19448
G1 X156.666 Y145.185 E.1911
G1 X156.472 Y145.625 F9000
;TYPE:External perimeter
G1 F1200
G1 X157.945 Y148.176 E.1659
G1 X157.2 Y149.454 E.08335
G1 X156.958 Y149.823 E.02484
G1 X156.698 Y150.157 E.02386
G1 X156.41 Y150.625 E.03095
G1 X156.051 Y150.625 E.02023
G1 X156.958 Y150.919 E.05373
G1 X157.412 Y151.111 E.02772
G1 X157.834 Y151.38 E.02821
G1 X158.209 Y151.703 E.02788
G1 X158.542 Y152.064 E.02764
G1 X158.834 Y152.457 E.02759
G1 X159.082 Y152.879 E.02758
G1 X159.283 Y153.322 E.02741
G1 X159.438 Y153.789 E.02771
G1 X159.539 Y154.252 E.02672
G1 X159.594 Y154.773 E.02949
G1 X159.594 Y155.239 E.02626
G1 X159.543 Y155.727 E.02763
G1 X159.438 Y156.211 E.02792
G1 X159.283 Y156.678 E.02771
G1 X159.082 Y157.121 E.02741
G1 X158.834 Y157.543 E.02758
G1 X158.542 Y157.936 E.02759
G1 X158.209 Y158.297 E.02764
G1 X157.834 Y158.62 E.02788
G1 X157.412 Y158.889 E.02821
G1 X156.958 Y159.081 E.02773
G1 X156.051 Y159.375 E.05373
G1 X156.41 Y159.375 E.02022
G1 X156.698 Y159.843 E.03095
G1 X156.958 Y160.177 E.02386
G1 X157.2 Y160.546 E.02483
G1 X157.944 Y161.825 E.08338
G1 X156.472 Y164.375 E.16587
G1 X153.528 Y164.375 E.16587
G1 X152.055 Y161.824 E.1659
G1 X152.8 Y160.546 E.08336
G1 X153.043 Y160.177 E.02488
G1 X153.305 Y159.845 E.02382
G1 X153.589 Y159.375 E.03093
G1 X153.972 Y159.375 E.02158
G1 X153.703 Y159.309 E.01559
G1 X152.808 Y159.006 E.05326
G1 X152.366 Y158.766 E.02833
G1 X151.972 Y158.463 E.02799
G1 X151.62 Y158.121 E.02766
G1 X151.307 Y157.744 E.02759
G1 X151.036 Y157.336 E.02758
G1 X150.811 Y156.902 E.02752
G1 X150.632 Y156.444 E.02769
G1 X150.504 Y155.973 E.02753
G1 X150.426 Y155.49 E.02755
G1 X150.4 Y155 E.02764
G1 X150.426 Y154.51 E.02764
G1 X150.504 Y154.027 E.02755
G1 X150.632 Y153.556 E.02753
G1 X150.811 Y153.098 E.02769
G1 X151.036 Y152.664 E.02751
G1 X151.307 Y152.256 E.02759
G1 X151.62 Y151.879 E.02759
G1 X151.972 Y151.537 E.02766
G1 X152.366 Y151.234 E.02799
G1 X152.808 Y150.994 E.02833
G1 X153.703 Y150.691 E.05326
G1 X153.972 Y150.625 E.01559
G1 X153.589 Y150.625 E.02158
G1 X153.305 Y150.155 E.03093
G1 X153.043 Y149.823 E.02382
G1 X152.8 Y149.455 E.02486
G1 X152.056 Y148.175 E.0834
G1 X153.528 Y145.625 E.16587
G1 X156.412 Y145.625 E.16249
G1 X156.819 Y145.425 F9000
G1 E-2 F6000
G1 Z.845 F9000
G1 X149.79 Y151.36
G1 Z.645
G1 E2 F6000
;TYPE:Perimeter
G1 F1200
G1 X149.79 Y158.64 E.41008
G1 X145.81 Y158.64 E.22419
G1 X145.81 Y151.36 E.41008
G1 X149.73 Y151.36 E.22081
G1 X149.35 Y151.8 F9000
;TYPE:External perimeter
G1 F1200
G1 X149.35 Y158.2 E.36052
G1 X146.25 Y158.2 E.17463
G1 X146.25 Y151.8 E.36052
G1 X149.29 Y151.8 E.17125
G1 X149.722 Y151.654 F9000
G1 E-2 F6000
G1 Z.845 F9000
G1 X146.085 Y150.033
G1 Z.645
G1 E2 F6000
;TYPE:Perimeter
G1 F1200
G1 X146.546 Y149.275 E.04997
G1 X146.943 Y148.729 E.03803
G1 X147.375 Y148.21 E.03803
G1 X147.841 Y147.721 E.03803
G1 X148.337 Y147.264 E.03803
G1 X148.863 Y146.841 E.03803
G1 X149.416 Y146.453 E.03803
G1 X149.996 Y146.101 E.03823
G1 X150.592 Y145.791 E.03784
G1 X151.21 Y145.52 E.03803
G1 X151.845 Y145.29 E.03803
G1 X152.494 Y145.103 E.03803
G1 X153.153 Y144.959 E.03803
G1 X153.821 Y144.859 E.03803
G1 X154.494 Y144.803 E.03802
G1 X155.172 Y144.792 E.03823
G1 X155.843 Y144.825 E.03784
G1 X156.514 Y144.903 E.03803
G1 X157.178 Y145.025 E.03803
G1 X157.832 Y145.191 E.03803
G1 X158.474 Y145.4 E.03803
G1 X159.101 Y145.65 E.03802
G1 X159.713 Y145.943 E.03823
G1 X160.298 Y146.273 E.03784
G1 X160.864 Y146.642 E.03803
G1 X161.403 Y147.048 E.03803
G1 X161.915 Y147.489 E.03803
G1 X162.396 Y147.962 E.03803
G1 X162.845 Y148.466 E.03803
G1 X163.26 Y148.999 E.03803
G1 X163.638 Y149.558 E.03803
G1 X163.979 Y150.141 E.03803
G1 X164.281 Y150.745 E.03803
G1 X164.541 Y151.367 E.03801
G1 X164.764 Y152.018 E.03874
G1 X164.937 Y152.658 E.03736
G1 X165.07 Y153.319 E.03796
G1 X165.162 Y154.015 E.03954
G1 X165.204 Y154.672 E.03711
G1 X165.204 Y155.327 E.0369
G1 X165.157 Y156.033 E.03984
G1 X165.07 Y156.681 E.03681
G1 X164.937 Y157.342 E.038
G1 X164.761 Y157.993 E.03802
G1 X164.542 Y158.633 E.03807
G1 X164.281 Y159.255 E.03803
G1 X163.979 Y159.859 E.03803
G1 X163.638 Y160.442 E.03803
G1 X163.26 Y161.001 E.03803
G1 X162.845 Y161.534 E.03803
G1 X162.396 Y162.038 E.03803
G1 X161.915 Y162.512 E.03803
G1 X161.403 Y162.952 E.03803
G1 X160.864 Y163.358 E.03803
G1 X160.299 Y163.727 E.03802
G1 X159.707 Y164.06 E.03823
G1 X159.101 Y164.35 E.03784
G1 X158.474 Y164.6 E.03803
G1 X157.832 Y164.809 E.03803
G1 X157.178 Y164.975 E.03803
G1 X156.514 Y165.097 E.03803
G1 X155.843 Y165.175 E.03803
G1 X155.169 Y165.208 E.03803
G1 X154.494 Y165.197 E.03803
G1 X153.821 Y165.141 E.03803
G1 X153.153 Y165.041 E.03803
G1 X152.494 Y164.897 E.03803
G1 X151.845 Y164.71 E.03803
G1 X151.21 Y164.48 E.03803
G1 X150.592 Y164.209 E.03803
G1 X149.993 Y163.898 E.03803
G1 X149.416 Y163.547 E.03803
G1 X148.863 Y163.159 E.03803
G1 X148.337 Y162.736 E.03803
G1 X147.841 Y162.279 E.03803
G1 X147.375 Y161.79 E.03803
G1 X146.943 Y161.271 E.03803
G1 X146.546 Y160.725 E.03803
G1 X146.186 Y160.153 E.03803
G1 X145.865 Y159.56 E.03803
G1 X145.584 Y158.946 E.03803
G1 X145.344 Y158.315 E.03801
G1 X145.141 Y157.653 E.039
G1 X144.991 Y157.014 E.03701
G1 X144.881 Y156.358 E.03744
G1 X144.81 Y155.624 E.04154
G1 X144.79 Y155 E.03518
G1 X144.81 Y154.375 E.0352
G1 X144.879 Y153.661 E.04043
G1 X144.994 Y152.972 E.03933
G1 X145.145 Y152.333 E.03702
G1 X145.344 Y151.685 E.03816
G1 X145.584 Y151.054 E.03803
G1 X145.865 Y150.44 E.03803
G1 X146.057 Y150.086 E.02269
G1 X145.698 Y149.824 F9000
;TYPE:External perimeter
G1 F1200
G1 X146.182 Y149.028 E.05243
G1 X146.596 Y148.459 E.03967
G1 X147.046 Y147.918 E.03967
G1 X147.532 Y147.407 E.03967
G1 X148.05 Y146.93 E.03967
G1 X148.599 Y146.489 E.03967
G1 X149.175 Y146.084 E.03967
G1 X149.78 Y145.717 E.03987
G1 X150.402 Y145.394 E.03948
G1 X151.047 Y145.111 E.03967
G1 X151.709 Y144.871 E.03967
G1 X152.386 Y144.676 E.03967
G1 X153.074 Y144.526 E.03967
G1 X153.77 Y144.421 E.03967
G1 X154.472 Y144.363 E.03967
G1 X155.18 Y144.352 E.03987
G1 X155.879 Y144.387 E.03948
G1 X156.579 Y144.468 E.03967
G1 X157.272 Y144.595 E.03967
G1 X157.954 Y144.768 E.03967
G1 X158.624 Y144.986 E.03967
G1 X159.278 Y145.247 E.03967
G1 X159.916 Y145.553 E.03987
G1 X160.527 Y145.897 E.03948
G1 X161.116 Y146.282 E.03967
G1 X161.679 Y146.705 E.03967
G1 X162.213 Y147.165 E.03967
G1 X162.715 Y147.659 E.03967
G1 X163.183 Y148.184 E.03967
G1 X163.616 Y148.74 E.03967
G1 X164.011 Y149.323 E.03967
G1 X164.366 Y149.931 E.03967
G1 X164.681 Y150.561 E.03967
G1 X164.953 Y151.211 E.03966
G1 X165.185 Y151.889 E.04038
G1 X165.366 Y152.557 E.03899
G1 X165.505 Y153.247 E.03961
G1 X165.6 Y153.972 E.0412
G1 X165.644 Y154.658 E.03873
G1 X165.644 Y155.342 E.03853
G1 X165.595 Y156.077 E.04149
G1 X165.505 Y156.753 E.03844
G1 X165.366 Y157.443 E.03963
G1 X165.182 Y158.122 E.03966
G1 X164.953 Y158.789 E.03971
G1 X164.681 Y159.439 E.03967
G1 X164.366 Y160.069 E.03967
G1 X164.011 Y160.677 E.03967
G1 X163.616 Y161.26 E.03967
G1 X163.183 Y161.816 E.03967
G1 X162.715 Y162.341 E.03967
G1 X162.213 Y162.835 E.03967
G1 X161.679 Y163.295 E.03967
G1 X161.116 Y163.718 E.03967
G1 X160.527 Y164.103 E.03967
G1 X159.91 Y164.45 E.03987
G1 X159.278 Y164.753 E.03948
G1 X158.624 Y165.014 E.03967
G1 X157.954 Y165.232 E.03967
G1 X157.272 Y165.405 E.03967
G1 X156.579 Y165.532 E.03967
G1 X155.879 Y165.613 E.03967
G1 X155.176 Y165.648 E.03967
G1 X154.472 Y165.637 E.03967
G1 X153.77 Y165.579 E.03967
G1 X153.074 Y165.474 E.03967
G1 X152.386 Y165.324 E.03967
G1 X151.709 Y165.129 E.03967
G1 X151.047 Y164.889 E.03967
G1 X150.402 Y164.606 E.03967
G1 X149.777 Y164.281 E.03967
G1 X149.175 Y163.916 E.03967
G1 X148.599 Y163.511 E.03967
G1 X148.05 Y163.07 E.03967
G1 X147.532 Y162.593 E.03967
G1 X147.046 Y162.082 E.03967
G1 X146.596 Y161.541 E.03967
G1 X146.182 Y160.972 E.03967
G1 X145.806 Y160.376 E.03967
G1 X145.471 Y159.756 E.03967
G1 X145.178 Y159.116 E.03967
G1 X144.927 Y158.458 E.03966
G1 X144.716 Y157.768 E.04065
G1 X144.559 Y157.101 E.03863
G1 X144.445 Y156.416 E.03911
G1 X144.371 Y155.652 E.04319
G1 X144.35 Y155 E.03677
G1 X144.371 Y154.347 E.03678
G1 X144.442 Y153.604 E.04209
G1 X144.562 Y152.885 E.04102
G1 X144.72 Y152.217 E.03865
G1 X144.927 Y151.542 E.0398
G1 X145.178 Y150.884 E.03967
G1 X145.471 Y150.244 E.03967
G1 X145.67 Y149.877 E.02351
G1 X146.098 Y149.821 F9000
G1 X145.565 Y151.801
;TYPE:Gap fill
;WIDTH:0.164306
G1 F1200
G1 X145.541 Y151.956 E.00209
;WIDTH:0.208523
G1 X145.518 Y152.111 E.00298
;WIDTH:0.25274
G1 X145.495 Y152.266 E.00386
;WIDTH:0.296957
G1 X145.472 Y152.421 E.00475
;WIDTH:0.340821
G1 X145.443 Y152.671 E.00903
;WIDTH:0.384686
G1 X145.414 Y152.92 E.01044
;WIDTH:0.428551
G1 X145.385 Y153.169 E.01185
G1 X145.678 Y154.316 F9000
;TYPE:Solid infill
;WIDTH:0.541476
G1 F1200
G1 X145.194 Y153.832 E.04223
G1 X145.138 Y154.457 E.03868
G1 X145.48 Y154.799 E.02984
G1 X145.48 Y155.48 E.04197
G1 X145.124 Y155.124 E.03102
G1 X145.163 Y155.843 E.04441
G1 X145.678 Y156.359 E.04491
G1 X145.385 Y156.835 F9000
;TYPE:Gap fill
;WIDTH:0.427565
G1 F1200
G1 X145.413 Y157.078 E.01153
;WIDTH:0.385202
G1 X145.442 Y157.321 E.0102
;WIDTH:0.342839
G1 X145.47 Y157.565 E.00887
;WIDTH:0.300474
G1 X145.494 Y157.723 E.00493
;WIDTH:0.255378
G1 X145.517 Y157.881 E.00401
;WIDTH:0.210282
G1 X145.541 Y158.04 E.00308
;WIDTH:0.165186
G1 X145.565 Y158.198 E.00216
G1 E-2 F6000
G1 Z.845 F9000
G1 X149.943 Y157.664
G1 Z.645
G1 E2 F6000
;TYPE:Solid infill
;WIDTH:0.502002
G1 F1200
G1 X152.254 Y159.975 E.18496
G1 X152.016 Y160.362 E.02571
G1 X150.12 Y158.465 E.15176
G1 X150.12 Y158.97 E.02855
G1 X149.999 Y158.97 E.00682
G1 X151.786 Y160.757 E.14299
G1 X151.556 Y161.152 E.02586
G1 X149.374 Y158.97 E.1746
G1 X148.749 Y158.97 E.03537
G1 X151.326 Y161.547 E.20621
G1 X151.165 Y161.823 E.01809
G1 X151.422 Y162.267 E.02904
G1 X148.124 Y158.97 E.26389
G1 X147.5 Y158.97 E.03537
G1 X152.276 Y163.746 E.38222
G1 X152.782 Y164.622 E.05727
G1 X152.444 Y164.54 E.01966
G1 X146.875 Y158.97 E.44573
G1 X146.25 Y158.97 E.03537
G1 X151.522 Y164.242 E.42193
G1 X150.734 Y163.911 E.04834
G1 X150.384 Y163.729 E.02237
G1 X146.271 Y159.616 E.32917
G1 X146.471 Y159.987 E.02388
G1 X146.82 Y160.54 E.03697
G1 X147.204 Y161.068 E.03697
G1 X147.622 Y161.57 E.03697
G1 X149.416 Y163.386 E.14445
G1 E-2 F6000
G1 Z.845 F9000
G1 X150.171 Y157.479
G1 Z.645
G1 E2 F6000
;TYPE:Gap fill
;WIDTH:0.271576
