; generated by PrusaSlicer 2.4.1+arm64 on 2022-03-30 at 16:47:23 UTC

; 

; external perimeters extrusion width = 0.50mm
; perimeters extrusion width = 0.50mm
; infill extrusion width = 0.50mm
; solid infill extrusion width = 0.50mm
; top infill extrusion width = 0.50mm
; first layer extrusion width = 0.50mm

M201 X400 Y400 Z90 E5000 ; sets maximum accelerations, mm/sec^2
M203 X400 Y400 Z5 E25 ; sets maximum feedrates, mm / sec
M204 P450 R450 T450 ; sets acceleration (P, T) and retract acceleration (R), mm/sec^2
M205 X8.00 Y8.00 Z0.40 E5.00 ; sets the jerk limits, mm/sec
M205 S0 T0 ; sets the minimum extruding and travel feed rate, mm/sec
M107
;TYPE:Custom
G90 ; use absolute coordinates
M83 ; extruder relative mode
M420 S1 ; Enable Bed Mesh
M140 S60 ; set final bed temp
M104 S150 ; set temporary nozzle temp to prevent oozing during homing
G4 S10 ; allow partial nozzle warmup
M569 S0 Y ; Disable stealthchop mode since bed appears to struggle to move at first
G28 ; home all axis
M569 S1 Y ; Re-enable stealthchop mode
G1 Z50 F240
G1 X2 Y10 F3000
M104 S210 ; set final nozzle temp
M190 S60 ; wait for bed temp to stabilize
M109 S210 ; wait for nozzle temp to stabilize
G1 Z0.65 F240 ; Zoffset applied manually here from prime movement
G92 E0
G1 Y140 E10 F1500 ; prime the nozzle
G1 X2.3 F5000
G92 E0
G1 Y10 E10 F1200 ; prime the nozzle
G92 E0
G21 ; set units to millimeters
G90 ; use absolute coordinates
M83 ; use relative distances for extrusion
; Filament gcode
M900 K0.2 ; Linear Advance
M107
;LAYER_CHANGE
;Z:0.28
;HEIGHT:0.28
;BEFORE_LAYER_CHANGE
G92 E0
;0.28


G1 E-2 F6000
G1 Z.565 F9000
G1 Z.645
;AFTER_LAYER_CHANGE
;0.28
G1 Z.845
G1 X144.957 Y144.627
G1 Z.645
G1 E2 F6000
M204 P450
;TYPE:Skirt/Brim
;WIDTH:0.5
G1 F1200
G1 X146.231 Y143.53 E.09472
G1 X147.198 Y142.851 E.06659
G1 X148.664 Y142.026 E.09472
G1 X149.746 Y141.551 E.06658
G1 X151.345 Y141.032 E.09472
G1 X152.5 Y140.78 E.06659
G1 X154.171 Y140.585 E.09472
G1 X155.352 Y140.566 E.06658
G1 X157.028 Y140.705 E.09472
G1 X158.191 Y140.918 E.06659
G1 X159.806 Y141.385 E.09472
G1 X160.904 Y141.824 E.06658
G1 X162.396 Y142.599 E.09472
G1 X163.385 Y143.246 E.06659
G1 X164.695 Y144.301 E.09472
G1 X165.538 Y145.129 E.06659
G1 X166.614 Y146.422 E.09472
G1 X167.277 Y147.4 E.06659
G1 X168.077 Y148.879 E.09472
G1 X168.534 Y149.969 E.06659
G1 X169.018 Y151.543 E.09278
G1 X169.247 Y152.649 E.06358
G1 X169.418 Y154.257 E.0911
G1 X169.432 Y155.483 E.06908
G1 X169.348 Y156.617 E.06403
G1 X169.062 Y158.283 E.09523
G1 X168.77 Y159.343 E.06194
G1 X168.172 Y160.914 E.09472
G1 X167.644 Y161.972 E.06659
G1 X166.747 Y163.394 E.09472
G1 X166.021 Y164.327 E.06659
G1 X164.862 Y165.545 E.09472
G1 X163.967 Y166.317 E.06659
G1 X162.59 Y167.282 E.09472
G1 X161.56 Y167.862 E.06658
G1 X160.02 Y168.538 E.09473
G1 X158.896 Y168.903 E.06659
G1 X157.253 Y169.262 E.09472
G1 X156.079 Y169.398 E.06659
G1 X154.398 Y169.426 E.09472
G1 X153.22 Y169.328 E.06659
G1 X151.566 Y169.024 E.09472
G1 X150.43 Y168.696 E.06659
G1 X148.869 Y168.072 E.09472
G1 X147.82 Y167.527 E.06659
G1 X146.412 Y166.607 E.09472
G1 X145.492 Y165.866 E.06659
G1 X144.293 Y164.687 E.09472
G1 X143.537 Y163.778 E.06659
G1 X142.594 Y162.386 E.09472
G1 X142.031 Y161.346 E.06659
G1 X141.381 Y159.796 E.09472
G1 X141.028 Y158.642 E.06798
G1 X140.695 Y156.966 E.09625
G1 X140.583 Y155.797 E.06614
G1 X140.579 Y154.323 E.08302
G1 X140.875 Y152.009 E.13145
G1 X141.307 Y150.421 E.09268
G1 X141.728 Y149.315 E.06668
G1 X142.479 Y147.81 E.09472
G1 X143.109 Y146.81 E.06658
G1 X144.142 Y145.483 E.09472
G1 X144.915 Y144.67 E.06321
G1 E-2 F6000
G1 Z.845 F9000
G1 X160.21 Y151.36
G1 Z.645
G1 E2 F6000
;TYPE:Perimeter
G1 F1200
G1 X164.19 Y151.36 E.22419
G1 X164.19 Y158.64 E.41008
G1 X160.21 Y158.64 E.22419
G1 X160.21 Y151.42 E.4067
G1 X160.65 Y151.8 F9000
;TYPE:External perimeter
G1 F1200
G1 X163.75 Y151.8 E.17463
G1 X163.75 Y158.2 E.36052
G1 X160.65 Y158.2 E.17463
G1 X160.65 Y151.86 E.35714
G1 X160.59 Y151.405 F9000
G1 E-2 F6000
G1 Z.845 F9000
G1 X156.755 Y150.304
G1 Z.645
G1 E2 F6000
;TYPE:Perimeter
G1 F1200
G1 X157.18 Y150.46 E.02551
G1 X157.67 Y150.725 E.03137
G1 X158.113 Y151.035 E.03044
G1 X158.517 Y151.388 E.03024
G1 X158.881 Y151.783 E.03023
G1 X159.201 Y152.213 E.03023
G1 X159.473 Y152.676 E.03022
G1 X159.694 Y153.161 E.03005
G1 X159.863 Y153.672 E.03034
G1 X159.974 Y154.182 E.02937
G1 X160.034 Y154.75 E.03215
G1 X160.034 Y155.262 E.02888
G1 X159.978 Y155.796 E.03025
G1 X159.863 Y156.327 E.03058
G1 X159.694 Y156.839 E.03037
G1 X159.473 Y157.324 E.03005
G1 X159.201 Y157.787 E.03022
G1 X158.881 Y158.217 E.03023
G1 X158.517 Y158.612 E.03023
G1 X158.113 Y158.965 E.03024
G1 X157.67 Y159.275 E.03044
G1 X157.18 Y159.54 E.03137
G1 X156.749 Y159.692 E.02577
G1 X157.131 Y160.035 E.02893
G1 X157.394 Y160.391 E.02492
G1 X157.589 Y160.779 E.02448
G1 X157.719 Y161.188 E.02418
G1 X157.784 Y161.611 E.0241
G1 X157.784 Y162.039 E.02408
G1 X157.719 Y162.461 E.02408
G1 X157.595 Y162.852 E.02312
G1 X157.401 Y163.25 E.02491
G1 X157.154 Y163.602 E.02421
G1 X156.858 Y163.91 E.02408
G1 X156.518 Y164.169 E.02408
G1 X156.142 Y164.373 E.02408
G1 X155.74 Y164.517 E.02408
G1 X155.32 Y164.599 E.02408
G1 X154.893 Y164.615 E.02408
G1 X154.468 Y164.566 E.02408
G1 X154.056 Y164.453 E.02408
G1 X153.682 Y164.285 E.02312
G1 X153.309 Y164.047 E.02491
G1 X152.988 Y163.761 E.02421
G1 X152.716 Y163.431 E.02408
G1 X152.506 Y163.079 E.02311
G1 X152.338 Y162.67 E.02491
G1 X152.24 Y162.251 E.02421
G1 X152.208 Y161.825 E.02408
G1 X152.241 Y161.399 E.02409
G1 X152.338 Y160.982 E.02412
G1 X152.5 Y160.583 E.02423
G1 X152.727 Y160.208 E.02473
G1 X153.024 Y159.873 E.02517
G1 X153.261 Y159.689 E.01691
G1 X153.086 Y159.642 E.01019
G1 X152.571 Y159.414 E.03171
G1 X152.104 Y159.126 E.0309
G1 X151.681 Y158.794 E.03035
G1 X151.296 Y158.419 E.03024
G1 X150.954 Y158.006 E.03023
G1 X150.657 Y157.559 E.03023
G1 X150.41 Y157.084 E.03016
G1 X150.214 Y156.583 E.03033
G1 X150.073 Y156.066 E.03017
G1 X149.988 Y155.537 E.03019
G1 X149.959 Y155 E.03028
G1 X149.988 Y154.463 E.03028
G1 X150.073 Y153.934 E.03019
G1 X150.214 Y153.417 E.03017
G1 X150.41 Y152.916 E.03033
G1 X150.657 Y152.441 E.03016
G1 X150.954 Y151.994 E.03023
G1 X151.296 Y151.581 E.03023
G1 X151.681 Y151.206 E.03024
G1 X152.104 Y150.874 E.03035
G1 X152.571 Y150.586 E.0309
G1 X153.086 Y150.358 E.03171
G1 X153.261 Y150.311 E.01019
G1 X153.024 Y150.127 E.01692
G1 X152.727 Y149.792 E.02516
G1 X152.5 Y149.417 E.02472
G1 X152.338 Y149.018 E.02424
G1 X152.241 Y148.601 E.02412
G1 X152.208 Y148.175 E.02409
G1 X152.24 Y147.749 E.02408
G1 X152.338 Y147.333 E.02408
G1 X152.498 Y146.936 E.02408
G1 X152.716 Y146.569 E.02408
G1 X152.988 Y146.239 E.02408
G1 X153.307 Y145.954 E.02408
G1 X153.666 Y145.722 E.02408
G1 X154.056 Y145.547 E.02408
G1 X154.468 Y145.434 E.02408
G1 X154.876 Y145.387 E.02311
G1 X155.318 Y145.401 E.02491
G1 X155.74 Y145.483 E.02421
G1 X156.142 Y145.627 E.02408
G1 X156.518 Y145.831 E.02408
G1 X156.858 Y146.09 E.02408
G1 X157.154 Y146.398 E.02408
G1 X157.4 Y146.748 E.02408
G1 X157.582 Y147.116 E.02311
G1 X157.718 Y147.536 E.02491
G1 X157.784 Y147.961 E.02421
G1 X157.784 Y148.389 E.02408
G1 X157.719 Y148.812 E.0241
G1 X157.589 Y149.221 E.02418
G1 X157.394 Y149.609 E.02448
G1 X157.131 Y149.965 E.02492
G1 X156.805 Y150.272 E.0252
G1 X156.641 Y150.736 F9000
;TYPE:External perimeter
G1 F1200
G1 X157.002 Y150.863 E.02152
G1 X157.439 Y151.099 E.02799
G1 X157.841 Y151.381 E.02766
G1 X158.209 Y151.704 E.02759
G1 X158.542 Y152.064 E.02759
G1 X158.834 Y152.457 E.02759
G1 X159.082 Y152.879 E.02758
G1 X159.283 Y153.322 E.02741
G1 X159.438 Y153.789 E.02771
G1 X159.539 Y154.252 E.02672
G1 X159.594 Y154.773 E.02949
G1 X159.594 Y155.239 E.02626
G1 X159.543 Y155.727 E.02763
G1 X159.438 Y156.211 E.02791
G1 X159.283 Y156.678 E.02772
G1 X159.082 Y157.121 E.02741
G1 X158.834 Y157.543 E.02758
G1 X158.542 Y157.936 E.02758
G1 X158.209 Y158.296 E.02759
G1 X157.841 Y158.619 E.02759
G1 X157.439 Y158.901 E.02766
G1 X157.002 Y159.137 E.02799
G1 X156.527 Y159.304 E.02833
G1 X155.595 Y159.461 E.05326
G1 X155.12 Y159.499 E.02685
G1 X154.641 Y159.486 E.02699
G1 X154.177 Y159.424 E.02635
G1 X153.71 Y159.354 E.02661
G1 X153.233 Y159.226 E.02784
G1 X152.777 Y159.024 E.02809
G1 X152.356 Y158.765 E.02782
G1 X151.971 Y158.462 E.02763
G1 X151.62 Y158.121 E.02759
G1 X151.307 Y157.744 E.02759
G1 X151.036 Y157.336 E.02759
G1 X150.811 Y156.902 E.02751
G1 X150.632 Y156.444 E.02769
G1 X150.504 Y155.973 E.02753
G1 X150.426 Y155.49 E.02755
G1 X150.4 Y155 E.02764
G1 X150.426 Y154.51 E.02764
G1 X150.504 Y154.027 E.02755
G1 X150.632 Y153.556 E.02753
G1 X150.811 Y153.098 E.02769
G1 X151.036 Y152.664 E.02751
G1 X151.307 Y152.256 E.02758
G1 X151.62 Y151.879 E.02759
G1 X151.971 Y151.538 E.02759
G1 X152.356 Y151.235 E.02763
G1 X152.777 Y150.976 E.02782
G1 X153.233 Y150.774 E.02809
G1 X153.71 Y150.646 E.02784
G1 X154.177 Y150.576 E.02661
G1 X154.641 Y150.514 E.02635
G1 X155.111 Y150.501 E.02648
G1 X155.595 Y150.539 E.02733
G1 X156.585 Y150.716 E.05666
G1 X156.915 Y150.47 F9000
G1 X156.531 Y149.925
G1 F1200
G1 X156.216 Y150.111 E.02063
G1 X155.598 Y150.345 E.03719
G1 X155.258 Y150.411 E.01953
G1 X154.914 Y150.424 E.01941
G1 X154.571 Y150.385 E.01941
G1 X154.242 Y150.294 E.01923
G1 X153.622 Y150.034 E.0379
G1 X153.326 Y149.804 E.02111
G1 X153.083 Y149.53 E.02062
G1 X152.894 Y149.219 E.02049
G1 X152.759 Y148.885 E.02033
G1 X152.677 Y148.534 E.02029
G1 X152.649 Y148.175 E.02028
G1 X152.677 Y147.816 E.02028
G1 X152.759 Y147.466 E.02028
G1 X152.893 Y147.132 E.02028
G1 X153.077 Y146.822 E.02028
G1 X153.306 Y146.545 E.02028
G1 X153.575 Y146.305 E.02028
G1 X153.877 Y146.11 E.02028
G1 X154.205 Y145.962 E.02028
G1 X154.552 Y145.867 E.02028
G1 X154.894 Y145.827 E.01939
G1 X155.269 Y145.839 E.0211
G1 X155.623 Y145.908 E.02032
G1 X155.962 Y146.03 E.02028
G1 X156.278 Y146.202 E.02028
G1 X156.564 Y146.42 E.02028
G1 X156.814 Y146.679 E.02028
G1 X157.021 Y146.974 E.02028
G1 X157.174 Y147.282 E.01939
G1 X157.289 Y147.638 E.0211
G1 X157.344 Y147.995 E.02032
G1 X157.344 Y148.355 E.02028
G1 X157.289 Y148.711 E.02028
G1 X157.18 Y149.054 E.02031
G1 X157.017 Y149.378 E.02041
G1 X156.801 Y149.672 E.02055
G1 X156.575 Y149.884 E.01745
G1 X156.573 Y150.289 F9000
G1 E-2 F6000
G1 Z.845 F9000
G1 X155.258 Y159.589
G1 Z.645
G1 E2 F6000
G1 F1200
G1 X155.598 Y159.655 E.01955
G1 X156.216 Y159.889 E.03719
G1 X156.532 Y160.075 E.02064
G1 X156.801 Y160.328 E.02083
G1 X157.017 Y160.622 E.02055
G1 X157.18 Y160.946 E.02041
G1 X157.289 Y161.289 E.02031
G1 X157.344 Y161.645 E.02028
G1 X157.344 Y162.005 E.02028
G1 X157.289 Y162.361 E.02028
G1 X157.185 Y162.689 E.01939
G1 X157.021 Y163.026 E.0211
G1 X156.814 Y163.321 E.02032
G1 X156.564 Y163.58 E.02028
G1 X156.278 Y163.798 E.02028
G1 X155.962 Y163.97 E.02028
G1 X155.623 Y164.092 E.02028
G1 X155.27 Y164.161 E.02028
G1 X154.91 Y164.174 E.02028
G1 X154.552 Y164.133 E.02028
G1 X154.205 Y164.038 E.02028
G1 X153.891 Y163.897 E.01939
G1 X153.575 Y163.695 E.0211
G1 X153.306 Y163.455 E.02032
G1 X153.077 Y163.178 E.02028
G1 X152.901 Y162.882 E.01939
G1 X152.759 Y162.535 E.0211
G1 X152.677 Y162.184 E.02032
G1 X152.649 Y161.825 E.02028
G1 X152.677 Y161.466 E.02028
G1 X152.759 Y161.115 E.02029
G1 X152.894 Y160.781 E.02033
G1 X153.083 Y160.47 E.0205
G1 X153.326 Y160.196 E.02063
G1 X153.622 Y159.966 E.02111
G1 X154.242 Y159.706 E.0379
G1 X154.571 Y159.615 E.01924
G1 X154.906 Y159.577 E.01898
G1 X155.198 Y159.587 E.01643
G1 X155.465 Y159.31 F9000
G1 E-2 F6000
G1 Z.845 F9000
G1 X149.79 Y158.64
G1 Z.645
G1 E2 F6000
;TYPE:Perimeter
G1 F1200
G1 X145.81 Y158.64 E.22419
G1 X145.81 Y151.36 E.41008
G1 X149.79 Y151.36 E.22419
G1 X149.79 Y158.58 E.4067
G1 X149.35 Y158.2 F9000
;TYPE:External perimeter
G1 F1200
G1 X146.25 Y158.2 E.17463
G1 X146.25 Y151.8 E.36052
G1 X149.35 Y151.8 E.17463
G1 X149.35 Y158.14 E.35714
G1 X149.41 Y158.595 F9000
G1 E-2 F6000
G1 Z.845 F9000
G1 X146.085 Y159.967
G1 Z.645
G1 E2 F6000
;TYPE:Perimeter
G1 F1200
G1 X145.865 Y159.56 E.02607
G1 X145.584 Y158.946 E.03803
G1 X145.344 Y158.315 E.03801
G1 X145.141 Y157.653 E.039
G1 X144.991 Y157.014 E.03701
G1 X144.881 Y156.358 E.03744
G1 X144.81 Y155.624 E.04154
G1 X144.79 Y155 E.03518
G1 X144.81 Y154.375 E.0352
G1 X144.879 Y153.661 E.04044
G1 X144.994 Y152.972 E.03933
G1 X145.145 Y152.333 E.03702
G1 X145.344 Y151.685 E.03816
G1 X145.584 Y151.054 E.03803
G1 X145.865 Y150.44 E.03803
G1 X146.186 Y149.847 E.03803
G1 X146.546 Y149.275 E.03803
G1 X146.943 Y148.729 E.03803
G1 X147.375 Y148.21 E.03803
G1 X147.841 Y147.721 E.03803
G1 X148.337 Y147.264 E.03803
G1 X148.863 Y146.841 E.03803
G1 X149.416 Y146.453 E.03803
G1 X149.993 Y146.102 E.03803
G1 X150.592 Y145.791 E.03803
G1 X151.21 Y145.52 E.03803
G1 X151.845 Y145.29 E.03803
G1 X152.494 Y145.103 E.03803
G1 X153.153 Y144.959 E.03803
G1 X153.821 Y144.859 E.03803
G1 X154.494 Y144.803 E.03803
G1 X155.172 Y144.792 E.03823
G1 X155.843 Y144.825 E.03784
G1 X156.514 Y144.903 E.03803
G1 X157.178 Y145.025 E.03803
G1 X157.832 Y145.191 E.03803
G1 X158.474 Y145.4 E.03803
G1 X159.101 Y145.65 E.03803
G1 X159.71 Y145.942 E.03803
G1 X160.298 Y146.273 E.03803
G1 X160.864 Y146.642 E.03803
G1 X161.403 Y147.048 E.03803
G1 X161.915 Y147.489 E.03803
G1 X162.396 Y147.962 E.03803
G1 X162.845 Y148.466 E.03803
G1 X163.26 Y148.999 E.03803
G1 X163.638 Y149.558 E.03803
G1 X163.979 Y150.141 E.03803
G1 X164.281 Y150.745 E.03803
G1 X164.541 Y151.367 E.03801
G1 X164.764 Y152.018 E.03874
G1 X164.937 Y152.658 E.03736
G1 X165.07 Y153.319 E.03796
G1 X165.162 Y154.015 E.03954
G1 X165.204 Y154.672 E.03711
G1 X165.204 Y155.327 E.0369
G1 X165.157 Y156.033 E.03984
G1 X165.07 Y156.681 E.03681
G1 X164.937 Y157.342 E.038
G1 X164.761 Y157.993 E.03802
G1 X164.542 Y158.633 E.03807
G1 X164.281 Y159.255 E.03803
G1 X163.979 Y159.859 E.03803
G1 X163.638 Y160.442 E.03803
G1 X163.26 Y161.001 E.03803
G1 X162.845 Y161.534 E.03803
G1 X162.396 Y162.038 E.03803
G1 X161.915 Y162.511 E.03803
G1 X161.403 Y162.952 E.03803
G1 X160.864 Y163.358 E.03803
G1 X160.299 Y163.727 E.03802
G1 X159.707 Y164.06 E.03823
G1 X159.101 Y164.35 E.03784
G1 X158.474 Y164.6 E.03803
G1 X157.832 Y164.809 E.03803
G1 X157.178 Y164.975 E.03803
G1 X156.514 Y165.097 E.03802
G1 X155.84 Y165.175 E.03823
G1 X155.169 Y165.208 E.03784
G1 X154.494 Y165.197 E.03803
G1 X153.821 Y165.141 E.03803
G1 X153.153 Y165.041 E.03803
G1 X152.494 Y164.897 E.03803
G1 X151.845 Y164.71 E.03803
G1 X151.21 Y164.48 E.03803
G1 X150.592 Y164.209 E.03803
G1 X149.993 Y163.898 E.03803
G1 X149.416 Y163.547 E.03803
G1 X148.863 Y163.159 E.03803
G1 X148.337 Y162.736 E.03803
G1 X147.841 Y162.279 E.03803
G1 X147.375 Y161.79 E.03803
G1 X146.943 Y161.271 E.03803
G1 X146.546 Y160.725 E.03803
G1 X146.114 Y160.019 E.0466
G1 X145.698 Y160.176 F9000
;TYPE:External perimeter
G1 F1200
G1 X145.471 Y159.756 E.02689
G1 X145.178 Y159.116 E.03967
G1 X144.927 Y158.458 E.03966
G1 X144.716 Y157.768 E.04065
G1 X144.559 Y157.101 E.03863
G1 X144.445 Y156.416 E.03911
G1 X144.371 Y155.652 E.04319
G1 X144.35 Y155 E.03677
G1 X144.371 Y154.347 E.03678
G1 X144.442 Y153.604 E.04209
G1 X144.562 Y152.885 E.04102
G1 X144.72 Y152.217 E.03865
G1 X144.927 Y151.542 E.0398
G1 X145.178 Y150.884 E.03967
G1 X145.471 Y150.244 E.03967
G1 X145.806 Y149.624 E.03967
G1 X146.182 Y149.028 E.03967
G1 X146.596 Y148.459 E.03967
G1 X147.046 Y147.918 E.03967
G1 X147.532 Y147.407 E.03967
G1 X148.05 Y146.93 E.03967
G1 X148.599 Y146.489 E.03967
G1 X149.175 Y146.084 E.03967
G1 X149.777 Y145.719 E.03967
G1 X150.402 Y145.394 E.03967
G1 X151.047 Y145.111 E.03967
G1 X151.709 Y144.871 E.03967
G1 X152.386 Y144.676 E.03967
G1 X153.074 Y144.526 E.03967
G1 X153.77 Y144.421 E.03967
G1 X154.472 Y144.363 E.03967
G1 X155.18 Y144.352 E.03987
G1 X155.879 Y144.387 E.03948
G1 X156.579 Y144.468 E.03967
G1 X157.272 Y144.595 E.03967
G1 X157.954 Y144.768 E.03967
G1 X158.624 Y144.986 E.03967
G1 X159.278 Y145.247 E.03967
G1 X159.913 Y145.551 E.03967
G1 X160.527 Y145.897 E.03967
G1 X161.116 Y146.282 E.03967
G1 X161.679 Y146.705 E.03967
G1 X162.213 Y147.165 E.03967
G1 X162.715 Y147.659 E.03967
G1 X163.183 Y148.184 E.03967
G1 X163.616 Y148.74 E.03967
G1 X164.011 Y149.323 E.03967
G1 X164.366 Y149.931 E.03967
